MODULE PrinterArm_Program

  ! NOTE: your program is interfacing with the robot's IOs. Make sure to properly configure their names/properties through system preferences in the ABB controller. See Machina's `SetIOName()` for more information.

  CONST speeddata vel20 := [20,20,5000,1000];
  CONST speeddata vel60 := [60,60,5000,1000];

  PERS tooldata marker := [TRUE, [[326,0,168],[1, 0, 0, 0]], [5,[163, 0, 84],[1,0,0,0],0,0,0]];

  PROC main()
    ConfJ \Off;
    ConfL \Off;

    ! Tool "marker" attached
    MoveL [[1138.699, -923.686, 192.764], [0.707107, 0, 0.707107, 0], [0,0,0,0], [0,9E9,9E9,9E9,9E9,9E9]], vel60, z5, marker\WObj:=WObj0;
    SetDO DO10_14, 1;
    MoveL [[1138.699, -923.686, 192.764], [0.707107, 0, 0.707107, 0], [0,0,0,0], [0,9E9,9E9,9E9,9E9,9E9]], vel60, z1, marker\WObj:=WObj0;
    MoveL [[1147.753, -910.418, 192.764], [0.707107, 0, 0.707107, 0], [0,0,0,0], [0,9E9,9E9,9E9,9E9,9E9]], vel60, z1, marker\WObj:=WObj0;
    MoveL [[1156.808, -897.149, 192.764], [0.707107, 0, 0.707107, 0], [0,0,0,0], [0,9E9,9E9,9E9,9E9,9E9]], vel60, z1, marker\WObj:=WObj0;
    MoveL [[1165.862, -883.881, 192.764], [0.707107, 0, 0.707107, 0], [0,0,0,0], [0,9E9,9E9,9E9,9E9,9E9]], vel60, z1, marker\WObj:=WObj0;
    MoveL [[1174.916, -870.613, 192.764], [0.707107, 0, 0.707107, 0], [0,0,0,0], [0,9E9,9E9,9E9,9E9,9E9]], vel60, z1, marker\WObj:=WObj0;
    MoveL [[1183.971, -857.344, 192.764], [0.707107, 0, 0.707107, 0], [0,0,0,0], [0,9E9,9E9,9E9,9E9,9E9]], vel60, z1, marker\WObj:=WObj0;
    MoveL [[1193.025, -851.638, 192.764], [0.707107, 0, 0.707107, 0], [0,0,0,0], [0,9E9,9E9,9E9,9E9,9E9]], vel60, z1, marker\WObj:=WObj0;
    MoveL [[1202.079, -864.907, 192.764], [0.707107, 0, 0.707107, 0], [0,0,0,0], [0,9E9,9E9,9E9,9E9,9E9]], vel60, z1, marker\WObj:=WObj0;
    MoveL [[1211.133, -878.175, 192.764], [0.707107, 0, 0.707107, 0], [0,0,0,0], [0,9E9,9E9,9E9,9E9,9E9]], vel60, z1, marker\WObj:=WObj0;
    MoveL [[1220.188, -891.444, 192.764], [0.707107, 0, 0.707107, 0], [0,0,0,0], [0,9E9,9E9,9E9,9E9,9E9]], vel60, z1, marker\WObj:=WObj0;
    MoveL [[1229.242, -904.712, 192.764], [0.707107, 0, 0.707107, 0], [0,0,0,0], [0,9E9,9E9,9E9,9E9,9E9]], vel60, z1, marker\WObj:=WObj0;
    MoveL [[1238.296, -917.981, 192.764], [0.707107, 0, 0.707107, 0], [0,0,0,0], [0,9E9,9E9,9E9,9E9,9E9]], vel60, z1, marker\WObj:=WObj0;
    MoveL [[1247.351, -931.249, 192.764], [0.707107, 0, 0.707107, 0], [0,0,0,0], [0,9E9,9E9,9E9,9E9,9E9]], vel60, z1, marker\WObj:=WObj0;
    MoveL [[1242.088, -936.955, 192.764], [0.707107, 0, 0.707107, 0], [0,0,0,0], [0,9E9,9E9,9E9,9E9,9E9]], vel60, z1, marker\WObj:=WObj0;
    MoveL [[1226.025, -936.955, 192.764], [0.707107, 0, 0.707107, 0], [0,0,0,0], [0,9E9,9E9,9E9,9E9,9E9]], vel60, z1, marker\WObj:=WObj0;
    MoveL [[1209.962, -936.955, 192.764], [0.707107, 0, 0.707107, 0], [0,0,0,0], [0,9E9,9E9,9E9,9E9,9E9]], vel60, z1, marker\WObj:=WObj0;
    MoveL [[1193.898, -936.955, 192.764], [0.707107, 0, 0.707107, 0], [0,0,0,0], [0,9E9,9E9,9E9,9E9,9E9]], vel60, z1, marker\WObj:=WObj0;
    MoveL [[1177.835, -936.955, 192.764], [0.707107, 0, 0.707107, 0], [0,0,0,0], [0,9E9,9E9,9E9,9E9,9E9]], vel60, z1, marker\WObj:=WObj0;
    MoveL [[1161.772, -936.955, 192.764], [0.707107, 0, 0.707107, 0], [0,0,0,0], [0,9E9,9E9,9E9,9E9,9E9]], vel60, z1, marker\WObj:=WObj0;
    MoveL [[1145.708, -936.955, 192.764], [0.707107, 0, 0.707107, 0], [0,0,0,0], [0,9E9,9E9,9E9,9E9,9E9]], vel60, z1, marker\WObj:=WObj0;
    MoveL [[1105.035, -949.955, 192.764], [0.707107, 0, 0.707107, 0], [0,0,0,0], [0,9E9,9E9,9E9,9E9,9E9]], vel60, z1, marker\WObj:=WObj0;
    MoveL [[1190.444, -824.794, 192.764], [0.707107, 0, 0.707107, 0], [0,0,0,0], [0,9E9,9E9,9E9,9E9,9E9]], vel60, z1, marker\WObj:=WObj0;
    MoveL [[1275.854, -949.955, 192.764], [0.707107, 0, 0.707107, 0], [0,0,0,0], [0,9E9,9E9,9E9,9E9,9E9]], vel60, z1, marker\WObj:=WObj0;
    MoveL [[1105.035, -949.955, 192.764], [0.707107, 0, 0.707107, 0], [0,0,0,0], [0,9E9,9E9,9E9,9E9,9E9]], vel60, z1, marker\WObj:=WObj0;
    MoveL [[1081.507, -976.955, 192.764], [0.707107, 0, 0.707107, 0], [0,0,0,0], [0,9E9,9E9,9E9,9E9,9E9]], vel60, z1, marker\WObj:=WObj0;
    MoveL [[1121.729, -925.491, 192.764], [0.707107, 0, 0.707107, 0], [0,0,0,0], [0,9E9,9E9,9E9,9E9,9E9]], vel60, z1, marker\WObj:=WObj0;
    MoveL [[1085.019, -931.386, 192.764], [0.707107, 0, 0.707107, 0], [0,0,0,0], [0,9E9,9E9,9E9,9E9,9E9]], vel60, z1, marker\WObj:=WObj0;
    MoveL [[1138.423, -901.027, 192.764], [0.707107, 0, 0.707107, 0], [0,0,0,0], [0,9E9,9E9,9E9,9E9,9E9]], vel60, z1, marker\WObj:=WObj0;
    MoveL [[1112.51, -885.613, 192.764], [0.707107, 0, 0.707107, 0], [0,0,0,0], [0,9E9,9E9,9E9,9E9,9E9]], vel60, z1, marker\WObj:=WObj0;
    MoveL [[1155.117, -876.564, 192.764], [0.707107, 0, 0.707107, 0], [0,0,0,0], [0,9E9,9E9,9E9,9E9,9E9]], vel60, z1, marker\WObj:=WObj0;
    MoveL [[1130.362, -864.939, 192.764], [0.707107, 0, 0.707107, 0], [0,0,0,0], [0,9E9,9E9,9E9,9E9,9E9]], vel60, z1, marker\WObj:=WObj0;
    MoveL [[1171.811, -852.1, 192.764], [0.707107, 0, 0.707107, 0], [0,0,0,0], [0,9E9,9E9,9E9,9E9,9E9]], vel60, z1, marker\WObj:=WObj0;
    MoveL [[1161.458, -819.37, 192.764], [0.707107, 0, 0.707107, 0], [0,0,0,0], [0,9E9,9E9,9E9,9E9,9E9]], vel60, z1, marker\WObj:=WObj0;
    MoveL [[1188.505, -827.636, 192.764], [0.707107, 0, 0.707107, 0], [0,0,0,0], [0,9E9,9E9,9E9,9E9,9E9]], vel60, z1, marker\WObj:=WObj0;
    MoveL [[1192.554, -779.984, 192.764], [0.707107, 0, 0.707107, 0], [0,0,0,0], [0,9E9,9E9,9E9,9E9,9E9]], vel60, z1, marker\WObj:=WObj0;
    MoveL [[1205.199, -846.415, 192.764], [0.707107, 0, 0.707107, 0], [0,0,0,0], [0,9E9,9E9,9E9,9E9,9E9]], vel60, z1, marker\WObj:=WObj0;
    MoveL [[1223.65, -825.553, 192.764], [0.707107, 0, 0.707107, 0], [0,0,0,0], [0,9E9,9E9,9E9,9E9,9E9]], vel60, z1, marker\WObj:=WObj0;
    MoveL [[1221.892, -870.878, 192.764], [0.707107, 0, 0.707107, 0], [0,0,0,0], [0,9E9,9E9,9E9,9E9,9E9]], vel60, z1, marker\WObj:=WObj0;
    MoveL [[1254.746, -871.122, 192.764], [0.707107, 0, 0.707107, 0], [0,0,0,0], [0,9E9,9E9,9E9,9E9,9E9]], vel60, z1, marker\WObj:=WObj0;
    MoveL [[1238.586, -895.342, 192.764], [0.707107, 0, 0.707107, 0], [0,0,0,0], [0,9E9,9E9,9E9,9E9,9E9]], vel60, z1, marker\WObj:=WObj0;
    MoveL [[1268.993, -891.999, 192.764], [0.707107, 0, 0.707107, 0], [0,0,0,0], [0,9E9,9E9,9E9,9E9,9E9]], vel60, z1, marker\WObj:=WObj0;
    MoveL [[1255.28, -919.806, 192.764], [0.707107, 0, 0.707107, 0], [0,0,0,0], [0,9E9,9E9,9E9,9E9,9E9]], vel60, z1, marker\WObj:=WObj0;
    MoveL [[1300.089, -937.569, 192.764], [0.707107, 0, 0.707107, 0], [0,0,0,0], [0,9E9,9E9,9E9,9E9,9E9]], vel60, z1, marker\WObj:=WObj0;
    MoveL [[1271.974, -944.269, 192.764], [0.707107, 0, 0.707107, 0], [0,0,0,0], [0,9E9,9E9,9E9,9E9,9E9]], vel60, z1, marker\WObj:=WObj0;
    MoveL [[1319.48, -976.955, 192.764], [0.707107, 0, 0.707107, 0], [0,0,0,0], [0,9E9,9E9,9E9,9E9,9E9]], vel60, z1, marker\WObj:=WObj0;
    MoveL [[1253.12, -949.955, 192.764], [0.707107, 0, 0.707107, 0], [0,0,0,0], [0,9E9,9E9,9E9,9E9,9E9]], vel60, z1, marker\WObj:=WObj0;
    MoveL [[1264.312, -976.955, 192.764], [0.707107, 0, 0.707107, 0], [0,0,0,0], [0,9E9,9E9,9E9,9E9,9E9]], vel60, z1, marker\WObj:=WObj0;
    MoveL [[1223.503, -949.955, 192.764], [0.707107, 0, 0.707107, 0], [0,0,0,0], [0,9E9,9E9,9E9,9E9,9E9]], vel60, z1, marker\WObj:=WObj0;
    MoveL [[1209.144, -976.955, 192.764], [0.707107, 0, 0.707107, 0], [0,0,0,0], [0,9E9,9E9,9E9,9E9,9E9]], vel60, z1, marker\WObj:=WObj0;
    MoveL [[1193.886, -949.955, 192.764], [0.707107, 0, 0.707107, 0], [0,0,0,0], [0,9E9,9E9,9E9,9E9,9E9]], vel60, z1, marker\WObj:=WObj0;
    MoveL [[1182.254, -992.866, 192.764], [0.707107, 0, 0.707107, 0], [0,0,0,0], [0,9E9,9E9,9E9,9E9,9E9]], vel60, z1, marker\WObj:=WObj0;
    MoveL [[1164.269, -949.955, 192.764], [0.707107, 0, 0.707107, 0], [0,0,0,0], [0,9E9,9E9,9E9,9E9,9E9]], vel60, z1, marker\WObj:=WObj0;
    MoveL [[1136.676, -976.955, 192.764], [0.707107, 0, 0.707107, 0], [0,0,0,0], [0,9E9,9E9,9E9,9E9,9E9]], vel60, z1, marker\WObj:=WObj0;
    MoveL [[1134.652, -949.955, 192.764], [0.707107, 0, 0.707107, 0], [0,0,0,0], [0,9E9,9E9,9E9,9E9,9E9]], vel60, z1, marker\WObj:=WObj0;
    MoveL [[1053.923, -976.955, 192.764], [0.707107, 0, 0.707107, 0], [0,0,0,0], [0,9E9,9E9,9E9,9E9,9E9]], vel60, z1, marker\WObj:=WObj0;
    MoveL [[1114.144, -888.706, 192.764], [0.707107, 0, 0.707107, 0], [0,0,0,0], [0,9E9,9E9,9E9,9E9,9E9]], vel60, z1, marker\WObj:=WObj0;
    MoveL [[1102.591, -866.836, 192.764], [0.707107, 0, 0.707107, 0], [0,0,0,0], [0,9E9,9E9,9E9,9E9,9E9]], vel60, z1, marker\WObj:=WObj0;
    MoveL [[1124.011, -874.246, 192.764], [0.707107, 0, 0.707107, 0], [0,0,0,0], [0,9E9,9E9,9E9,9E9,9E9]], vel60, z1, marker\WObj:=WObj0;
    MoveL [[1190.444, -776.892, 192.764], [0.707107, 0, 0.707107, 0], [0,0,0,0], [0,9E9,9E9,9E9,9E9,9E9]], vel60, z1, marker\WObj:=WObj0;
    MoveL [[1256.878, -874.246, 192.764], [0.707107, 0, 0.707107, 0], [0,0,0,0], [0,9E9,9E9,9E9,9E9,9E9]], vel60, z1, marker\WObj:=WObj0;
    MoveL [[1278.298, -866.836, 192.764], [0.707107, 0, 0.707107, 0], [0,0,0,0], [0,9E9,9E9,9E9,9E9,9E9]], vel60, z1, marker\WObj:=WObj0;
    MoveL [[1266.745, -888.706, 192.764], [0.707107, 0, 0.707107, 0], [0,0,0,0], [0,9E9,9E9,9E9,9E9,9E9]], vel60, z1, marker\WObj:=WObj0;
    MoveL [[1326.966, -976.955, 192.764], [0.707107, 0, 0.707107, 0], [0,0,0,0], [0,9E9,9E9,9E9,9E9,9E9]], vel60, z1, marker\WObj:=WObj0;
    MoveL [[1207.04, -976.955, 192.764], [0.707107, 0, 0.707107, 0], [0,0,0,0], [0,9E9,9E9,9E9,9E9,9E9]], vel60, z1, marker\WObj:=WObj0;
    MoveL [[1190.444, -1008.37, 192.764], [0.707107, 0, 0.707107, 0], [0,0,0,0], [0,9E9,9E9,9E9,9E9,9E9]], vel60, z1, marker\WObj:=WObj0;
    MoveL [[1173.849, -976.955, 192.764], [0.707107, 0, 0.707107, 0], [0,0,0,0], [0,9E9,9E9,9E9,9E9,9E9]], vel60, z1, marker\WObj:=WObj0;
    MoveL [[1053.923, -976.955, 192.764], [0.707107, 0, 0.707107, 0], [0,0,0,0], [0,9E9,9E9,9E9,9E9,9E9]], vel60, z1, marker\WObj:=WObj0;
    MoveL [[1105.035, -949.955, 196.764], [0.707107, 0, 0.707107, 0], [0,0,0,0], [0,9E9,9E9,9E9,9E9,9E9]], vel60, z1, marker\WObj:=WObj0;
    MoveL [[1190.444, -824.794, 196.764], [0.707107, 0, 0.707107, 0], [0,0,0,0], [0,9E9,9E9,9E9,9E9,9E9]], vel60, z1, marker\WObj:=WObj0;
    MoveL [[1275.854, -949.955, 196.764], [0.707107, 0, 0.707107, 0], [0,0,0,0], [0,9E9,9E9,9E9,9E9,9E9]], vel60, z1, marker\WObj:=WObj0;
    MoveL [[1105.035, -949.955, 196.764], [0.707107, 0, 0.707107, 0], [0,0,0,0], [0,9E9,9E9,9E9,9E9,9E9]], vel60, z1, marker\WObj:=WObj0;
    MoveL [[1080.572, -977.779, 196.764], [0.707107, 0, 0.707107, 0], [0,0,0,0], [0,9E9,9E9,9E9,9E9,9E9]], vel60, z1, marker\WObj:=WObj0;
    MoveL [[1121.729, -925.491, 196.764], [0.707107, 0, 0.707107, 0], [0,0,0,0], [0,9E9,9E9,9E9,9E9,9E9]], vel60, z1, marker\WObj:=WObj0;
    MoveL [[1084.163, -931.178, 196.764], [0.707107, 0, 0.707107, 0], [0,0,0,0], [0,9E9,9E9,9E9,9E9,9E9]], vel60, z1, marker\WObj:=WObj0;
    MoveL [[1138.423, -901.027, 196.764], [0.707107, 0, 0.707107, 0], [0,0,0,0], [0,9E9,9E9,9E9,9E9,9E9]], vel60, z1, marker\WObj:=WObj0;
    MoveL [[1109.905, -884.229, 196.764], [0.707107, 0, 0.707107, 0], [0,0,0,0], [0,9E9,9E9,9E9,9E9,9E9]], vel60, z1, marker\WObj:=WObj0;
    MoveL [[1155.117, -876.564, 196.764], [0.707107, 0, 0.707107, 0], [0,0,0,0], [0,9E9,9E9,9E9,9E9,9E9]], vel60, z1, marker\WObj:=WObj0;
    MoveL [[1128.628, -866.018, 196.764], [0.707107, 0, 0.707107, 0], [0,0,0,0], [0,9E9,9E9,9E9,9E9,9E9]], vel60, z1, marker\WObj:=WObj0;
    MoveL [[1171.811, -852.1, 196.764], [0.707107, 0, 0.707107, 0], [0,0,0,0], [0,9E9,9E9,9E9,9E9,9E9]], vel60, z1, marker\WObj:=WObj0;
    MoveL [[1160.428, -819.418, 196.764], [0.707107, 0, 0.707107, 0], [0,0,0,0], [0,9E9,9E9,9E9,9E9,9E9]], vel60, z1, marker\WObj:=WObj0;
    MoveL [[1188.505, -827.636, 196.764], [0.707107, 0, 0.707107, 0], [0,0,0,0], [0,9E9,9E9,9E9,9E9,9E9]], vel60, z1, marker\WObj:=WObj0;
    MoveL [[1192.228, -778.044, 196.764], [0.707107, 0, 0.707107, 0], [0,0,0,0], [0,9E9,9E9,9E9,9E9,9E9]], vel60, z1, marker\WObj:=WObj0;
    MoveL [[1205.199, -846.415, 196.764], [0.707107, 0, 0.707107, 0], [0,0,0,0], [0,9E9,9E9,9E9,9E9,9E9]], vel60, z1, marker\WObj:=WObj0;
    MoveL [[1224.028, -824.645, 196.764], [0.707107, 0, 0.707107, 0], [0,0,0,0], [0,9E9,9E9,9E9,9E9,9E9]], vel60, z1, marker\WObj:=WObj0;
    MoveL [[1221.892, -870.878, 196.764], [0.707107, 0, 0.707107, 0], [0,0,0,0], [0,9E9,9E9,9E9,9E9,9E9]], vel60, z1, marker\WObj:=WObj0;
    MoveL [[1255.828, -871.245, 196.764], [0.707107, 0, 0.707107, 0], [0,0,0,0], [0,9E9,9E9,9E9,9E9,9E9]], vel60, z1, marker\WObj:=WObj0;
    MoveL [[1238.586, -895.342, 196.764], [0.707107, 0, 0.707107, 0], [0,0,0,0], [0,9E9,9E9,9E9,9E9,9E9]], vel60, z1, marker\WObj:=WObj0;
    MoveL [[1268.492, -889.804, 196.764], [0.707107, 0, 0.707107, 0], [0,0,0,0], [0,9E9,9E9,9E9,9E9,9E9]], vel60, z1, marker\WObj:=WObj0;
    MoveL [[1255.28, -919.806, 196.764], [0.707107, 0, 0.707107, 0], [0,0,0,0], [0,9E9,9E9,9E9,9E9,9E9]], vel60, z1, marker\WObj:=WObj0;
    MoveL [[1300.292, -936.405, 196.764], [0.707107, 0, 0.707107, 0], [0,0,0,0], [0,9E9,9E9,9E9,9E9,9E9]], vel60, z1, marker\WObj:=WObj0;
    MoveL [[1271.974, -944.269, 196.764], [0.707107, 0, 0.707107, 0], [0,0,0,0], [0,9E9,9E9,9E9,9E9,9E9]], vel60, z1, marker\WObj:=WObj0;
    MoveL [[1322.198, -977.779, 196.764], [0.707107, 0, 0.707107, 0], [0,0,0,0], [0,9E9,9E9,9E9,9E9,9E9]], vel60, z1, marker\WObj:=WObj0;
    MoveL [[1253.12, -949.955, 196.764], [0.707107, 0, 0.707107, 0], [0,0,0,0], [0,9E9,9E9,9E9,9E9,9E9]], vel60, z1, marker\WObj:=WObj0;
    MoveL [[1265.781, -977.779, 196.764], [0.707107, 0, 0.707107, 0], [0,0,0,0], [0,9E9,9E9,9E9,9E9,9E9]], vel60, z1, marker\WObj:=WObj0;
    MoveL [[1223.503, -949.955, 196.764], [0.707107, 0, 0.707107, 0], [0,0,0,0], [0,9E9,9E9,9E9,9E9,9E9]], vel60, z1, marker\WObj:=WObj0;
    MoveL [[1209.364, -977.779, 196.764], [0.707107, 0, 0.707107, 0], [0,0,0,0], [0,9E9,9E9,9E9,9E9,9E9]], vel60, z1, marker\WObj:=WObj0;
    MoveL [[1193.886, -949.955, 196.764], [0.707107, 0, 0.707107, 0], [0,0,0,0], [0,9E9,9E9,9E9,9E9,9E9]], vel60, z1, marker\WObj:=WObj0;
    MoveL [[1182.26, -996.328, 196.764], [0.707107, 0, 0.707107, 0], [0,0,0,0], [0,9E9,9E9,9E9,9E9,9E9]], vel60, z1, marker\WObj:=WObj0;
    MoveL [[1164.269, -949.955, 196.764], [0.707107, 0, 0.707107, 0], [0,0,0,0], [0,9E9,9E9,9E9,9E9,9E9]], vel60, z1, marker\WObj:=WObj0;
    MoveL [[1136.989, -977.779, 196.764], [0.707107, 0, 0.707107, 0], [0,0,0,0], [0,9E9,9E9,9E9,9E9,9E9]], vel60, z1, marker\WObj:=WObj0;
    MoveL [[1134.652, -949.955, 196.764], [0.707107, 0, 0.707107, 0], [0,0,0,0], [0,9E9,9E9,9E9,9E9,9E9]], vel60, z1, marker\WObj:=WObj0;
    MoveL [[1052.363, -977.779, 196.764], [0.707107, 0, 0.707107, 0], [0,0,0,0], [0,9E9,9E9,9E9,9E9,9E9]], vel60, z1, marker\WObj:=WObj0;
    MoveL [[1112.645, -889.441, 196.764], [0.707107, 0, 0.707107, 0], [0,0,0,0], [0,9E9,9E9,9E9,9E9,9E9]], vel60, z1, marker\WObj:=WObj0;
    MoveL [[1103.937, -872.844, 196.764], [0.707107, 0, 0.707107, 0], [0,0,0,0], [0,9E9,9E9,9E9,9E9,9E9]], vel60, z1, marker\WObj:=WObj0;
    MoveL [[1100.024, -865.338, 196.764], [0.707107, 0, 0.707107, 0], [0,0,0,0], [0,9E9,9E9,9E9,9E9,9E9]], vel60, z1, marker\WObj:=WObj0;
    MoveL [[1099.552, -864.429, 196.764], [0.707107, 0, 0.707107, 0], [0,0,0,0], [0,9E9,9E9,9E9,9E9,9E9]], vel60, z1, marker\WObj:=WObj0;
    MoveL [[1099.84, -864.528, 196.764], [0.707107, 0, 0.707107, 0], [0,0,0,0], [0,9E9,9E9,9E9,9E9,9E9]], vel60, z1, marker\WObj:=WObj0;
    MoveL [[1107.167, -867.037, 196.764], [0.707107, 0, 0.707107, 0], [0,0,0,0], [0,9E9,9E9,9E9,9E9,9E9]], vel60, z1, marker\WObj:=WObj0;
    MoveL [[1123.983, -872.825, 196.764], [0.707107, 0, 0.707107, 0], [0,0,0,0], [0,9E9,9E9,9E9,9E9,9E9]], vel60, z1, marker\WObj:=WObj0;
    MoveL [[1190.444, -775.431, 196.764], [0.707107, 0, 0.707107, 0], [0,0,0,0], [0,9E9,9E9,9E9,9E9,9E9]], vel60, z1, marker\WObj:=WObj0;
    MoveL [[1256.906, -872.825, 196.764], [0.707107, 0, 0.707107, 0], [0,0,0,0], [0,9E9,9E9,9E9,9E9,9E9]], vel60, z1, marker\WObj:=WObj0;
    MoveL [[1273.722, -867.037, 196.764], [0.707107, 0, 0.707107, 0], [0,0,0,0], [0,9E9,9E9,9E9,9E9,9E9]], vel60, z1, marker\WObj:=WObj0;
    MoveL [[1281.049, -864.528, 196.764], [0.707107, 0, 0.707107, 0], [0,0,0,0], [0,9E9,9E9,9E9,9E9,9E9]], vel60, z1, marker\WObj:=WObj0;
    MoveL [[1281.337, -864.429, 196.764], [0.707107, 0, 0.707107, 0], [0,0,0,0], [0,9E9,9E9,9E9,9E9,9E9]], vel60, z1, marker\WObj:=WObj0;
    MoveL [[1280.865, -865.338, 196.764], [0.707107, 0, 0.707107, 0], [0,0,0,0], [0,9E9,9E9,9E9,9E9,9E9]], vel60, z1, marker\WObj:=WObj0;
    MoveL [[1276.952, -872.844, 196.764], [0.707107, 0, 0.707107, 0], [0,0,0,0], [0,9E9,9E9,9E9,9E9,9E9]], vel60, z1, marker\WObj:=WObj0;
    MoveL [[1268.244, -889.441, 196.764], [0.707107, 0, 0.707107, 0], [0,0,0,0], [0,9E9,9E9,9E9,9E9,9E9]], vel60, z1, marker\WObj:=WObj0;
    MoveL [[1328.526, -977.779, 196.764], [0.707107, 0, 0.707107, 0], [0,0,0,0], [0,9E9,9E9,9E9,9E9,9E9]], vel60, z1, marker\WObj:=WObj0;
    MoveL [[1208.492, -977.779, 196.764], [0.707107, 0, 0.707107, 0], [0,0,0,0], [0,9E9,9E9,9E9,9E9,9E9]], vel60, z1, marker\WObj:=WObj0;
    MoveL [[1202.726, -988.635, 196.764], [0.707107, 0, 0.707107, 0], [0,0,0,0], [0,9E9,9E9,9E9,9E9,9E9]], vel60, z1, marker\WObj:=WObj0;
    MoveL [[1197.795, -997.888, 196.764], [0.707107, 0, 0.707107, 0], [0,0,0,0], [0,9E9,9E9,9E9,9E9,9E9]], vel60, z1, marker\WObj:=WObj0;
    MoveL [[1192.84, -1007.12, 196.764], [0.707107, 0, 0.707107, 0], [0,0,0,0], [0,9E9,9E9,9E9,9E9,9E9]], vel60, z1, marker\WObj:=WObj0;
    MoveL [[1190.444, -1011.533, 196.764], [0.707107, 0, 0.707107, 0], [0,0,0,0], [0,9E9,9E9,9E9,9E9,9E9]], vel60, z1, marker\WObj:=WObj0;
    MoveL [[1188.049, -1007.12, 196.764], [0.707107, 0, 0.707107, 0], [0,0,0,0], [0,9E9,9E9,9E9,9E9,9E9]], vel60, z1, marker\WObj:=WObj0;
    MoveL [[1183.094, -997.888, 196.764], [0.707107, 0, 0.707107, 0], [0,0,0,0], [0,9E9,9E9,9E9,9E9,9E9]], vel60, z1, marker\WObj:=WObj0;
    MoveL [[1178.163, -988.635, 196.764], [0.707107, 0, 0.707107, 0], [0,0,0,0], [0,9E9,9E9,9E9,9E9,9E9]], vel60, z1, marker\WObj:=WObj0;
    MoveL [[1172.397, -977.779, 196.764], [0.707107, 0, 0.707107, 0], [0,0,0,0], [0,9E9,9E9,9E9,9E9,9E9]], vel60, z1, marker\WObj:=WObj0;
    MoveL [[1052.363, -977.779, 196.764], [0.707107, 0, 0.707107, 0], [0,0,0,0], [0,9E9,9E9,9E9,9E9,9E9]], vel60, z1, marker\WObj:=WObj0;
    MoveL [[1105.035, -949.955, 200.764], [0.707107, 0, 0.707107, 0], [0,0,0,0], [0,9E9,9E9,9E9,9E9,9E9]], vel60, z1, marker\WObj:=WObj0;
    MoveL [[1190.444, -824.794, 200.764], [0.707107, 0, 0.707107, 0], [0,0,0,0], [0,9E9,9E9,9E9,9E9,9E9]], vel60, z1, marker\WObj:=WObj0;
    MoveL [[1275.854, -949.955, 200.764], [0.707107, 0, 0.707107, 0], [0,0,0,0], [0,9E9,9E9,9E9,9E9,9E9]], vel60, z1, marker\WObj:=WObj0;
    MoveL [[1105.035, -949.955, 200.764], [0.707107, 0, 0.707107, 0], [0,0,0,0], [0,9E9,9E9,9E9,9E9,9E9]], vel60, z1, marker\WObj:=WObj0;
    MoveL [[1079.574, -978.603, 200.764], [0.707107, 0, 0.707107, 0], [0,0,0,0], [0,9E9,9E9,9E9,9E9,9E9]], vel60, z1, marker\WObj:=WObj0;
    MoveL [[1121.729, -925.491, 200.764], [0.707107, 0, 0.707107, 0], [0,0,0,0], [0,9E9,9E9,9E9,9E9,9E9]], vel60, z1, marker\WObj:=WObj0;
    MoveL [[1083.237, -931.073, 200.764], [0.707107, 0, 0.707107, 0], [0,0,0,0], [0,9E9,9E9,9E9,9E9,9E9]], vel60, z1, marker\WObj:=WObj0;
    MoveL [[1138.423, -901.027, 200.764], [0.707107, 0, 0.707107, 0], [0,0,0,0], [0,9E9,9E9,9E9,9E9,9E9]], vel60, z1, marker\WObj:=WObj0;
    MoveL [[1107.425, -883.061, 200.764], [0.707107, 0, 0.707107, 0], [0,0,0,0], [0,9E9,9E9,9E9,9E9,9E9]], vel60, z1, marker\WObj:=WObj0;
    MoveL [[1155.117, -876.564, 200.764], [0.707107, 0, 0.707107, 0], [0,0,0,0], [0,9E9,9E9,9E9,9E9,9E9]], vel60, z1, marker\WObj:=WObj0;
    MoveL [[1126.726, -867.343, 200.764], [0.707107, 0, 0.707107, 0], [0,0,0,0], [0,9E9,9E9,9E9,9E9,9E9]], vel60, z1, marker\WObj:=WObj0;
    MoveL [[1171.811, -852.1, 200.764], [0.707107, 0, 0.707107, 0], [0,0,0,0], [0,9E9,9E9,9E9,9E9,9E9]], vel60, z1, marker\WObj:=WObj0;
    MoveL [[1159.16, -819.814, 200.764], [0.707107, 0, 0.707107, 0], [0,0,0,0], [0,9E9,9E9,9E9,9E9,9E9]], vel60, z1, marker\WObj:=WObj0;
    MoveL [[1188.505, -827.636, 200.764], [0.707107, 0, 0.707107, 0], [0,0,0,0], [0,9E9,9E9,9E9,9E9,9E9]], vel60, z1, marker\WObj:=WObj0;
    MoveL [[1191.594, -775.653, 200.764], [0.707107, 0, 0.707107, 0], [0,0,0,0], [0,9E9,9E9,9E9,9E9,9E9]], vel60, z1, marker\WObj:=WObj0;
    MoveL [[1205.199, -846.415, 200.764], [0.707107, 0, 0.707107, 0], [0,0,0,0], [0,9E9,9E9,9E9,9E9,9E9]], vel60, z1, marker\WObj:=WObj0;
    MoveL [[1224.028, -823.183, 200.764], [0.707107, 0, 0.707107, 0], [0,0,0,0], [0,9E9,9E9,9E9,9E9,9E9]], vel60, z1, marker\WObj:=WObj0;
    MoveL [[1221.892, -870.878, 200.764], [0.707107, 0, 0.707107, 0], [0,0,0,0], [0,9E9,9E9,9E9,9E9,9E9]], vel60, z1, marker\WObj:=WObj0;
    MoveL [[1256.462, -870.712, 200.764], [0.707107, 0, 0.707107, 0], [0,0,0,0], [0,9E9,9E9,9E9,9E9,9E9]], vel60, z1, marker\WObj:=WObj0;
    MoveL [[1238.586, -895.342, 200.764], [0.707107, 0, 0.707107, 0], [0,0,0,0], [0,9E9,9E9,9E9,9E9,9E9]], vel60, z1, marker\WObj:=WObj0;
    MoveL [[1271.575, -886.676, 200.764], [0.707107, 0, 0.707107, 0], [0,0,0,0], [0,9E9,9E9,9E9,9E9,9E9]], vel60, z1, marker\WObj:=WObj0;
    MoveL [[1255.28, -919.806, 200.764], [0.707107, 0, 0.707107, 0], [0,0,0,0], [0,9E9,9E9,9E9,9E9,9E9]], vel60, z1, marker\WObj:=WObj0;
    MoveL [[1299.951, -934.442, 200.764], [0.707107, 0, 0.707107, 0], [0,0,0,0], [0,9E9,9E9,9E9,9E9,9E9]], vel60, z1, marker\WObj:=WObj0;
    MoveL [[1271.974, -944.269, 200.764], [0.707107, 0, 0.707107, 0], [0,0,0,0], [0,9E9,9E9,9E9,9E9,9E9]], vel60, z1, marker\WObj:=WObj0;
    MoveL [[1326.007, -978.603, 200.764], [0.707107, 0, 0.707107, 0], [0,0,0,0], [0,9E9,9E9,9E9,9E9,9E9]], vel60, z1, marker\WObj:=WObj0;
    MoveL [[1253.12, -949.955, 200.764], [0.707107, 0, 0.707107, 0], [0,0,0,0], [0,9E9,9E9,9E9,9E9,9E9]], vel60, z1, marker\WObj:=WObj0;
    MoveL [[1268.465, -978.603, 200.764], [0.707107, 0, 0.707107, 0], [0,0,0,0], [0,9E9,9E9,9E9,9E9,9E9]], vel60, z1, marker\WObj:=WObj0;
    MoveL [[1223.503, -949.955, 200.764], [0.707107, 0, 0.707107, 0], [0,0,0,0], [0,9E9,9E9,9E9,9E9,9E9]], vel60, z1, marker\WObj:=WObj0;
    MoveL [[1210.924, -978.603, 200.764], [0.707107, 0, 0.707107, 0], [0,0,0,0], [0,9E9,9E9,9E9,9E9,9E9]], vel60, z1, marker\WObj:=WObj0;
    MoveL [[1193.886, -949.955, 200.764], [0.707107, 0, 0.707107, 0], [0,0,0,0], [0,9E9,9E9,9E9,9E9,9E9]], vel60, z1, marker\WObj:=WObj0;
    MoveL [[1182.138, -999.506, 200.764], [0.707107, 0, 0.707107, 0], [0,0,0,0], [0,9E9,9E9,9E9,9E9,9E9]], vel60, z1, marker\WObj:=WObj0;
    MoveL [[1164.269, -949.955, 200.764], [0.707107, 0, 0.707107, 0], [0,0,0,0], [0,9E9,9E9,9E9,9E9,9E9]], vel60, z1, marker\WObj:=WObj0;
    MoveL [[1137.115, -978.603, 200.764], [0.707107, 0, 0.707107, 0], [0,0,0,0], [0,9E9,9E9,9E9,9E9,9E9]], vel60, z1, marker\WObj:=WObj0;
    MoveL [[1134.652, -949.955, 200.764], [0.707107, 0, 0.707107, 0], [0,0,0,0], [0,9E9,9E9,9E9,9E9,9E9]], vel60, z1, marker\WObj:=WObj0;
    MoveL [[1050.803, -978.603, 200.764], [0.707107, 0, 0.707107, 0], [0,0,0,0], [0,9E9,9E9,9E9,9E9,9E9]], vel60, z1, marker\WObj:=WObj0;
    MoveL [[1111.145, -890.176, 200.764], [0.707107, 0, 0.707107, 0], [0,0,0,0], [0,9E9,9E9,9E9,9E9,9E9]], vel60, z1, marker\WObj:=WObj0;
    MoveL [[1102.343, -873.297, 200.764], [0.707107, 0, 0.707107, 0], [0,0,0,0], [0,9E9,9E9,9E9,9E9,9E9]], vel60, z1, marker\WObj:=WObj0;
    MoveL [[1096.548, -862.046, 200.764], [0.707107, 0, 0.707107, 0], [0,0,0,0], [0,9E9,9E9,9E9,9E9,9E9]], vel60, z1, marker\WObj:=WObj0;
    MoveL [[1106.894, -865.559, 200.764], [0.707107, 0, 0.707107, 0], [0,0,0,0], [0,9E9,9E9,9E9,9E9,9E9]], vel60, z1, marker\WObj:=WObj0;
    MoveL [[1123.955, -871.405, 200.764], [0.707107, 0, 0.707107, 0], [0,0,0,0], [0,9E9,9E9,9E9,9E9,9E9]], vel60, z1, marker\WObj:=WObj0;
    MoveL [[1190.444, -773.969, 200.764], [0.707107, 0, 0.707107, 0], [0,0,0,0], [0,9E9,9E9,9E9,9E9,9E9]], vel60, z1, marker\WObj:=WObj0;
    MoveL [[1256.934, -871.405, 200.764], [0.707107, 0, 0.707107, 0], [0,0,0,0], [0,9E9,9E9,9E9,9E9,9E9]], vel60, z1, marker\WObj:=WObj0;
    MoveL [[1273.995, -865.559, 200.764], [0.707107, 0, 0.707107, 0], [0,0,0,0], [0,9E9,9E9,9E9,9E9,9E9]], vel60, z1, marker\WObj:=WObj0;
    MoveL [[1284.341, -862.046, 200.764], [0.707107, 0, 0.707107, 0], [0,0,0,0], [0,9E9,9E9,9E9,9E9,9E9]], vel60, z1, marker\WObj:=WObj0;
    MoveL [[1278.546, -873.297, 200.764], [0.707107, 0, 0.707107, 0], [0,0,0,0], [0,9E9,9E9,9E9,9E9,9E9]], vel60, z1, marker\WObj:=WObj0;
    MoveL [[1269.744, -890.176, 200.764], [0.707107, 0, 0.707107, 0], [0,0,0,0], [0,9E9,9E9,9E9,9E9,9E9]], vel60, z1, marker\WObj:=WObj0;
    MoveL [[1330.085, -978.603, 200.764], [0.707107, 0, 0.707107, 0], [0,0,0,0], [0,9E9,9E9,9E9,9E9,9E9]], vel60, z1, marker\WObj:=WObj0;
    MoveL [[1209.944, -978.603, 200.764], [0.707107, 0, 0.707107, 0], [0,0,0,0], [0,9E9,9E9,9E9,9E9,9E9]], vel60, z1, marker\WObj:=WObj0;
    MoveL [[1200.968, -995.391, 200.764], [0.707107, 0, 0.707107, 0], [0,0,0,0], [0,9E9,9E9,9E9,9E9,9E9]], vel60, z1, marker\WObj:=WObj0;
    MoveL [[1196.876, -1002.968, 200.764], [0.707107, 0, 0.707107, 0], [0,0,0,0], [0,9E9,9E9,9E9,9E9,9E9]], vel60, z1, marker\WObj:=WObj0;
    MoveL [[1192.835, -1010.351, 200.764], [0.707107, 0, 0.707107, 0], [0,0,0,0], [0,9E9,9E9,9E9,9E9,9E9]], vel60, z1, marker\WObj:=WObj0;
    MoveL [[1190.444, -1013.647, 200.764], [0.707107, 0, 0.707107, 0], [0,0,0,0], [0,9E9,9E9,9E9,9E9,9E9]], vel60, z1, marker\WObj:=WObj0;
    MoveL [[1188.054, -1010.351, 200.764], [0.707107, 0, 0.707107, 0], [0,0,0,0], [0,9E9,9E9,9E9,9E9,9E9]], vel60, z1, marker\WObj:=WObj0;
    MoveL [[1184.013, -1002.968, 200.764], [0.707107, 0, 0.707107, 0], [0,0,0,0], [0,9E9,9E9,9E9,9E9,9E9]], vel60, z1, marker\WObj:=WObj0;
    MoveL [[1179.921, -995.391, 200.764], [0.707107, 0, 0.707107, 0], [0,0,0,0], [0,9E9,9E9,9E9,9E9,9E9]], vel60, z1, marker\WObj:=WObj0;
    MoveL [[1170.945, -978.603, 200.764], [0.707107, 0, 0.707107, 0], [0,0,0,0], [0,9E9,9E9,9E9,9E9,9E9]], vel60, z1, marker\WObj:=WObj0;
    MoveL [[1050.803, -978.603, 200.764], [0.707107, 0, 0.707107, 0], [0,0,0,0], [0,9E9,9E9,9E9,9E9,9E9]], vel60, z1, marker\WObj:=WObj0;
    MoveL [[1105.035, -949.955, 204.764], [0.707107, 0, 0.707107, 0], [0,0,0,0], [0,9E9,9E9,9E9,9E9,9E9]], vel60, z1, marker\WObj:=WObj0;
    MoveL [[1190.444, -824.794, 204.764], [0.707107, 0, 0.707107, 0], [0,0,0,0], [0,9E9,9E9,9E9,9E9,9E9]], vel60, z1, marker\WObj:=WObj0;
    MoveL [[1275.854, -949.955, 204.764], [0.707107, 0, 0.707107, 0], [0,0,0,0], [0,9E9,9E9,9E9,9E9,9E9]], vel60, z1, marker\WObj:=WObj0;
    MoveL [[1105.035, -949.955, 204.764], [0.707107, 0, 0.707107, 0], [0,0,0,0], [0,9E9,9E9,9E9,9E9,9E9]], vel60, z1, marker\WObj:=WObj0;
    MoveL [[1078.165, -979.427, 204.764], [0.707107, 0, 0.707107, 0], [0,0,0,0], [0,9E9,9E9,9E9,9E9,9E9]], vel60, z1, marker\WObj:=WObj0;
    MoveL [[1121.729, -925.491, 204.764], [0.707107, 0, 0.707107, 0], [0,0,0,0], [0,9E9,9E9,9E9,9E9,9E9]], vel60, z1, marker\WObj:=WObj0;
    MoveL [[1081.847, -931.649, 204.764], [0.707107, 0, 0.707107, 0], [0,0,0,0], [0,9E9,9E9,9E9,9E9,9E9]], vel60, z1, marker\WObj:=WObj0;
    MoveL [[1138.423, -901.027, 204.764], [0.707107, 0, 0.707107, 0], [0,0,0,0], [0,9E9,9E9,9E9,9E9,9E9]], vel60, z1, marker\WObj:=WObj0;
    MoveL [[1105.711, -883.351, 204.764], [0.707107, 0, 0.707107, 0], [0,0,0,0], [0,9E9,9E9,9E9,9E9,9E9]], vel60, z1, marker\WObj:=WObj0;
    MoveL [[1155.117, -876.564, 204.764], [0.707107, 0, 0.707107, 0], [0,0,0,0], [0,9E9,9E9,9E9,9E9,9E9]], vel60, z1, marker\WObj:=WObj0;
    MoveL [[1126.131, -866.754, 204.764], [0.707107, 0, 0.707107, 0], [0,0,0,0], [0,9E9,9E9,9E9,9E9,9E9]], vel60, z1, marker\WObj:=WObj0;
    MoveL [[1171.811, -852.1, 204.764], [0.707107, 0, 0.707107, 0], [0,0,0,0], [0,9E9,9E9,9E9,9E9,9E9]], vel60, z1, marker\WObj:=WObj0;
    MoveL [[1158.734, -818.976, 204.764], [0.707107, 0, 0.707107, 0], [0,0,0,0], [0,9E9,9E9,9E9,9E9,9E9]], vel60, z1, marker\WObj:=WObj0;
    MoveL [[1188.505, -827.636, 204.764], [0.707107, 0, 0.707107, 0], [0,0,0,0], [0,9E9,9E9,9E9,9E9,9E9]], vel60, z1, marker\WObj:=WObj0;
    MoveL [[1191.338, -773.816, 204.764], [0.707107, 0, 0.707107, 0], [0,0,0,0], [0,9E9,9E9,9E9,9E9,9E9]], vel60, z1, marker\WObj:=WObj0;
    MoveL [[1205.199, -846.415, 204.764], [0.707107, 0, 0.707107, 0], [0,0,0,0], [0,9E9,9E9,9E9,9E9,9E9]], vel60, z1, marker\WObj:=WObj0;
    MoveL [[1223.941, -821.594, 204.764], [0.707107, 0, 0.707107, 0], [0,0,0,0], [0,9E9,9E9,9E9,9E9,9E9]], vel60, z1, marker\WObj:=WObj0;
    MoveL [[1221.892, -870.878, 204.764], [0.707107, 0, 0.707107, 0], [0,0,0,0], [0,9E9,9E9,9E9,9E9,9E9]], vel60, z1, marker\WObj:=WObj0;
    MoveL [[1256.544, -869.372, 204.764], [0.707107, 0, 0.707107, 0], [0,0,0,0], [0,9E9,9E9,9E9,9E9,9E9]], vel60, z1, marker\WObj:=WObj0;
    MoveL [[1238.586, -895.342, 204.764], [0.707107, 0, 0.707107, 0], [0,0,0,0], [0,9E9,9E9,9E9,9E9,9E9]], vel60, z1, marker\WObj:=WObj0;
    MoveL [[1273.716, -886.163, 204.764], [0.707107, 0, 0.707107, 0], [0,0,0,0], [0,9E9,9E9,9E9,9E9,9E9]], vel60, z1, marker\WObj:=WObj0;
    MoveL [[1255.28, -919.806, 204.764], [0.707107, 0, 0.707107, 0], [0,0,0,0], [0,9E9,9E9,9E9,9E9,9E9]], vel60, z1, marker\WObj:=WObj0;
    MoveL [[1300.828, -934.267, 204.764], [0.707107, 0, 0.707107, 0], [0,0,0,0], [0,9E9,9E9,9E9,9E9,9E9]], vel60, z1, marker\WObj:=WObj0;
    MoveL [[1271.974, -944.269, 204.764], [0.707107, 0, 0.707107, 0], [0,0,0,0], [0,9E9,9E9,9E9,9E9,9E9]], vel60, z1, marker\WObj:=WObj0;
    MoveL [[1328.476, -979.427, 204.764], [0.707107, 0, 0.707107, 0], [0,0,0,0], [0,9E9,9E9,9E9,9E9,9E9]], vel60, z1, marker\WObj:=WObj0;
    MoveL [[1253.12, -949.955, 204.764], [0.707107, 0, 0.707107, 0], [0,0,0,0], [0,9E9,9E9,9E9,9E9,9E9]], vel60, z1, marker\WObj:=WObj0;
    MoveL [[1270.634, -979.427, 204.764], [0.707107, 0, 0.707107, 0], [0,0,0,0], [0,9E9,9E9,9E9,9E9,9E9]], vel60, z1, marker\WObj:=WObj0;
    MoveL [[1223.503, -949.955, 204.764], [0.707107, 0, 0.707107, 0], [0,0,0,0], [0,9E9,9E9,9E9,9E9,9E9]], vel60, z1, marker\WObj:=WObj0;
    MoveL [[1212.792, -979.427, 204.764], [0.707107, 0, 0.707107, 0], [0,0,0,0], [0,9E9,9E9,9E9,9E9,9E9]], vel60, z1, marker\WObj:=WObj0;
    MoveL [[1193.886, -949.955, 204.764], [0.707107, 0, 0.707107, 0], [0,0,0,0], [0,9E9,9E9,9E9,9E9,9E9]], vel60, z1, marker\WObj:=WObj0;
    MoveL [[1181.047, -1000.868, 204.764], [0.707107, 0, 0.707107, 0], [0,0,0,0], [0,9E9,9E9,9E9,9E9,9E9]], vel60, z1, marker\WObj:=WObj0;
    MoveL [[1164.269, -949.955, 204.764], [0.707107, 0, 0.707107, 0], [0,0,0,0], [0,9E9,9E9,9E9,9E9,9E9]], vel60, z1, marker\WObj:=WObj0;
    MoveL [[1136.007, -979.427, 204.764], [0.707107, 0, 0.707107, 0], [0,0,0,0], [0,9E9,9E9,9E9,9E9,9E9]], vel60, z1, marker\WObj:=WObj0;
    MoveL [[1134.652, -949.955, 204.764], [0.707107, 0, 0.707107, 0], [0,0,0,0], [0,9E9,9E9,9E9,9E9,9E9]], vel60, z1, marker\WObj:=WObj0;
    MoveL [[1049.243, -979.427, 204.764], [0.707107, 0, 0.707107, 0], [0,0,0,0], [0,9E9,9E9,9E9,9E9,9E9]], vel60, z1, marker\WObj:=WObj0;
    MoveL [[1109.646, -890.911, 204.764], [0.707107, 0, 0.707107, 0], [0,0,0,0], [0,9E9,9E9,9E9,9E9,9E9]], vel60, z1, marker\WObj:=WObj0;
    MoveL [[1103.518, -879.122, 204.764], [0.707107, 0, 0.707107, 0], [0,0,0,0], [0,9E9,9E9,9E9,9E9,9E9]], vel60, z1, marker\WObj:=WObj0;
    MoveL [[1098.348, -869.084, 204.764], [0.707107, 0, 0.707107, 0], [0,0,0,0], [0,9E9,9E9,9E9,9E9,9E9]], vel60, z1, marker\WObj:=WObj0;
    MoveL [[1095.581, -861.372, 204.764], [0.707107, 0, 0.707107, 0], [0,0,0,0], [0,9E9,9E9,9E9,9E9,9E9]], vel60, z1, marker\WObj:=WObj0;
    MoveL [[1102.103, -862.547, 204.764], [0.707107, 0, 0.707107, 0], [0,0,0,0], [0,9E9,9E9,9E9,9E9,9E9]], vel60, z1, marker\WObj:=WObj0;
    MoveL [[1111.831, -865.85, 204.764], [0.707107, 0, 0.707107, 0], [0,0,0,0], [0,9E9,9E9,9E9,9E9,9E9]], vel60, z1, marker\WObj:=WObj0;
    MoveL [[1123.926, -869.984, 204.764], [0.707107, 0, 0.707107, 0], [0,0,0,0], [0,9E9,9E9,9E9,9E9,9E9]], vel60, z1, marker\WObj:=WObj0;
    MoveL [[1190.444, -772.507, 204.764], [0.707107, 0, 0.707107, 0], [0,0,0,0], [0,9E9,9E9,9E9,9E9,9E9]], vel60, z1, marker\WObj:=WObj0;
    MoveL [[1256.962, -869.984, 204.764], [0.707107, 0, 0.707107, 0], [0,0,0,0], [0,9E9,9E9,9E9,9E9,9E9]], vel60, z1, marker\WObj:=WObj0;
    MoveL [[1269.058, -865.85, 204.764], [0.707107, 0, 0.707107, 0], [0,0,0,0], [0,9E9,9E9,9E9,9E9,9E9]], vel60, z1, marker\WObj:=WObj0;
    MoveL [[1278.786, -862.547, 204.764], [0.707107, 0, 0.707107, 0], [0,0,0,0], [0,9E9,9E9,9E9,9E9,9E9]], vel60, z1, marker\WObj:=WObj0;
    MoveL [[1285.308, -861.372, 204.764], [0.707107, 0, 0.707107, 0], [0,0,0,0], [0,9E9,9E9,9E9,9E9,9E9]], vel60, z1, marker\WObj:=WObj0;
    MoveL [[1282.541, -869.084, 204.764], [0.707107, 0, 0.707107, 0], [0,0,0,0], [0,9E9,9E9,9E9,9E9,9E9]], vel60, z1, marker\WObj:=WObj0;
    MoveL [[1277.371, -879.122, 204.764], [0.707107, 0, 0.707107, 0], [0,0,0,0], [0,9E9,9E9,9E9,9E9,9E9]], vel60, z1, marker\WObj:=WObj0;
    MoveL [[1271.243, -890.911, 204.764], [0.707107, 0, 0.707107, 0], [0,0,0,0], [0,9E9,9E9,9E9,9E9,9E9]], vel60, z1, marker\WObj:=WObj0;
    MoveL [[1331.645, -979.427, 204.764], [0.707107, 0, 0.707107, 0], [0,0,0,0], [0,9E9,9E9,9E9,9E9,9E9]], vel60, z1, marker\WObj:=WObj0;
    MoveL [[1211.396, -979.427, 204.764], [0.707107, 0, 0.707107, 0], [0,0,0,0], [0,9E9,9E9,9E9,9E9,9E9]], vel60, z1, marker\WObj:=WObj0;
    MoveL [[1205.114, -991.135, 204.764], [0.707107, 0, 0.707107, 0], [0,0,0,0], [0,9E9,9E9,9E9,9E9,9E9]], vel60, z1, marker\WObj:=WObj0;
    MoveL [[1199.736, -1001.062, 204.764], [0.707107, 0, 0.707107, 0], [0,0,0,0], [0,9E9,9E9,9E9,9E9,9E9]], vel60, z1, marker\WObj:=WObj0;
    MoveL [[1190.444, -1013.871, 204.764], [0.707107, 0, 0.707107, 0], [0,0,0,0], [0,9E9,9E9,9E9,9E9,9E9]], vel60, z1, marker\WObj:=WObj0;
    MoveL [[1181.153, -1001.062, 204.764], [0.707107, 0, 0.707107, 0], [0,0,0,0], [0,9E9,9E9,9E9,9E9,9E9]], vel60, z1, marker\WObj:=WObj0;
    MoveL [[1175.775, -991.135, 204.764], [0.707107, 0, 0.707107, 0], [0,0,0,0], [0,9E9,9E9,9E9,9E9,9E9]], vel60, z1, marker\WObj:=WObj0;
    MoveL [[1169.493, -979.427, 204.764], [0.707107, 0, 0.707107, 0], [0,0,0,0], [0,9E9,9E9,9E9,9E9,9E9]], vel60, z1, marker\WObj:=WObj0;
    MoveL [[1049.243, -979.427, 204.764], [0.707107, 0, 0.707107, 0], [0,0,0,0], [0,9E9,9E9,9E9,9E9,9E9]], vel60, z1, marker\WObj:=WObj0;
    MoveL [[1105.035, -949.955, 208.764], [0.707107, 0, 0.707107, 0], [0,0,0,0], [0,9E9,9E9,9E9,9E9,9E9]], vel60, z1, marker\WObj:=WObj0;
    MoveL [[1190.444, -824.794, 208.764], [0.707107, 0, 0.707107, 0], [0,0,0,0], [0,9E9,9E9,9E9,9E9,9E9]], vel60, z1, marker\WObj:=WObj0;
    MoveL [[1275.854, -949.955, 208.764], [0.707107, 0, 0.707107, 0], [0,0,0,0], [0,9E9,9E9,9E9,9E9,9E9]], vel60, z1, marker\WObj:=WObj0;
    MoveL [[1105.035, -949.955, 208.764], [0.707107, 0, 0.707107, 0], [0,0,0,0], [0,9E9,9E9,9E9,9E9,9E9]], vel60, z1, marker\WObj:=WObj0;
    MoveL [[1076.614, -980.251, 208.764], [0.707107, 0, 0.707107, 0], [0,0,0,0], [0,9E9,9E9,9E9,9E9,9E9]], vel60, z1, marker\WObj:=WObj0;
    MoveL [[1121.729, -925.491, 208.764], [0.707107, 0, 0.707107, 0], [0,0,0,0], [0,9E9,9E9,9E9,9E9,9E9]], vel60, z1, marker\WObj:=WObj0;
    MoveL [[1080.297, -932.458, 208.764], [0.707107, 0, 0.707107, 0], [0,0,0,0], [0,9E9,9E9,9E9,9E9,9E9]], vel60, z1, marker\WObj:=WObj0;
    MoveL [[1138.423, -901.027, 208.764], [0.707107, 0, 0.707107, 0], [0,0,0,0], [0,9E9,9E9,9E9,9E9,9E9]], vel60, z1, marker\WObj:=WObj0;
    MoveL [[1104.258, -884.143, 208.764], [0.707107, 0, 0.707107, 0], [0,0,0,0], [0,9E9,9E9,9E9,9E9,9E9]], vel60, z1, marker\WObj:=WObj0;
    MoveL [[1155.117, -876.564, 208.764], [0.707107, 0, 0.707107, 0], [0,0,0,0], [0,9E9,9E9,9E9,9E9,9E9]], vel60, z1, marker\WObj:=WObj0;
    MoveL [[1126.293, -865.054, 208.764], [0.707107, 0, 0.707107, 0], [0,0,0,0], [0,9E9,9E9,9E9,9E9,9E9]], vel60, z1, marker\WObj:=WObj0;
    MoveL [[1171.811, -852.1, 208.764], [0.707107, 0, 0.707107, 0], [0,0,0,0], [0,9E9,9E9,9E9,9E9,9E9]], vel60, z1, marker\WObj:=WObj0;
    MoveL [[1158.907, -817.261, 208.764], [0.707107, 0, 0.707107, 0], [0,0,0,0], [0,9E9,9E9,9E9,9E9,9E9]], vel60, z1, marker\WObj:=WObj0;
    MoveL [[1188.505, -827.636, 208.764], [0.707107, 0, 0.707107, 0], [0,0,0,0], [0,9E9,9E9,9E9,9E9,9E9]], vel60, z1, marker\WObj:=WObj0;
    MoveL [[1191.52, -772.621, 208.764], [0.707107, 0, 0.707107, 0], [0,0,0,0], [0,9E9,9E9,9E9,9E9,9E9]], vel60, z1, marker\WObj:=WObj0;
    MoveL [[1205.199, -846.415, 208.764], [0.707107, 0, 0.707107, 0], [0,0,0,0], [0,9E9,9E9,9E9,9E9,9E9]], vel60, z1, marker\WObj:=WObj0;
    MoveL [[1224.134, -820.414, 208.764], [0.707107, 0, 0.707107, 0], [0,0,0,0], [0,9E9,9E9,9E9,9E9,9E9]], vel60, z1, marker\WObj:=WObj0;
    MoveL [[1221.892, -870.878, 208.764], [0.707107, 0, 0.707107, 0], [0,0,0,0], [0,9E9,9E9,9E9,9E9,9E9]], vel60, z1, marker\WObj:=WObj0;
    MoveL [[1256.747, -868.207, 208.764], [0.707107, 0, 0.707107, 0], [0,0,0,0], [0,9E9,9E9,9E9,9E9,9E9]], vel60, z1, marker\WObj:=WObj0;
    MoveL [[1238.586, -895.342, 208.764], [0.707107, 0, 0.707107, 0], [0,0,0,0], [0,9E9,9E9,9E9,9E9,9E9]], vel60, z1, marker\WObj:=WObj0;
    MoveL [[1274.876, -887.533, 208.764], [0.707107, 0, 0.707107, 0], [0,0,0,0], [0,9E9,9E9,9E9,9E9,9E9]], vel60, z1, marker\WObj:=WObj0;
    MoveL [[1255.28, -919.806, 208.764], [0.707107, 0, 0.707107, 0], [0,0,0,0], [0,9E9,9E9,9E9,9E9,9E9]], vel60, z1, marker\WObj:=WObj0;
    MoveL [[1302.743, -935.611, 208.764], [0.707107, 0, 0.707107, 0], [0,0,0,0], [0,9E9,9E9,9E9,9E9,9E9]], vel60, z1, marker\WObj:=WObj0;
    MoveL [[1271.974, -944.269, 208.764], [0.707107, 0, 0.707107, 0], [0,0,0,0], [0,9E9,9E9,9E9,9E9,9E9]], vel60, z1, marker\WObj:=WObj0;
    MoveL [[1329.388, -980.251, 208.764], [0.707107, 0, 0.707107, 0], [0,0,0,0], [0,9E9,9E9,9E9,9E9,9E9]], vel60, z1, marker\WObj:=WObj0;
    MoveL [[1253.12, -949.955, 208.764], [0.707107, 0, 0.707107, 0], [0,0,0,0], [0,9E9,9E9,9E9,9E9,9E9]], vel60, z1, marker\WObj:=WObj0;
    MoveL [[1271.528, -980.251, 208.764], [0.707107, 0, 0.707107, 0], [0,0,0,0], [0,9E9,9E9,9E9,9E9,9E9]], vel60, z1, marker\WObj:=WObj0;
    MoveL [[1223.503, -949.955, 208.764], [0.707107, 0, 0.707107, 0], [0,0,0,0], [0,9E9,9E9,9E9,9E9,9E9]], vel60, z1, marker\WObj:=WObj0;
    MoveL [[1213.668, -980.251, 208.764], [0.707107, 0, 0.707107, 0], [0,0,0,0], [0,9E9,9E9,9E9,9E9,9E9]], vel60, z1, marker\WObj:=WObj0;
    MoveL [[1193.886, -949.955, 208.764], [0.707107, 0, 0.707107, 0], [0,0,0,0], [0,9E9,9E9,9E9,9E9,9E9]], vel60, z1, marker\WObj:=WObj0;
    MoveL [[1180.83, -1000.841, 208.764], [0.707107, 0, 0.707107, 0], [0,0,0,0], [0,9E9,9E9,9E9,9E9,9E9]], vel60, z1, marker\WObj:=WObj0;
    MoveL [[1164.269, -949.955, 208.764], [0.707107, 0, 0.707107, 0], [0,0,0,0], [0,9E9,9E9,9E9,9E9,9E9]], vel60, z1, marker\WObj:=WObj0;
    MoveL [[1134.474, -980.251, 208.764], [0.707107, 0, 0.707107, 0], [0,0,0,0], [0,9E9,9E9,9E9,9E9,9E9]], vel60, z1, marker\WObj:=WObj0;
    MoveL [[1134.652, -949.955, 208.764], [0.707107, 0, 0.707107, 0], [0,0,0,0], [0,9E9,9E9,9E9,9E9,9E9]], vel60, z1, marker\WObj:=WObj0;
    MoveL [[1047.684, -980.251, 208.764], [0.707107, 0, 0.707107, 0], [0,0,0,0], [0,9E9,9E9,9E9,9E9,9E9]], vel60, z1, marker\WObj:=WObj0;
    MoveL [[1108.147, -891.645, 208.764], [0.707107, 0, 0.707107, 0], [0,0,0,0], [0,9E9,9E9,9E9,9E9,9E9]], vel60, z1, marker\WObj:=WObj0;
    MoveL [[1102.133, -880.025, 208.764], [0.707107, 0, 0.707107, 0], [0,0,0,0], [0,9E9,9E9,9E9,9E9,9E9]], vel60, z1, marker\WObj:=WObj0;
    MoveL [[1095.501, -861.537, 208.764], [0.707107, 0, 0.707107, 0], [0,0,0,0], [0,9E9,9E9,9E9,9E9,9E9]], vel60, z1, marker\WObj:=WObj0;
    MoveL [[1112.013, -864.514, 208.764], [0.707107, 0, 0.707107, 0], [0,0,0,0], [0,9E9,9E9,9E9,9E9,9E9]], vel60, z1, marker\WObj:=WObj0;
    MoveL [[1123.898, -868.564, 208.764], [0.707107, 0, 0.707107, 0], [0,0,0,0], [0,9E9,9E9,9E9,9E9,9E9]], vel60, z1, marker\WObj:=WObj0;
    MoveL [[1190.444, -771.045, 208.764], [0.707107, 0, 0.707107, 0], [0,0,0,0], [0,9E9,9E9,9E9,9E9,9E9]], vel60, z1, marker\WObj:=WObj0;
    MoveL [[1256.991, -868.564, 208.764], [0.707107, 0, 0.707107, 0], [0,0,0,0], [0,9E9,9E9,9E9,9E9,9E9]], vel60, z1, marker\WObj:=WObj0;
    MoveL [[1268.876, -864.514, 208.764], [0.707107, 0, 0.707107, 0], [0,0,0,0], [0,9E9,9E9,9E9,9E9,9E9]], vel60, z1, marker\WObj:=WObj0;
    MoveL [[1285.388, -861.537, 208.764], [0.707107, 0, 0.707107, 0], [0,0,0,0], [0,9E9,9E9,9E9,9E9,9E9]], vel60, z1, marker\WObj:=WObj0;
    MoveL [[1278.756, -880.025, 208.764], [0.707107, 0, 0.707107, 0], [0,0,0,0], [0,9E9,9E9,9E9,9E9,9E9]], vel60, z1, marker\WObj:=WObj0;
    MoveL [[1272.741, -891.645, 208.764], [0.707107, 0, 0.707107, 0], [0,0,0,0], [0,9E9,9E9,9E9,9E9,9E9]], vel60, z1, marker\WObj:=WObj0;
    MoveL [[1333.205, -980.251, 208.764], [0.707107, 0, 0.707107, 0], [0,0,0,0], [0,9E9,9E9,9E9,9E9,9E9]], vel60, z1, marker\WObj:=WObj0;
    MoveL [[1212.847, -980.251, 208.764], [0.707107, 0, 0.707107, 0], [0,0,0,0], [0,9E9,9E9,9E9,9E9,9E9]], vel60, z1, marker\WObj:=WObj0;
    MoveL [[1206.64, -991.769, 208.764], [0.707107, 0, 0.707107, 0], [0,0,0,0], [0,9E9,9E9,9E9,9E9,9E9]], vel60, z1, marker\WObj:=WObj0;
    MoveL [[1190.444, -1014.095, 208.764], [0.707107, 0, 0.707107, 0], [0,0,0,0], [0,9E9,9E9,9E9,9E9,9E9]], vel60, z1, marker\WObj:=WObj0;
    MoveL [[1174.249, -991.769, 208.764], [0.707107, 0, 0.707107, 0], [0,0,0,0], [0,9E9,9E9,9E9,9E9,9E9]], vel60, z1, marker\WObj:=WObj0;
    MoveL [[1168.042, -980.251, 208.764], [0.707107, 0, 0.707107, 0], [0,0,0,0], [0,9E9,9E9,9E9,9E9,9E9]], vel60, z1, marker\WObj:=WObj0;
    MoveL [[1047.684, -980.251, 208.764], [0.707107, 0, 0.707107, 0], [0,0,0,0], [0,9E9,9E9,9E9,9E9,9E9]], vel60, z1, marker\WObj:=WObj0;
    MoveL [[1105.035, -949.955, 212.764], [0.707107, 0, 0.707107, 0], [0,0,0,0], [0,9E9,9E9,9E9,9E9,9E9]], vel60, z1, marker\WObj:=WObj0;
    MoveL [[1190.444, -824.794, 212.764], [0.707107, 0, 0.707107, 0], [0,0,0,0], [0,9E9,9E9,9E9,9E9,9E9]], vel60, z1, marker\WObj:=WObj0;
    MoveL [[1275.854, -949.955, 212.764], [0.707107, 0, 0.707107, 0], [0,0,0,0], [0,9E9,9E9,9E9,9E9,9E9]], vel60, z1, marker\WObj:=WObj0;
    MoveL [[1105.035, -949.955, 212.764], [0.707107, 0, 0.707107, 0], [0,0,0,0], [0,9E9,9E9,9E9,9E9,9E9]], vel60, z1, marker\WObj:=WObj0;
    MoveL [[1075.033, -981.075, 212.764], [0.707107, 0, 0.707107, 0], [0,0,0,0], [0,9E9,9E9,9E9,9E9,9E9]], vel60, z1, marker\WObj:=WObj0;
    MoveL [[1121.729, -925.491, 212.764], [0.707107, 0, 0.707107, 0], [0,0,0,0], [0,9E9,9E9,9E9,9E9,9E9]], vel60, z1, marker\WObj:=WObj0;
    MoveL [[1078.713, -933.317, 212.764], [0.707107, 0, 0.707107, 0], [0,0,0,0], [0,9E9,9E9,9E9,9E9,9E9]], vel60, z1, marker\WObj:=WObj0;
    MoveL [[1138.423, -901.027, 212.764], [0.707107, 0, 0.707107, 0], [0,0,0,0], [0,9E9,9E9,9E9,9E9,9E9]], vel60, z1, marker\WObj:=WObj0;
    MoveL [[1103.626, -884.577, 212.764], [0.707107, 0, 0.707107, 0], [0,0,0,0], [0,9E9,9E9,9E9,9E9,9E9]], vel60, z1, marker\WObj:=WObj0;
    MoveL [[1155.117, -876.564, 212.764], [0.707107, 0, 0.707107, 0], [0,0,0,0], [0,9E9,9E9,9E9,9E9,9E9]], vel60, z1, marker\WObj:=WObj0;
    MoveL [[1126.548, -863.219, 212.764], [0.707107, 0, 0.707107, 0], [0,0,0,0], [0,9E9,9E9,9E9,9E9,9E9]], vel60, z1, marker\WObj:=WObj0;
    MoveL [[1171.811, -852.1, 212.764], [0.707107, 0, 0.707107, 0], [0,0,0,0], [0,9E9,9E9,9E9,9E9,9E9]], vel60, z1, marker\WObj:=WObj0;
    MoveL [[1159.138, -815.461, 212.764], [0.707107, 0, 0.707107, 0], [0,0,0,0], [0,9E9,9E9,9E9,9E9,9E9]], vel60, z1, marker\WObj:=WObj0;
    MoveL [[1188.505, -827.636, 212.764], [0.707107, 0, 0.707107, 0], [0,0,0,0], [0,9E9,9E9,9E9,9E9,9E9]], vel60, z1, marker\WObj:=WObj0;
    MoveL [[1191.727, -771.463, 212.764], [0.707107, 0, 0.707107, 0], [0,0,0,0], [0,9E9,9E9,9E9,9E9,9E9]], vel60, z1, marker\WObj:=WObj0;
    MoveL [[1205.199, -846.415, 212.764], [0.707107, 0, 0.707107, 0], [0,0,0,0], [0,9E9,9E9,9E9,9E9,9E9]], vel60, z1, marker\WObj:=WObj0;
    MoveL [[1224.317, -819.22, 212.764], [0.707107, 0, 0.707107, 0], [0,0,0,0], [0,9E9,9E9,9E9,9E9,9E9]], vel60, z1, marker\WObj:=WObj0;
    MoveL [[1221.892, -870.878, 212.764], [0.707107, 0, 0.707107, 0], [0,0,0,0], [0,9E9,9E9,9E9,9E9,9E9]], vel60, z1, marker\WObj:=WObj0;
    MoveL [[1256.964, -866.842, 212.764], [0.707107, 0, 0.707107, 0], [0,0,0,0], [0,9E9,9E9,9E9,9E9,9E9]], vel60, z1, marker\WObj:=WObj0;
    MoveL [[1238.586, -895.342, 212.764], [0.707107, 0, 0.707107, 0], [0,0,0,0], [0,9E9,9E9,9E9,9E9,9E9]], vel60, z1, marker\WObj:=WObj0;
    MoveL [[1275.726, -888.862, 212.764], [0.707107, 0, 0.707107, 0], [0,0,0,0], [0,9E9,9E9,9E9,9E9,9E9]], vel60, z1, marker\WObj:=WObj0;
    MoveL [[1255.28, -919.806, 212.764], [0.707107, 0, 0.707107, 0], [0,0,0,0], [0,9E9,9E9,9E9,9E9,9E9]], vel60, z1, marker\WObj:=WObj0;
    MoveL [[1304.741, -937.077, 212.764], [0.707107, 0, 0.707107, 0], [0,0,0,0], [0,9E9,9E9,9E9,9E9,9E9]], vel60, z1, marker\WObj:=WObj0;
    MoveL [[1271.974, -944.269, 212.764], [0.707107, 0, 0.707107, 0], [0,0,0,0], [0,9E9,9E9,9E9,9E9,9E9]], vel60, z1, marker\WObj:=WObj0;
    MoveL [[1330.214, -981.075, 212.764], [0.707107, 0, 0.707107, 0], [0,0,0,0], [0,9E9,9E9,9E9,9E9,9E9]], vel60, z1, marker\WObj:=WObj0;
    MoveL [[1253.12, -949.955, 212.764], [0.707107, 0, 0.707107, 0], [0,0,0,0], [0,9E9,9E9,9E9,9E9,9E9]], vel60, z1, marker\WObj:=WObj0;
    MoveL [[1272.396, -981.075, 212.764], [0.707107, 0, 0.707107, 0], [0,0,0,0], [0,9E9,9E9,9E9,9E9,9E9]], vel60, z1, marker\WObj:=WObj0;
    MoveL [[1223.503, -949.955, 212.764], [0.707107, 0, 0.707107, 0], [0,0,0,0], [0,9E9,9E9,9E9,9E9,9E9]], vel60, z1, marker\WObj:=WObj0;
    MoveL [[1214.578, -981.075, 212.764], [0.707107, 0, 0.707107, 0], [0,0,0,0], [0,9E9,9E9,9E9,9E9,9E9]], vel60, z1, marker\WObj:=WObj0;
    MoveL [[1193.886, -949.955, 212.764], [0.707107, 0, 0.707107, 0], [0,0,0,0], [0,9E9,9E9,9E9,9E9,9E9]], vel60, z1, marker\WObj:=WObj0;
    MoveL [[1180.621, -1000.776, 212.764], [0.707107, 0, 0.707107, 0], [0,0,0,0], [0,9E9,9E9,9E9,9E9,9E9]], vel60, z1, marker\WObj:=WObj0;
    MoveL [[1164.269, -949.955, 212.764], [0.707107, 0, 0.707107, 0], [0,0,0,0], [0,9E9,9E9,9E9,9E9,9E9]], vel60, z1, marker\WObj:=WObj0;
    MoveL [[1132.85, -981.075, 212.764], [0.707107, 0, 0.707107, 0], [0,0,0,0], [0,9E9,9E9,9E9,9E9,9E9]], vel60, z1, marker\WObj:=WObj0;
    MoveL [[1134.652, -949.955, 212.764], [0.707107, 0, 0.707107, 0], [0,0,0,0], [0,9E9,9E9,9E9,9E9,9E9]], vel60, z1, marker\WObj:=WObj0;
    MoveL [[1046.124, -981.075, 212.764], [0.707107, 0, 0.707107, 0], [0,0,0,0], [0,9E9,9E9,9E9,9E9,9E9]], vel60, z1, marker\WObj:=WObj0;
    MoveL [[1106.502, -892.595, 212.764], [0.707107, 0, 0.707107, 0], [0,0,0,0], [0,9E9,9E9,9E9,9E9,9E9]], vel60, z1, marker\WObj:=WObj0;
    MoveL [[1095.42, -861.702, 212.764], [0.707107, 0, 0.707107, 0], [0,0,0,0], [0,9E9,9E9,9E9,9E9,9E9]], vel60, z1, marker\WObj:=WObj0;
    MoveL [[1124.059, -866.866, 212.764], [0.707107, 0, 0.707107, 0], [0,0,0,0], [0,9E9,9E9,9E9,9E9,9E9]], vel60, z1, marker\WObj:=WObj0;
    MoveL [[1190.444, -769.583, 212.764], [0.707107, 0, 0.707107, 0], [0,0,0,0], [0,9E9,9E9,9E9,9E9,9E9]], vel60, z1, marker\WObj:=WObj0;
    MoveL [[1256.83, -866.866, 212.764], [0.707107, 0, 0.707107, 0], [0,0,0,0], [0,9E9,9E9,9E9,9E9,9E9]], vel60, z1, marker\WObj:=WObj0;
    MoveL [[1285.468, -861.702, 212.764], [0.707107, 0, 0.707107, 0], [0,0,0,0], [0,9E9,9E9,9E9,9E9,9E9]], vel60, z1, marker\WObj:=WObj0;
    MoveL [[1274.387, -892.595, 212.764], [0.707107, 0, 0.707107, 0], [0,0,0,0], [0,9E9,9E9,9E9,9E9,9E9]], vel60, z1, marker\WObj:=WObj0;
    MoveL [[1334.765, -981.075, 212.764], [0.707107, 0, 0.707107, 0], [0,0,0,0], [0,9E9,9E9,9E9,9E9,9E9]], vel60, z1, marker\WObj:=WObj0;
    MoveL [[1214.56, -981.075, 212.764], [0.707107, 0, 0.707107, 0], [0,0,0,0], [0,9E9,9E9,9E9,9E9,9E9]], vel60, z1, marker\WObj:=WObj0;
    MoveL [[1190.444, -1014.319, 212.764], [0.707107, 0, 0.707107, 0], [0,0,0,0], [0,9E9,9E9,9E9,9E9,9E9]], vel60, z1, marker\WObj:=WObj0;
    MoveL [[1166.329, -981.075, 212.764], [0.707107, 0, 0.707107, 0], [0,0,0,0], [0,9E9,9E9,9E9,9E9,9E9]], vel60, z1, marker\WObj:=WObj0;
    MoveL [[1046.124, -981.075, 212.764], [0.707107, 0, 0.707107, 0], [0,0,0,0], [0,9E9,9E9,9E9,9E9,9E9]], vel60, z1, marker\WObj:=WObj0;
    MoveL [[1105.035, -949.955, 216.764], [0.707107, 0, 0.707107, 0], [0,0,0,0], [0,9E9,9E9,9E9,9E9,9E9]], vel60, z1, marker\WObj:=WObj0;
    MoveL [[1190.444, -824.794, 216.764], [0.707107, 0, 0.707107, 0], [0,0,0,0], [0,9E9,9E9,9E9,9E9,9E9]], vel60, z1, marker\WObj:=WObj0;
    MoveL [[1275.854, -949.955, 216.764], [0.707107, 0, 0.707107, 0], [0,0,0,0], [0,9E9,9E9,9E9,9E9,9E9]], vel60, z1, marker\WObj:=WObj0;
    MoveL [[1105.035, -949.955, 216.764], [0.707107, 0, 0.707107, 0], [0,0,0,0], [0,9E9,9E9,9E9,9E9,9E9]], vel60, z1, marker\WObj:=WObj0;
    MoveL [[1076.779, -980.251, 216.764], [0.707107, 0, 0.707107, 0], [0,0,0,0], [0,9E9,9E9,9E9,9E9,9E9]], vel60, z1, marker\WObj:=WObj0;
    MoveL [[1121.729, -925.491, 216.764], [0.707107, 0, 0.707107, 0], [0,0,0,0], [0,9E9,9E9,9E9,9E9,9E9]], vel60, z1, marker\WObj:=WObj0;
    MoveL [[1080.483, -932.185, 216.764], [0.707107, 0, 0.707107, 0], [0,0,0,0], [0,9E9,9E9,9E9,9E9,9E9]], vel60, z1, marker\WObj:=WObj0;
    MoveL [[1138.423, -901.027, 216.764], [0.707107, 0, 0.707107, 0], [0,0,0,0], [0,9E9,9E9,9E9,9E9,9E9]], vel60, z1, marker\WObj:=WObj0;
    MoveL [[1103.542, -884.734, 216.764], [0.707107, 0, 0.707107, 0], [0,0,0,0], [0,9E9,9E9,9E9,9E9,9E9]], vel60, z1, marker\WObj:=WObj0;
    MoveL [[1155.117, -876.564, 216.764], [0.707107, 0, 0.707107, 0], [0,0,0,0], [0,9E9,9E9,9E9,9E9,9E9]], vel60, z1, marker\WObj:=WObj0;
    MoveL [[1126.139, -865.28, 216.764], [0.707107, 0, 0.707107, 0], [0,0,0,0], [0,9E9,9E9,9E9,9E9,9E9]], vel60, z1, marker\WObj:=WObj0;
    MoveL [[1171.811, -852.1, 216.764], [0.707107, 0, 0.707107, 0], [0,0,0,0], [0,9E9,9E9,9E9,9E9,9E9]], vel60, z1, marker\WObj:=WObj0;
    MoveL [[1158.939, -817.214, 216.764], [0.707107, 0, 0.707107, 0], [0,0,0,0], [0,9E9,9E9,9E9,9E9,9E9]], vel60, z1, marker\WObj:=WObj0;
    MoveL [[1188.505, -827.636, 216.764], [0.707107, 0, 0.707107, 0], [0,0,0,0], [0,9E9,9E9,9E9,9E9,9E9]], vel60, z1, marker\WObj:=WObj0;
    MoveL [[1191.739, -772.942, 216.764], [0.707107, 0, 0.707107, 0], [0,0,0,0], [0,9E9,9E9,9E9,9E9,9E9]], vel60, z1, marker\WObj:=WObj0;
    MoveL [[1205.199, -846.415, 216.764], [0.707107, 0, 0.707107, 0], [0,0,0,0], [0,9E9,9E9,9E9,9E9,9E9]], vel60, z1, marker\WObj:=WObj0;
    MoveL [[1224.539, -821.008, 216.764], [0.707107, 0, 0.707107, 0], [0,0,0,0], [0,9E9,9E9,9E9,9E9,9E9]], vel60, z1, marker\WObj:=WObj0;
    MoveL [[1221.892, -870.878, 216.764], [0.707107, 0, 0.707107, 0], [0,0,0,0], [0,9E9,9E9,9E9,9E9,9E9]], vel60, z1, marker\WObj:=WObj0;
    MoveL [[1257.389, -868.836, 216.764], [0.707107, 0, 0.707107, 0], [0,0,0,0], [0,9E9,9E9,9E9,9E9,9E9]], vel60, z1, marker\WObj:=WObj0;
    MoveL [[1238.586, -895.342, 216.764], [0.707107, 0, 0.707107, 0], [0,0,0,0], [0,9E9,9E9,9E9,9E9,9E9]], vel60, z1, marker\WObj:=WObj0;
    MoveL [[1275.459, -888.808, 216.764], [0.707107, 0, 0.707107, 0], [0,0,0,0], [0,9E9,9E9,9E9,9E9,9E9]], vel60, z1, marker\WObj:=WObj0;
    MoveL [[1255.28, -919.806, 216.764], [0.707107, 0, 0.707107, 0], [0,0,0,0], [0,9E9,9E9,9E9,9E9,9E9]], vel60, z1, marker\WObj:=WObj0;
    MoveL [[1302.995, -935.979, 216.764], [0.707107, 0, 0.707107, 0], [0,0,0,0], [0,9E9,9E9,9E9,9E9,9E9]], vel60, z1, marker\WObj:=WObj0;
    MoveL [[1271.974, -944.269, 216.764], [0.707107, 0, 0.707107, 0], [0,0,0,0], [0,9E9,9E9,9E9,9E9,9E9]], vel60, z1, marker\WObj:=WObj0;
    MoveL [[1328.612, -980.251, 216.764], [0.707107, 0, 0.707107, 0], [0,0,0,0], [0,9E9,9E9,9E9,9E9,9E9]], vel60, z1, marker\WObj:=WObj0;
    MoveL [[1253.12, -949.955, 216.764], [0.707107, 0, 0.707107, 0], [0,0,0,0], [0,9E9,9E9,9E9,9E9,9E9]], vel60, z1, marker\WObj:=WObj0;
    MoveL [[1270.421, -980.251, 216.764], [0.707107, 0, 0.707107, 0], [0,0,0,0], [0,9E9,9E9,9E9,9E9,9E9]], vel60, z1, marker\WObj:=WObj0;
    MoveL [[1223.503, -949.955, 216.764], [0.707107, 0, 0.707107, 0], [0,0,0,0], [0,9E9,9E9,9E9,9E9,9E9]], vel60, z1, marker\WObj:=WObj0;
    MoveL [[1212.23, -980.251, 216.764], [0.707107, 0, 0.707107, 0], [0,0,0,0], [0,9E9,9E9,9E9,9E9,9E9]], vel60, z1, marker\WObj:=WObj0;
    MoveL [[1193.886, -949.955, 216.764], [0.707107, 0, 0.707107, 0], [0,0,0,0], [0,9E9,9E9,9E9,9E9,9E9]], vel60, z1, marker\WObj:=WObj0;
    MoveL [[1180.554, -1000.908, 216.764], [0.707107, 0, 0.707107, 0], [0,0,0,0], [0,9E9,9E9,9E9,9E9,9E9]], vel60, z1, marker\WObj:=WObj0;
    MoveL [[1164.269, -949.955, 216.764], [0.707107, 0, 0.707107, 0], [0,0,0,0], [0,9E9,9E9,9E9,9E9,9E9]], vel60, z1, marker\WObj:=WObj0;
    MoveL [[1134.97, -980.251, 216.764], [0.707107, 0, 0.707107, 0], [0,0,0,0], [0,9E9,9E9,9E9,9E9,9E9]], vel60, z1, marker\WObj:=WObj0;
    MoveL [[1134.652, -949.955, 216.764], [0.707107, 0, 0.707107, 0], [0,0,0,0], [0,9E9,9E9,9E9,9E9,9E9]], vel60, z1, marker\WObj:=WObj0;
    MoveL [[1047.684, -980.251, 216.764], [0.707107, 0, 0.707107, 0], [0,0,0,0], [0,9E9,9E9,9E9,9E9,9E9]], vel60, z1, marker\WObj:=WObj0;
    MoveL [[1108.526, -891.091, 216.764], [0.707107, 0, 0.707107, 0], [0,0,0,0], [0,9E9,9E9,9E9,9E9,9E9]], vel60, z1, marker\WObj:=WObj0;
    MoveL [[1104.85, -888.38, 216.764], [0.707107, 0, 0.707107, 0], [0,0,0,0], [0,9E9,9E9,9E9,9E9,9E9]], vel60, z1, marker\WObj:=WObj0;
    MoveL [[1095.34, -861.868, 216.764], [0.707107, 0, 0.707107, 0], [0,0,0,0], [0,9E9,9E9,9E9,9E9,9E9]], vel60, z1, marker\WObj:=WObj0;
    MoveL [[1119.203, -866.17, 216.764], [0.707107, 0, 0.707107, 0], [0,0,0,0], [0,9E9,9E9,9E9,9E9,9E9]], vel60, z1, marker\WObj:=WObj0;
    MoveL [[1123.649, -868.929, 216.764], [0.707107, 0, 0.707107, 0], [0,0,0,0], [0,9E9,9E9,9E9,9E9,9E9]], vel60, z1, marker\WObj:=WObj0;
    MoveL [[1190.444, -771.045, 216.764], [0.707107, 0, 0.707107, 0], [0,0,0,0], [0,9E9,9E9,9E9,9E9,9E9]], vel60, z1, marker\WObj:=WObj0;
    MoveL [[1257.24, -868.929, 216.764], [0.707107, 0, 0.707107, 0], [0,0,0,0], [0,9E9,9E9,9E9,9E9,9E9]], vel60, z1, marker\WObj:=WObj0;
    MoveL [[1261.686, -866.17, 216.764], [0.707107, 0, 0.707107, 0], [0,0,0,0], [0,9E9,9E9,9E9,9E9,9E9]], vel60, z1, marker\WObj:=WObj0;
    MoveL [[1285.549, -861.868, 216.764], [0.707107, 0, 0.707107, 0], [0,0,0,0], [0,9E9,9E9,9E9,9E9,9E9]], vel60, z1, marker\WObj:=WObj0;
    MoveL [[1276.039, -888.38, 216.764], [0.707107, 0, 0.707107, 0], [0,0,0,0], [0,9E9,9E9,9E9,9E9,9E9]], vel60, z1, marker\WObj:=WObj0;
    MoveL [[1272.363, -891.091, 216.764], [0.707107, 0, 0.707107, 0], [0,0,0,0], [0,9E9,9E9,9E9,9E9,9E9]], vel60, z1, marker\WObj:=WObj0;
    MoveL [[1333.205, -980.251, 216.764], [0.707107, 0, 0.707107, 0], [0,0,0,0], [0,9E9,9E9,9E9,9E9,9E9]], vel60, z1, marker\WObj:=WObj0;
    MoveL [[1212.176, -980.251, 216.764], [0.707107, 0, 0.707107, 0], [0,0,0,0], [0,9E9,9E9,9E9,9E9,9E9]], vel60, z1, marker\WObj:=WObj0;
    MoveL [[1212.009, -984.815, 216.764], [0.707107, 0, 0.707107, 0], [0,0,0,0], [0,9E9,9E9,9E9,9E9,9E9]], vel60, z1, marker\WObj:=WObj0;
    MoveL [[1190.444, -1014.543, 216.764], [0.707107, 0, 0.707107, 0], [0,0,0,0], [0,9E9,9E9,9E9,9E9,9E9]], vel60, z1, marker\WObj:=WObj0;
    MoveL [[1168.88, -984.815, 216.764], [0.707107, 0, 0.707107, 0], [0,0,0,0], [0,9E9,9E9,9E9,9E9,9E9]], vel60, z1, marker\WObj:=WObj0;
    MoveL [[1168.713, -980.251, 216.764], [0.707107, 0, 0.707107, 0], [0,0,0,0], [0,9E9,9E9,9E9,9E9,9E9]], vel60, z1, marker\WObj:=WObj0;
    MoveL [[1047.684, -980.251, 216.764], [0.707107, 0, 0.707107, 0], [0,0,0,0], [0,9E9,9E9,9E9,9E9,9E9]], vel60, z1, marker\WObj:=WObj0;
    MoveL [[1105.035, -949.955, 220.764], [0.707107, 0, 0.707107, 0], [0,0,0,0], [0,9E9,9E9,9E9,9E9,9E9]], vel60, z1, marker\WObj:=WObj0;
    MoveL [[1190.444, -824.794, 220.764], [0.707107, 0, 0.707107, 0], [0,0,0,0], [0,9E9,9E9,9E9,9E9,9E9]], vel60, z1, marker\WObj:=WObj0;
    MoveL [[1275.854, -949.955, 220.764], [0.707107, 0, 0.707107, 0], [0,0,0,0], [0,9E9,9E9,9E9,9E9,9E9]], vel60, z1, marker\WObj:=WObj0;
    MoveL [[1105.035, -949.955, 220.764], [0.707107, 0, 0.707107, 0], [0,0,0,0], [0,9E9,9E9,9E9,9E9,9E9]], vel60, z1, marker\WObj:=WObj0;
    MoveL [[1078.308, -979.427, 220.764], [0.707107, 0, 0.707107, 0], [0,0,0,0], [0,9E9,9E9,9E9,9E9,9E9]], vel60, z1, marker\WObj:=WObj0;
    MoveL [[1121.729, -925.491, 220.764], [0.707107, 0, 0.707107, 0], [0,0,0,0], [0,9E9,9E9,9E9,9E9,9E9]], vel60, z1, marker\WObj:=WObj0;
    MoveL [[1082.009, -931.411, 220.764], [0.707107, 0, 0.707107, 0], [0,0,0,0], [0,9E9,9E9,9E9,9E9,9E9]], vel60, z1, marker\WObj:=WObj0;
    MoveL [[1138.423, -901.027, 220.764], [0.707107, 0, 0.707107, 0], [0,0,0,0], [0,9E9,9E9,9E9,9E9,9E9]], vel60, z1, marker\WObj:=WObj0;
    MoveL [[1103.449, -884.863, 220.764], [0.707107, 0, 0.707107, 0], [0,0,0,0], [0,9E9,9E9,9E9,9E9,9E9]], vel60, z1, marker\WObj:=WObj0;
    MoveL [[1155.117, -876.564, 220.764], [0.707107, 0, 0.707107, 0], [0,0,0,0], [0,9E9,9E9,9E9,9E9,9E9]], vel60, z1, marker\WObj:=WObj0;
    MoveL [[1125.903, -867.088, 220.764], [0.707107, 0, 0.707107, 0], [0,0,0,0], [0,9E9,9E9,9E9,9E9,9E9]], vel60, z1, marker\WObj:=WObj0;
    MoveL [[1171.811, -852.1, 220.764], [0.707107, 0, 0.707107, 0], [0,0,0,0], [0,9E9,9E9,9E9,9E9,9E9]], vel60, z1, marker\WObj:=WObj0;
    MoveL [[1158.668, -819.072, 220.764], [0.707107, 0, 0.707107, 0], [0,0,0,0], [0,9E9,9E9,9E9,9E9,9E9]], vel60, z1, marker\WObj:=WObj0;
    MoveL [[1188.505, -827.636, 220.764], [0.707107, 0, 0.707107, 0], [0,0,0,0], [0,9E9,9E9,9E9,9E9,9E9]], vel60, z1, marker\WObj:=WObj0;
    MoveL [[1191.434, -773.957, 220.764], [0.707107, 0, 0.707107, 0], [0,0,0,0], [0,9E9,9E9,9E9,9E9,9E9]], vel60, z1, marker\WObj:=WObj0;
    MoveL [[1205.199, -846.415, 220.764], [0.707107, 0, 0.707107, 0], [0,0,0,0], [0,9E9,9E9,9E9,9E9,9E9]], vel60, z1, marker\WObj:=WObj0;
    MoveL [[1224.2, -821.972, 220.764], [0.707107, 0, 0.707107, 0], [0,0,0,0], [0,9E9,9E9,9E9,9E9,9E9]], vel60, z1, marker\WObj:=WObj0;
    MoveL [[1221.892, -870.878, 220.764], [0.707107, 0, 0.707107, 0], [0,0,0,0], [0,9E9,9E9,9E9,9E9,9E9]], vel60, z1, marker\WObj:=WObj0;
    MoveL [[1256.965, -869.988, 220.764], [0.707107, 0, 0.707107, 0], [0,0,0,0], [0,9E9,9E9,9E9,9E9,9E9]], vel60, z1, marker\WObj:=WObj0;
    MoveL [[1238.586, -895.342, 220.764], [0.707107, 0, 0.707107, 0], [0,0,0,0], [0,9E9,9E9,9E9,9E9,9E9]], vel60, z1, marker\WObj:=WObj0;
    MoveL [[1275.409, -887.539, 220.764], [0.707107, 0, 0.707107, 0], [0,0,0,0], [0,9E9,9E9,9E9,9E9,9E9]], vel60, z1, marker\WObj:=WObj0;
    MoveL [[1255.28, -919.806, 220.764], [0.707107, 0, 0.707107, 0], [0,0,0,0], [0,9E9,9E9,9E9,9E9,9E9]], vel60, z1, marker\WObj:=WObj0;
    MoveL [[1300.859, -934.312, 220.764], [0.707107, 0, 0.707107, 0], [0,0,0,0], [0,9E9,9E9,9E9,9E9,9E9]], vel60, z1, marker\WObj:=WObj0;
    MoveL [[1271.974, -944.269, 220.764], [0.707107, 0, 0.707107, 0], [0,0,0,0], [0,9E9,9E9,9E9,9E9,9E9]], vel60, z1, marker\WObj:=WObj0;
    MoveL [[1328.134, -979.427, 220.764], [0.707107, 0, 0.707107, 0], [0,0,0,0], [0,9E9,9E9,9E9,9E9,9E9]], vel60, z1, marker\WObj:=WObj0;
    MoveL [[1253.12, -949.955, 220.764], [0.707107, 0, 0.707107, 0], [0,0,0,0], [0,9E9,9E9,9E9,9E9,9E9]], vel60, z1, marker\WObj:=WObj0;
    MoveL [[1270.004, -979.427, 220.764], [0.707107, 0, 0.707107, 0], [0,0,0,0], [0,9E9,9E9,9E9,9E9,9E9]], vel60, z1, marker\WObj:=WObj0;
    MoveL [[1223.503, -949.955, 220.764], [0.707107, 0, 0.707107, 0], [0,0,0,0], [0,9E9,9E9,9E9,9E9,9E9]], vel60, z1, marker\WObj:=WObj0;
    MoveL [[1211.875, -979.427, 220.764], [0.707107, 0, 0.707107, 0], [0,0,0,0], [0,9E9,9E9,9E9,9E9,9E9]], vel60, z1, marker\WObj:=WObj0;
    MoveL [[1193.886, -949.955, 220.764], [0.707107, 0, 0.707107, 0], [0,0,0,0], [0,9E9,9E9,9E9,9E9,9E9]], vel60, z1, marker\WObj:=WObj0;
    MoveL [[1180.376, -1000.887, 220.764], [0.707107, 0, 0.707107, 0], [0,0,0,0], [0,9E9,9E9,9E9,9E9,9E9]], vel60, z1, marker\WObj:=WObj0;
    MoveL [[1164.269, -949.955, 220.764], [0.707107, 0, 0.707107, 0], [0,0,0,0], [0,9E9,9E9,9E9,9E9,9E9]], vel60, z1, marker\WObj:=WObj0;
    MoveL [[1136.438, -979.427, 220.764], [0.707107, 0, 0.707107, 0], [0,0,0,0], [0,9E9,9E9,9E9,9E9,9E9]], vel60, z1, marker\WObj:=WObj0;
    MoveL [[1134.652, -949.955, 220.764], [0.707107, 0, 0.707107, 0], [0,0,0,0], [0,9E9,9E9,9E9,9E9,9E9]], vel60, z1, marker\WObj:=WObj0;
    MoveL [[1049.243, -979.427, 220.764], [0.707107, 0, 0.707107, 0], [0,0,0,0], [0,9E9,9E9,9E9,9E9,9E9]], vel60, z1, marker\WObj:=WObj0;
    MoveL [[1109.782, -890.711, 220.764], [0.707107, 0, 0.707107, 0], [0,0,0,0], [0,9E9,9E9,9E9,9E9,9E9]], vel60, z1, marker\WObj:=WObj0;
    MoveL [[1104.023, -886.464, 220.764], [0.707107, 0, 0.707107, 0], [0,0,0,0], [0,9E9,9E9,9E9,9E9,9E9]], vel60, z1, marker\WObj:=WObj0;
    MoveL [[1095.26, -862.033, 220.764], [0.707107, 0, 0.707107, 0], [0,0,0,0], [0,9E9,9E9,9E9,9E9,9E9]], vel60, z1, marker\WObj:=WObj0;
    MoveL [[1116.823, -865.921, 220.764], [0.707107, 0, 0.707107, 0], [0,0,0,0], [0,9E9,9E9,9E9,9E9,9E9]], vel60, z1, marker\WObj:=WObj0;
    MoveL [[1123.762, -870.226, 220.764], [0.707107, 0, 0.707107, 0], [0,0,0,0], [0,9E9,9E9,9E9,9E9,9E9]], vel60, z1, marker\WObj:=WObj0;
    MoveL [[1190.444, -772.507, 220.764], [0.707107, 0, 0.707107, 0], [0,0,0,0], [0,9E9,9E9,9E9,9E9,9E9]], vel60, z1, marker\WObj:=WObj0;
    MoveL [[1257.127, -870.226, 220.764], [0.707107, 0, 0.707107, 0], [0,0,0,0], [0,9E9,9E9,9E9,9E9,9E9]], vel60, z1, marker\WObj:=WObj0;
    MoveL [[1264.066, -865.921, 220.764], [0.707107, 0, 0.707107, 0], [0,0,0,0], [0,9E9,9E9,9E9,9E9,9E9]], vel60, z1, marker\WObj:=WObj0;
    MoveL [[1285.629, -862.033, 220.764], [0.707107, 0, 0.707107, 0], [0,0,0,0], [0,9E9,9E9,9E9,9E9,9E9]], vel60, z1, marker\WObj:=WObj0;
    MoveL [[1276.866, -886.464, 220.764], [0.707107, 0, 0.707107, 0], [0,0,0,0], [0,9E9,9E9,9E9,9E9,9E9]], vel60, z1, marker\WObj:=WObj0;
    MoveL [[1271.106, -890.711, 220.764], [0.707107, 0, 0.707107, 0], [0,0,0,0], [0,9E9,9E9,9E9,9E9,9E9]], vel60, z1, marker\WObj:=WObj0;
    MoveL [[1331.645, -979.427, 220.764], [0.707107, 0, 0.707107, 0], [0,0,0,0], [0,9E9,9E9,9E9,9E9,9E9]], vel60, z1, marker\WObj:=WObj0;
    MoveL [[1211.155, -979.427, 220.764], [0.707107, 0, 0.707107, 0], [0,0,0,0], [0,9E9,9E9,9E9,9E9,9E9]], vel60, z1, marker\WObj:=WObj0;
    MoveL [[1210.893, -986.578, 220.764], [0.707107, 0, 0.707107, 0], [0,0,0,0], [0,9E9,9E9,9E9,9E9,9E9]], vel60, z1, marker\WObj:=WObj0;
    MoveL [[1191.665, -1013.084, 220.764], [0.707107, 0, 0.707107, 0], [0,0,0,0], [0,9E9,9E9,9E9,9E9,9E9]], vel60, z1, marker\WObj:=WObj0;
    MoveL [[1189.224, -1013.084, 220.764], [0.707107, 0, 0.707107, 0], [0,0,0,0], [0,9E9,9E9,9E9,9E9,9E9]], vel60, z1, marker\WObj:=WObj0;
    MoveL [[1169.996, -986.578, 220.764], [0.707107, 0, 0.707107, 0], [0,0,0,0], [0,9E9,9E9,9E9,9E9,9E9]], vel60, z1, marker\WObj:=WObj0;
    MoveL [[1169.734, -979.427, 220.764], [0.707107, 0, 0.707107, 0], [0,0,0,0], [0,9E9,9E9,9E9,9E9,9E9]], vel60, z1, marker\WObj:=WObj0;
    MoveL [[1049.243, -979.427, 220.764], [0.707107, 0, 0.707107, 0], [0,0,0,0], [0,9E9,9E9,9E9,9E9,9E9]], vel60, z1, marker\WObj:=WObj0;
    MoveL [[1105.035, -949.955, 224.764], [0.707107, 0, 0.707107, 0], [0,0,0,0], [0,9E9,9E9,9E9,9E9,9E9]], vel60, z1, marker\WObj:=WObj0;
    MoveL [[1190.444, -824.794, 224.764], [0.707107, 0, 0.707107, 0], [0,0,0,0], [0,9E9,9E9,9E9,9E9,9E9]], vel60, z1, marker\WObj:=WObj0;
    MoveL [[1275.854, -949.955, 224.764], [0.707107, 0, 0.707107, 0], [0,0,0,0], [0,9E9,9E9,9E9,9E9,9E9]], vel60, z1, marker\WObj:=WObj0;
    MoveL [[1105.035, -949.955, 224.764], [0.707107, 0, 0.707107, 0], [0,0,0,0], [0,9E9,9E9,9E9,9E9,9E9]], vel60, z1, marker\WObj:=WObj0;
    MoveL [[1079.298, -978.603, 224.764], [0.707107, 0, 0.707107, 0], [0,0,0,0], [0,9E9,9E9,9E9,9E9,9E9]], vel60, z1, marker\WObj:=WObj0;
    MoveL [[1121.729, -925.491, 224.764], [0.707107, 0, 0.707107, 0], [0,0,0,0], [0,9E9,9E9,9E9,9E9,9E9]], vel60, z1, marker\WObj:=WObj0;
    MoveL [[1082.926, -931.529, 224.764], [0.707107, 0, 0.707107, 0], [0,0,0,0], [0,9E9,9E9,9E9,9E9,9E9]], vel60, z1, marker\WObj:=WObj0;
    MoveL [[1138.423, -901.027, 224.764], [0.707107, 0, 0.707107, 0], [0,0,0,0], [0,9E9,9E9,9E9,9E9,9E9]], vel60, z1, marker\WObj:=WObj0;
    MoveL [[1105.314, -886.11, 224.764], [0.707107, 0, 0.707107, 0], [0,0,0,0], [0,9E9,9E9,9E9,9E9,9E9]], vel60, z1, marker\WObj:=WObj0;
    MoveL [[1155.117, -876.564, 224.764], [0.707107, 0, 0.707107, 0], [0,0,0,0], [0,9E9,9E9,9E9,9E9,9E9]], vel60, z1, marker\WObj:=WObj0;
    MoveL [[1126.304, -867.961, 224.764], [0.707107, 0, 0.707107, 0], [0,0,0,0], [0,9E9,9E9,9E9,9E9,9E9]], vel60, z1, marker\WObj:=WObj0;
    MoveL [[1171.811, -852.1, 224.764], [0.707107, 0, 0.707107, 0], [0,0,0,0], [0,9E9,9E9,9E9,9E9,9E9]], vel60, z1, marker\WObj:=WObj0;
    MoveL [[1158.427, -820.888, 224.764], [0.707107, 0, 0.707107, 0], [0,0,0,0], [0,9E9,9E9,9E9,9E9,9E9]], vel60, z1, marker\WObj:=WObj0;
    MoveL [[1188.505, -827.636, 224.764], [0.707107, 0, 0.707107, 0], [0,0,0,0], [0,9E9,9E9,9E9,9E9,9E9]], vel60, z1, marker\WObj:=WObj0;
    MoveL [[1190.55, -774.123, 224.764], [0.707107, 0, 0.707107, 0], [0,0,0,0], [0,9E9,9E9,9E9,9E9,9E9]], vel60, z1, marker\WObj:=WObj0;
    MoveL [[1205.199, -846.415, 224.764], [0.707107, 0, 0.707107, 0], [0,0,0,0], [0,9E9,9E9,9E9,9E9,9E9]], vel60, z1, marker\WObj:=WObj0;
    MoveL [[1222.672, -821.196, 224.764], [0.707107, 0, 0.707107, 0], [0,0,0,0], [0,9E9,9E9,9E9,9E9,9E9]], vel60, z1, marker\WObj:=WObj0;
    MoveL [[1221.892, -870.878, 224.764], [0.707107, 0, 0.707107, 0], [0,0,0,0], [0,9E9,9E9,9E9,9E9,9E9]], vel60, z1, marker\WObj:=WObj0;
    MoveL [[1254.795, -868.269, 224.764], [0.707107, 0, 0.707107, 0], [0,0,0,0], [0,9E9,9E9,9E9,9E9,9E9]], vel60, z1, marker\WObj:=WObj0;
    MoveL [[1238.586, -895.342, 224.764], [0.707107, 0, 0.707107, 0], [0,0,0,0], [0,9E9,9E9,9E9,9E9,9E9]], vel60, z1, marker\WObj:=WObj0;
    MoveL [[1275.275, -886.331, 224.764], [0.707107, 0, 0.707107, 0], [0,0,0,0], [0,9E9,9E9,9E9,9E9,9E9]], vel60, z1, marker\WObj:=WObj0;
    MoveL [[1255.28, -919.806, 224.764], [0.707107, 0, 0.707107, 0], [0,0,0,0], [0,9E9,9E9,9E9,9E9,9E9]], vel60, z1, marker\WObj:=WObj0;
    MoveL [[1298.173, -931.837, 224.764], [0.707107, 0, 0.707107, 0], [0,0,0,0], [0,9E9,9E9,9E9,9E9,9E9]], vel60, z1, marker\WObj:=WObj0;
    MoveL [[1271.974, -944.269, 224.764], [0.707107, 0, 0.707107, 0], [0,0,0,0], [0,9E9,9E9,9E9,9E9,9E9]], vel60, z1, marker\WObj:=WObj0;
    MoveL [[1329.713, -978.603, 224.764], [0.707107, 0, 0.707107, 0], [0,0,0,0], [0,9E9,9E9,9E9,9E9,9E9]], vel60, z1, marker\WObj:=WObj0;
    MoveL [[1253.12, -949.955, 224.764], [0.707107, 0, 0.707107, 0], [0,0,0,0], [0,9E9,9E9,9E9,9E9,9E9]], vel60, z1, marker\WObj:=WObj0;
    MoveL [[1272.724, -978.603, 224.764], [0.707107, 0, 0.707107, 0], [0,0,0,0], [0,9E9,9E9,9E9,9E9,9E9]], vel60, z1, marker\WObj:=WObj0;
    MoveL [[1223.503, -949.955, 224.764], [0.707107, 0, 0.707107, 0], [0,0,0,0], [0,9E9,9E9,9E9,9E9,9E9]], vel60, z1, marker\WObj:=WObj0;
    MoveL [[1215.734, -978.603, 224.764], [0.707107, 0, 0.707107, 0], [0,0,0,0], [0,9E9,9E9,9E9,9E9,9E9]], vel60, z1, marker\WObj:=WObj0;
    MoveL [[1193.886, -949.955, 224.764], [0.707107, 0, 0.707107, 0], [0,0,0,0], [0,9E9,9E9,9E9,9E9,9E9]], vel60, z1, marker\WObj:=WObj0;
    MoveL [[1178.614, -998.682, 224.764], [0.707107, 0, 0.707107, 0], [0,0,0,0], [0,9E9,9E9,9E9,9E9,9E9]], vel60, z1, marker\WObj:=WObj0;
    MoveL [[1164.269, -949.955, 224.764], [0.707107, 0, 0.707107, 0], [0,0,0,0], [0,9E9,9E9,9E9,9E9,9E9]], vel60, z1, marker\WObj:=WObj0;
    MoveL [[1136.287, -978.603, 224.764], [0.707107, 0, 0.707107, 0], [0,0,0,0], [0,9E9,9E9,9E9,9E9,9E9]], vel60, z1, marker\WObj:=WObj0;
    MoveL [[1134.652, -949.955, 224.764], [0.707107, 0, 0.707107, 0], [0,0,0,0], [0,9E9,9E9,9E9,9E9,9E9]], vel60, z1, marker\WObj:=WObj0;
    MoveL [[1050.803, -978.603, 224.764], [0.707107, 0, 0.707107, 0], [0,0,0,0], [0,9E9,9E9,9E9,9E9,9E9]], vel60, z1, marker\WObj:=WObj0;
    MoveL [[1111.039, -890.332, 224.764], [0.707107, 0, 0.707107, 0], [0,0,0,0], [0,9E9,9E9,9E9,9E9,9E9]], vel60, z1, marker\WObj:=WObj0;
    MoveL [[1103.196, -884.549, 224.764], [0.707107, 0, 0.707107, 0], [0,0,0,0], [0,9E9,9E9,9E9,9E9,9E9]], vel60, z1, marker\WObj:=WObj0;
    MoveL [[1096.753, -866.586, 224.764], [0.707107, 0, 0.707107, 0], [0,0,0,0], [0,9E9,9E9,9E9,9E9,9E9]], vel60, z1, marker\WObj:=WObj0;
    MoveL [[1099.247, -862.932, 224.764], [0.707107, 0, 0.707107, 0], [0,0,0,0], [0,9E9,9E9,9E9,9E9,9E9]], vel60, z1, marker\WObj:=WObj0;
    MoveL [[1114.444, -865.672, 224.764], [0.707107, 0, 0.707107, 0], [0,0,0,0], [0,9E9,9E9,9E9,9E9,9E9]], vel60, z1, marker\WObj:=WObj0;
    MoveL [[1123.874, -871.523, 224.764], [0.707107, 0, 0.707107, 0], [0,0,0,0], [0,9E9,9E9,9E9,9E9,9E9]], vel60, z1, marker\WObj:=WObj0;
    MoveL [[1190.444, -773.969, 224.764], [0.707107, 0, 0.707107, 0], [0,0,0,0], [0,9E9,9E9,9E9,9E9,9E9]], vel60, z1, marker\WObj:=WObj0;
    MoveL [[1257.015, -871.523, 224.764], [0.707107, 0, 0.707107, 0], [0,0,0,0], [0,9E9,9E9,9E9,9E9,9E9]], vel60, z1, marker\WObj:=WObj0;
    MoveL [[1266.445, -865.672, 224.764], [0.707107, 0, 0.707107, 0], [0,0,0,0], [0,9E9,9E9,9E9,9E9,9E9]], vel60, z1, marker\WObj:=WObj0;
    MoveL [[1281.642, -862.932, 224.764], [0.707107, 0, 0.707107, 0], [0,0,0,0], [0,9E9,9E9,9E9,9E9,9E9]], vel60, z1, marker\WObj:=WObj0;
    MoveL [[1284.136, -866.586, 224.764], [0.707107, 0, 0.707107, 0], [0,0,0,0], [0,9E9,9E9,9E9,9E9,9E9]], vel60, z1, marker\WObj:=WObj0;
    MoveL [[1277.693, -884.549, 224.764], [0.707107, 0, 0.707107, 0], [0,0,0,0], [0,9E9,9E9,9E9,9E9,9E9]], vel60, z1, marker\WObj:=WObj0;
    MoveL [[1269.85, -890.332, 224.764], [0.707107, 0, 0.707107, 0], [0,0,0,0], [0,9E9,9E9,9E9,9E9,9E9]], vel60, z1, marker\WObj:=WObj0;
    MoveL [[1330.085, -978.603, 224.764], [0.707107, 0, 0.707107, 0], [0,0,0,0], [0,9E9,9E9,9E9,9E9,9E9]], vel60, z1, marker\WObj:=WObj0;
    MoveL [[1210.133, -978.603, 224.764], [0.707107, 0, 0.707107, 0], [0,0,0,0], [0,9E9,9E9,9E9,9E9,9E9]], vel60, z1, marker\WObj:=WObj0;
    MoveL [[1209.776, -988.341, 224.764], [0.707107, 0, 0.707107, 0], [0,0,0,0], [0,9E9,9E9,9E9,9E9,9E9]], vel60, z1, marker\WObj:=WObj0;
    MoveL [[1198.571, -1003.788, 224.764], [0.707107, 0, 0.707107, 0], [0,0,0,0], [0,9E9,9E9,9E9,9E9,9E9]], vel60, z1, marker\WObj:=WObj0;
    MoveL [[1182.318, -1003.788, 224.764], [0.707107, 0, 0.707107, 0], [0,0,0,0], [0,9E9,9E9,9E9,9E9,9E9]], vel60, z1, marker\WObj:=WObj0;
    MoveL [[1171.112, -988.341, 224.764], [0.707107, 0, 0.707107, 0], [0,0,0,0], [0,9E9,9E9,9E9,9E9,9E9]], vel60, z1, marker\WObj:=WObj0;
    MoveL [[1170.756, -978.603, 224.764], [0.707107, 0, 0.707107, 0], [0,0,0,0], [0,9E9,9E9,9E9,9E9,9E9]], vel60, z1, marker\WObj:=WObj0;
    MoveL [[1050.803, -978.603, 224.764], [0.707107, 0, 0.707107, 0], [0,0,0,0], [0,9E9,9E9,9E9,9E9,9E9]], vel60, z1, marker\WObj:=WObj0;
    MoveL [[1105.035, -949.955, 228.764], [0.707107, 0, 0.707107, 0], [0,0,0,0], [0,9E9,9E9,9E9,9E9,9E9]], vel60, z1, marker\WObj:=WObj0;
    MoveL [[1190.444, -824.794, 228.764], [0.707107, 0, 0.707107, 0], [0,0,0,0], [0,9E9,9E9,9E9,9E9,9E9]], vel60, z1, marker\WObj:=WObj0;
    MoveL [[1275.854, -949.955, 228.764], [0.707107, 0, 0.707107, 0], [0,0,0,0], [0,9E9,9E9,9E9,9E9,9E9]], vel60, z1, marker\WObj:=WObj0;
    MoveL [[1105.035, -949.955, 228.764], [0.707107, 0, 0.707107, 0], [0,0,0,0], [0,9E9,9E9,9E9,9E9,9E9]], vel60, z1, marker\WObj:=WObj0;
    MoveL [[1079.877, -977.779, 228.764], [0.707107, 0, 0.707107, 0], [0,0,0,0], [0,9E9,9E9,9E9,9E9,9E9]], vel60, z1, marker\WObj:=WObj0;
    MoveL [[1121.729, -925.491, 228.764], [0.707107, 0, 0.707107, 0], [0,0,0,0], [0,9E9,9E9,9E9,9E9,9E9]], vel60, z1, marker\WObj:=WObj0;
    MoveL [[1083.38, -932.326, 228.764], [0.707107, 0, 0.707107, 0], [0,0,0,0], [0,9E9,9E9,9E9,9E9,9E9]], vel60, z1, marker\WObj:=WObj0;
    MoveL [[1138.423, -901.027, 228.764], [0.707107, 0, 0.707107, 0], [0,0,0,0], [0,9E9,9E9,9E9,9E9,9E9]], vel60, z1, marker\WObj:=WObj0;
    MoveL [[1109.295, -887.74, 228.764], [0.707107, 0, 0.707107, 0], [0,0,0,0], [0,9E9,9E9,9E9,9E9,9E9]], vel60, z1, marker\WObj:=WObj0;
    MoveL [[1155.117, -876.564, 228.764], [0.707107, 0, 0.707107, 0], [0,0,0,0], [0,9E9,9E9,9E9,9E9,9E9]], vel60, z1, marker\WObj:=WObj0;
    MoveL [[1128.905, -865.612, 228.764], [0.707107, 0, 0.707107, 0], [0,0,0,0], [0,9E9,9E9,9E9,9E9,9E9]], vel60, z1, marker\WObj:=WObj0;
    MoveL [[1171.811, -852.1, 228.764], [0.707107, 0, 0.707107, 0], [0,0,0,0], [0,9E9,9E9,9E9,9E9,9E9]], vel60, z1, marker\WObj:=WObj0;
    MoveL [[1159.922, -820.159, 228.764], [0.707107, 0, 0.707107, 0], [0,0,0,0], [0,9E9,9E9,9E9,9E9,9E9]], vel60, z1, marker\WObj:=WObj0;
    MoveL [[1188.505, -827.636, 228.764], [0.707107, 0, 0.707107, 0], [0,0,0,0], [0,9E9,9E9,9E9,9E9,9E9]], vel60, z1, marker\WObj:=WObj0;
    MoveL [[1190.938, -776.154, 228.764], [0.707107, 0, 0.707107, 0], [0,0,0,0], [0,9E9,9E9,9E9,9E9,9E9]], vel60, z1, marker\WObj:=WObj0;
    MoveL [[1205.199, -846.415, 228.764], [0.707107, 0, 0.707107, 0], [0,0,0,0], [0,9E9,9E9,9E9,9E9,9E9]], vel60, z1, marker\WObj:=WObj0;
    MoveL [[1221.955, -821.607, 228.764], [0.707107, 0, 0.707107, 0], [0,0,0,0], [0,9E9,9E9,9E9,9E9,9E9]], vel60, z1, marker\WObj:=WObj0;
    MoveL [[1221.892, -870.878, 228.764], [0.707107, 0, 0.707107, 0], [0,0,0,0], [0,9E9,9E9,9E9,9E9,9E9]], vel60, z1, marker\WObj:=WObj0;
    MoveL [[1252.971, -867.06, 228.764], [0.707107, 0, 0.707107, 0], [0,0,0,0], [0,9E9,9E9,9E9,9E9,9E9]], vel60, z1, marker\WObj:=WObj0;
    MoveL [[1238.586, -895.342, 228.764], [0.707107, 0, 0.707107, 0], [0,0,0,0], [0,9E9,9E9,9E9,9E9,9E9]], vel60, z1, marker\WObj:=WObj0;
    MoveL [[1270.183, -888.78, 228.764], [0.707107, 0, 0.707107, 0], [0,0,0,0], [0,9E9,9E9,9E9,9E9,9E9]], vel60, z1, marker\WObj:=WObj0;
    MoveL [[1255.28, -919.806, 228.764], [0.707107, 0, 0.707107, 0], [0,0,0,0], [0,9E9,9E9,9E9,9E9,9E9]], vel60, z1, marker\WObj:=WObj0;
    MoveL [[1298.497, -933.774, 228.764], [0.707107, 0, 0.707107, 0], [0,0,0,0], [0,9E9,9E9,9E9,9E9,9E9]], vel60, z1, marker\WObj:=WObj0;
    MoveL [[1271.974, -944.269, 228.764], [0.707107, 0, 0.707107, 0], [0,0,0,0], [0,9E9,9E9,9E9,9E9,9E9]], vel60, z1, marker\WObj:=WObj0;
    MoveL [[1326.773, -977.779, 228.764], [0.707107, 0, 0.707107, 0], [0,0,0,0], [0,9E9,9E9,9E9,9E9,9E9]], vel60, z1, marker\WObj:=WObj0;
    MoveL [[1253.12, -949.955, 228.764], [0.707107, 0, 0.707107, 0], [0,0,0,0], [0,9E9,9E9,9E9,9E9,9E9]], vel60, z1, marker\WObj:=WObj0;
    MoveL [[1271.746, -977.779, 228.764], [0.707107, 0, 0.707107, 0], [0,0,0,0], [0,9E9,9E9,9E9,9E9,9E9]], vel60, z1, marker\WObj:=WObj0;
    MoveL [[1223.503, -949.955, 228.764], [0.707107, 0, 0.707107, 0], [0,0,0,0], [0,9E9,9E9,9E9,9E9,9E9]], vel60, z1, marker\WObj:=WObj0;
    MoveL [[1216.719, -977.779, 228.764], [0.707107, 0, 0.707107, 0], [0,0,0,0], [0,9E9,9E9,9E9,9E9,9E9]], vel60, z1, marker\WObj:=WObj0;
    MoveL [[1193.886, -949.955, 228.764], [0.707107, 0, 0.707107, 0], [0,0,0,0], [0,9E9,9E9,9E9,9E9,9E9]], vel60, z1, marker\WObj:=WObj0;
    MoveL [[1175.811, -994.491, 228.764], [0.707107, 0, 0.707107, 0], [0,0,0,0], [0,9E9,9E9,9E9,9E9,9E9]], vel60, z1, marker\WObj:=WObj0;
    MoveL [[1164.269, -949.955, 228.764], [0.707107, 0, 0.707107, 0], [0,0,0,0], [0,9E9,9E9,9E9,9E9,9E9]], vel60, z1, marker\WObj:=WObj0;
    MoveL [[1134.904, -977.779, 228.764], [0.707107, 0, 0.707107, 0], [0,0,0,0], [0,9E9,9E9,9E9,9E9,9E9]], vel60, z1, marker\WObj:=WObj0;
    MoveL [[1134.652, -949.955, 228.764], [0.707107, 0, 0.707107, 0], [0,0,0,0], [0,9E9,9E9,9E9,9E9,9E9]], vel60, z1, marker\WObj:=WObj0;
    MoveL [[1052.363, -977.779, 228.764], [0.707107, 0, 0.707107, 0], [0,0,0,0], [0,9E9,9E9,9E9,9E9,9E9]], vel60, z1, marker\WObj:=WObj0;
    MoveL [[1112.295, -889.953, 228.764], [0.707107, 0, 0.707107, 0], [0,0,0,0], [0,9E9,9E9,9E9,9E9,9E9]], vel60, z1, marker\WObj:=WObj0;
    MoveL [[1102.37, -882.633, 228.764], [0.707107, 0, 0.707107, 0], [0,0,0,0], [0,9E9,9E9,9E9,9E9,9E9]], vel60, z1, marker\WObj:=WObj0;
    MoveL [[1100.539, -877.53, 228.764], [0.707107, 0, 0.707107, 0], [0,0,0,0], [0,9E9,9E9,9E9,9E9,9E9]], vel60, z1, marker\WObj:=WObj0;
    MoveL [[1109.159, -864.899, 228.764], [0.707107, 0, 0.707107, 0], [0,0,0,0], [0,9E9,9E9,9E9,9E9,9E9]], vel60, z1, marker\WObj:=WObj0;
    MoveL [[1112.064, -865.423, 228.764], [0.707107, 0, 0.707107, 0], [0,0,0,0], [0,9E9,9E9,9E9,9E9,9E9]], vel60, z1, marker\WObj:=WObj0;
    MoveL [[1123.987, -872.819, 228.764], [0.707107, 0, 0.707107, 0], [0,0,0,0], [0,9E9,9E9,9E9,9E9,9E9]], vel60, z1, marker\WObj:=WObj0;
    MoveL [[1190.444, -775.431, 228.764], [0.707107, 0, 0.707107, 0], [0,0,0,0], [0,9E9,9E9,9E9,9E9,9E9]], vel60, z1, marker\WObj:=WObj0;
    MoveL [[1256.902, -872.819, 228.764], [0.707107, 0, 0.707107, 0], [0,0,0,0], [0,9E9,9E9,9E9,9E9,9E9]], vel60, z1, marker\WObj:=WObj0;
    MoveL [[1268.825, -865.423, 228.764], [0.707107, 0, 0.707107, 0], [0,0,0,0], [0,9E9,9E9,9E9,9E9,9E9]], vel60, z1, marker\WObj:=WObj0;
    MoveL [[1271.73, -864.899, 228.764], [0.707107, 0, 0.707107, 0], [0,0,0,0], [0,9E9,9E9,9E9,9E9,9E9]], vel60, z1, marker\WObj:=WObj0;
    MoveL [[1280.35, -877.53, 228.764], [0.707107, 0, 0.707107, 0], [0,0,0,0], [0,9E9,9E9,9E9,9E9,9E9]], vel60, z1, marker\WObj:=WObj0;
    MoveL [[1278.519, -882.633, 228.764], [0.707107, 0, 0.707107, 0], [0,0,0,0], [0,9E9,9E9,9E9,9E9,9E9]], vel60, z1, marker\WObj:=WObj0;
    MoveL [[1268.594, -889.953, 228.764], [0.707107, 0, 0.707107, 0], [0,0,0,0], [0,9E9,9E9,9E9,9E9,9E9]], vel60, z1, marker\WObj:=WObj0;
    MoveL [[1328.526, -977.779, 228.764], [0.707107, 0, 0.707107, 0], [0,0,0,0], [0,9E9,9E9,9E9,9E9,9E9]], vel60, z1, marker\WObj:=WObj0;
    MoveL [[1209.112, -977.779, 228.764], [0.707107, 0, 0.707107, 0], [0,0,0,0], [0,9E9,9E9,9E9,9E9,9E9]], vel60, z1, marker\WObj:=WObj0;
    MoveL [[1208.66, -990.103, 228.764], [0.707107, 0, 0.707107, 0], [0,0,0,0], [0,9E9,9E9,9E9,9E9,9E9]], vel60, z1, marker\WObj:=WObj0;
    MoveL [[1205.477, -994.491, 228.764], [0.707107, 0, 0.707107, 0], [0,0,0,0], [0,9E9,9E9,9E9,9E9,9E9]], vel60, z1, marker\WObj:=WObj0;
    MoveL [[1175.412, -994.491, 228.764], [0.707107, 0, 0.707107, 0], [0,0,0,0], [0,9E9,9E9,9E9,9E9,9E9]], vel60, z1, marker\WObj:=WObj0;
    MoveL [[1172.229, -990.103, 228.764], [0.707107, 0, 0.707107, 0], [0,0,0,0], [0,9E9,9E9,9E9,9E9,9E9]], vel60, z1, marker\WObj:=WObj0;
    MoveL [[1171.777, -977.779, 228.764], [0.707107, 0, 0.707107, 0], [0,0,0,0], [0,9E9,9E9,9E9,9E9,9E9]], vel60, z1, marker\WObj:=WObj0;
    MoveL [[1052.363, -977.779, 228.764], [0.707107, 0, 0.707107, 0], [0,0,0,0], [0,9E9,9E9,9E9,9E9,9E9]], vel60, z1, marker\WObj:=WObj0;
    MoveL [[1105.035, -949.955, 232.764], [0.707107, 0, 0.707107, 0], [0,0,0,0], [0,9E9,9E9,9E9,9E9,9E9]], vel60, z1, marker\WObj:=WObj0;
    MoveL [[1190.444, -824.794, 232.764], [0.707107, 0, 0.707107, 0], [0,0,0,0], [0,9E9,9E9,9E9,9E9,9E9]], vel60, z1, marker\WObj:=WObj0;
    MoveL [[1275.854, -949.955, 232.764], [0.707107, 0, 0.707107, 0], [0,0,0,0], [0,9E9,9E9,9E9,9E9,9E9]], vel60, z1, marker\WObj:=WObj0;
    MoveL [[1105.035, -949.955, 232.764], [0.707107, 0, 0.707107, 0], [0,0,0,0], [0,9E9,9E9,9E9,9E9,9E9]], vel60, z1, marker\WObj:=WObj0;
    MoveL [[1078.357, -976.955, 232.764], [0.707107, 0, 0.707107, 0], [0,0,0,0], [0,9E9,9E9,9E9,9E9,9E9]], vel60, z1, marker\WObj:=WObj0;
    MoveL [[1121.729, -925.491, 232.764], [0.707107, 0, 0.707107, 0], [0,0,0,0], [0,9E9,9E9,9E9,9E9,9E9]], vel60, z1, marker\WObj:=WObj0;
    MoveL [[1081.468, -936.59, 232.764], [0.707107, 0, 0.707107, 0], [0,0,0,0], [0,9E9,9E9,9E9,9E9,9E9]], vel60, z1, marker\WObj:=WObj0;
    MoveL [[1138.423, -901.027, 232.764], [0.707107, 0, 0.707107, 0], [0,0,0,0], [0,9E9,9E9,9E9,9E9,9E9]], vel60, z1, marker\WObj:=WObj0;
    MoveL [[1109.013, -896.225, 232.764], [0.707107, 0, 0.707107, 0], [0,0,0,0], [0,9E9,9E9,9E9,9E9,9E9]], vel60, z1, marker\WObj:=WObj0;
    MoveL [[1155.117, -876.564, 232.764], [0.707107, 0, 0.707107, 0], [0,0,0,0], [0,9E9,9E9,9E9,9E9,9E9]], vel60, z1, marker\WObj:=WObj0;
    MoveL [[1136.558, -855.859, 232.764], [0.707107, 0, 0.707107, 0], [0,0,0,0], [0,9E9,9E9,9E9,9E9,9E9]], vel60, z1, marker\WObj:=WObj0;
    MoveL [[1171.811, -852.1, 232.764], [0.707107, 0, 0.707107, 0], [0,0,0,0], [0,9E9,9E9,9E9,9E9,9E9]], vel60, z1, marker\WObj:=WObj0;
    MoveL [[1164.103, -815.494, 232.764], [0.707107, 0, 0.707107, 0], [0,0,0,0], [0,9E9,9E9,9E9,9E9,9E9]], vel60, z1, marker\WObj:=WObj0;
    MoveL [[1188.505, -827.636, 232.764], [0.707107, 0, 0.707107, 0], [0,0,0,0], [0,9E9,9E9,9E9,9E9,9E9]], vel60, z1, marker\WObj:=WObj0;
    MoveL [[1191.648, -778.656, 232.764], [0.707107, 0, 0.707107, 0], [0,0,0,0], [0,9E9,9E9,9E9,9E9,9E9]], vel60, z1, marker\WObj:=WObj0;
    MoveL [[1205.199, -846.415, 232.764], [0.707107, 0, 0.707107, 0], [0,0,0,0], [0,9E9,9E9,9E9,9E9,9E9]], vel60, z1, marker\WObj:=WObj0;
    MoveL [[1219.193, -819.021, 232.764], [0.707107, 0, 0.707107, 0], [0,0,0,0], [0,9E9,9E9,9E9,9E9,9E9]], vel60, z1, marker\WObj:=WObj0;
    MoveL [[1221.892, -870.878, 232.764], [0.707107, 0, 0.707107, 0], [0,0,0,0], [0,9E9,9E9,9E9,9E9,9E9]], vel60, z1, marker\WObj:=WObj0;
    MoveL [[1246.737, -859.386, 232.764], [0.707107, 0, 0.707107, 0], [0,0,0,0], [0,9E9,9E9,9E9,9E9,9E9]], vel60, z1, marker\WObj:=WObj0;
    MoveL [[1238.586, -895.342, 232.764], [0.707107, 0, 0.707107, 0], [0,0,0,0], [0,9E9,9E9,9E9,9E9,9E9]], vel60, z1, marker\WObj:=WObj0;
    MoveL [[1274.282, -899.751, 232.764], [0.707107, 0, 0.707107, 0], [0,0,0,0], [0,9E9,9E9,9E9,9E9,9E9]], vel60, z1, marker\WObj:=WObj0;
    MoveL [[1255.28, -919.806, 232.764], [0.707107, 0, 0.707107, 0], [0,0,0,0], [0,9E9,9E9,9E9,9E9,9E9]], vel60, z1, marker\WObj:=WObj0;
    MoveL [[1301.827, -940.116, 232.764], [0.707107, 0, 0.707107, 0], [0,0,0,0], [0,9E9,9E9,9E9,9E9,9E9]], vel60, z1, marker\WObj:=WObj0;
    MoveL [[1271.974, -944.269, 232.764], [0.707107, 0, 0.707107, 0], [0,0,0,0], [0,9E9,9E9,9E9,9E9,9E9]], vel60, z1, marker\WObj:=WObj0;
    MoveL [[1322.696, -976.955, 232.764], [0.707107, 0, 0.707107, 0], [0,0,0,0], [0,9E9,9E9,9E9,9E9,9E9]], vel60, z1, marker\WObj:=WObj0;
    MoveL [[1253.12, -949.955, 232.764], [0.707107, 0, 0.707107, 0], [0,0,0,0], [0,9E9,9E9,9E9,9E9,9E9]], vel60, z1, marker\WObj:=WObj0;
    MoveL [[1273.828, -976.955, 232.764], [0.707107, 0, 0.707107, 0], [0,0,0,0], [0,9E9,9E9,9E9,9E9,9E9]], vel60, z1, marker\WObj:=WObj0;
    MoveL [[1223.503, -949.955, 232.764], [0.707107, 0, 0.707107, 0], [0,0,0,0], [0,9E9,9E9,9E9,9E9,9E9]], vel60, z1, marker\WObj:=WObj0;
    MoveL [[1224.961, -976.955, 232.764], [0.707107, 0, 0.707107, 0], [0,0,0,0], [0,9E9,9E9,9E9,9E9,9E9]], vel60, z1, marker\WObj:=WObj0;
    MoveL [[1193.886, -949.955, 232.764], [0.707107, 0, 0.707107, 0], [0,0,0,0], [0,9E9,9E9,9E9,9E9,9E9]], vel60, z1, marker\WObj:=WObj0;
    MoveL [[1176.093, -976.955, 232.764], [0.707107, 0, 0.707107, 0], [0,0,0,0], [0,9E9,9E9,9E9,9E9,9E9]], vel60, z1, marker\WObj:=WObj0;
    MoveL [[1164.269, -949.955, 232.764], [0.707107, 0, 0.707107, 0], [0,0,0,0], [0,9E9,9E9,9E9,9E9,9E9]], vel60, z1, marker\WObj:=WObj0;
    MoveL [[1127.225, -976.955, 232.764], [0.707107, 0, 0.707107, 0], [0,0,0,0], [0,9E9,9E9,9E9,9E9,9E9]], vel60, z1, marker\WObj:=WObj0;
    MoveL [[1134.652, -949.955, 232.764], [0.707107, 0, 0.707107, 0], [0,0,0,0], [0,9E9,9E9,9E9,9E9,9E9]], vel60, z1, marker\WObj:=WObj0;
    MoveL [[1053.923, -976.955, 232.764], [0.707107, 0, 0.707107, 0], [0,0,0,0], [0,9E9,9E9,9E9,9E9,9E9]], vel60, z1, marker\WObj:=WObj0;
    MoveL [[1111.922, -891.962, 232.764], [0.707107, 0, 0.707107, 0], [0,0,0,0], [0,9E9,9E9,9E9,9E9,9E9]], vel60, z1, marker\WObj:=WObj0;
    MoveL [[1125.718, -871.744, 232.764], [0.707107, 0, 0.707107, 0], [0,0,0,0], [0,9E9,9E9,9E9,9E9,9E9]], vel60, z1, marker\WObj:=WObj0;
    MoveL [[1190.444, -776.892, 232.764], [0.707107, 0, 0.707107, 0], [0,0,0,0], [0,9E9,9E9,9E9,9E9,9E9]], vel60, z1, marker\WObj:=WObj0;
    MoveL [[1255.17, -871.744, 232.764], [0.707107, 0, 0.707107, 0], [0,0,0,0], [0,9E9,9E9,9E9,9E9,9E9]], vel60, z1, marker\WObj:=WObj0;
    MoveL [[1268.967, -891.962, 232.764], [0.707107, 0, 0.707107, 0], [0,0,0,0], [0,9E9,9E9,9E9,9E9,9E9]], vel60, z1, marker\WObj:=WObj0;
    MoveL [[1326.966, -976.955, 232.764], [0.707107, 0, 0.707107, 0], [0,0,0,0], [0,9E9,9E9,9E9,9E9,9E9]], vel60, z1, marker\WObj:=WObj0;
    MoveL [[1210.982, -976.955, 232.764], [0.707107, 0, 0.707107, 0], [0,0,0,0], [0,9E9,9E9,9E9,9E9,9E9]], vel60, z1, marker\WObj:=WObj0;
    MoveL [[1169.907, -976.955, 232.764], [0.707107, 0, 0.707107, 0], [0,0,0,0], [0,9E9,9E9,9E9,9E9,9E9]], vel60, z1, marker\WObj:=WObj0;
    MoveL [[1053.923, -976.955, 232.764], [0.707107, 0, 0.707107, 0], [0,0,0,0], [0,9E9,9E9,9E9,9E9,9E9]], vel60, z1, marker\WObj:=WObj0;
    SetDO DO10_14, 0;
    MoveL [[803.923, -976.955, 732.764], [0.707107, 0, 0.707107, 0], [0,0,0,0], [0,9E9,9E9,9E9,9E9,9E9]], vel60, z1, marker\WObj:=WObj0;

  ENDPROC

ENDMODULE
