MODULE PrinterArm_Program

  ! NOTE: your program is interfacing with the robot's IOs. Make sure to properly configure their names/properties through system preferences in the ABB controller. See Machina's `SetIOName()` for more information.

  CONST speeddata vel20 := [20,20,5000,1000];
  CONST speeddata vel60 := [60,60,5000,1000];

  PERS tooldata marker := [TRUE, [[326,0,168],[1, 0, 0, 0]], [5,[163, 0, 84],[1,0,0,0],0,0,0]];

  PROC main()
    ConfJ \Off;
    ConfL \Off;

    ! Tool "marker" attached
    MoveL [[792.885, -1038.557, 192.764], [0.707107, 0, 0.707107, 0], [0,0,0,0], [0,9E9,9E9,9E9,9E9,9E9]], vel60, z5, marker\WObj:=WObj0;
    SetDO DO10_14, 1;
    MoveL [[792.885, -1038.557, 192.764], [0.707107, 0, 0.707107, 0], [0,0,0,0], [0,9E9,9E9,9E9,9E9,9E9]], vel60, z1, marker\WObj:=WObj0;
    MoveL [[789.044, -1060.628, 192.764], [0.707107, 0, 0.707107, 0], [0,0,0,0], [0,9E9,9E9,9E9,9E9,9E9]], vel60, z1, marker\WObj:=WObj0;
    MoveL [[796.827, -1082.756, 192.764], [0.707107, 0, 0.707107, 0], [0,0,0,0], [0,9E9,9E9,9E9,9E9,9E9]], vel60, z1, marker\WObj:=WObj0;
    MoveL [[788.091, -1102.924, 192.764], [0.707107, 0, 0.707107, 0], [0,0,0,0], [0,9E9,9E9,9E9,9E9,9E9]], vel60, z1, marker\WObj:=WObj0;
    MoveL [[765.661, -1109.477, 192.764], [0.707107, 0, 0.707107, 0], [0,0,0,0], [0,9E9,9E9,9E9,9E9,9E9]], vel60, z1, marker\WObj:=WObj0;
    MoveL [[743.043, -1115.5, 192.764], [0.707107, 0, 0.707107, 0], [0,0,0,0], [0,9E9,9E9,9E9,9E9,9E9]], vel60, z1, marker\WObj:=WObj0;
    MoveL [[735.416, -1129.541, 192.764], [0.707107, 0, 0.707107, 0], [0,0,0,0], [0,9E9,9E9,9E9,9E9,9E9]], vel60, z1, marker\WObj:=WObj0;
    MoveL [[758.802, -1128.031, 192.764], [0.707107, 0, 0.707107, 0], [0,0,0,0], [0,9E9,9E9,9E9,9E9,9E9]], vel60, z1, marker\WObj:=WObj0;
    MoveL [[777.666, -1114.493, 192.764], [0.707107, 0, 0.707107, 0], [0,0,0,0], [0,9E9,9E9,9E9,9E9,9E9]], vel60, z1, marker\WObj:=WObj0;
    MoveL [[795.375, -1099.173, 192.764], [0.707107, 0, 0.707107, 0], [0,0,0,0], [0,9E9,9E9,9E9,9E9,9E9]], vel60, z1, marker\WObj:=WObj0;
    MoveL [[817.779, -1099.173, 192.764], [0.707107, 0, 0.707107, 0], [0,0,0,0], [0,9E9,9E9,9E9,9E9,9E9]], vel60, z1, marker\WObj:=WObj0;
    MoveL [[835.488, -1114.493, 192.764], [0.707107, 0, 0.707107, 0], [0,0,0,0], [0,9E9,9E9,9E9,9E9,9E9]], vel60, z1, marker\WObj:=WObj0;
    MoveL [[854.352, -1128.031, 192.764], [0.707107, 0, 0.707107, 0], [0,0,0,0], [0,9E9,9E9,9E9,9E9,9E9]], vel60, z1, marker\WObj:=WObj0;
    MoveL [[877.738, -1129.541, 192.764], [0.707107, 0, 0.707107, 0], [0,0,0,0], [0,9E9,9E9,9E9,9E9,9E9]], vel60, z1, marker\WObj:=WObj0;
    MoveL [[870.111, -1115.5, 192.764], [0.707107, 0, 0.707107, 0], [0,0,0,0], [0,9E9,9E9,9E9,9E9,9E9]], vel60, z1, marker\WObj:=WObj0;
    MoveL [[847.494, -1109.477, 192.764], [0.707107, 0, 0.707107, 0], [0,0,0,0], [0,9E9,9E9,9E9,9E9,9E9]], vel60, z1, marker\WObj:=WObj0;
    MoveL [[825.063, -1102.924, 192.764], [0.707107, 0, 0.707107, 0], [0,0,0,0], [0,9E9,9E9,9E9,9E9,9E9]], vel60, z1, marker\WObj:=WObj0;
    MoveL [[816.327, -1082.756, 192.764], [0.707107, 0, 0.707107, 0], [0,0,0,0], [0,9E9,9E9,9E9,9E9,9E9]], vel60, z1, marker\WObj:=WObj0;
    MoveL [[824.11, -1060.628, 192.764], [0.707107, 0, 0.707107, 0], [0,0,0,0], [0,9E9,9E9,9E9,9E9,9E9]], vel60, z1, marker\WObj:=WObj0;
    MoveL [[820.269, -1038.556, 192.764], [0.707107, 0, 0.707107, 0], [0,0,0,0], [0,9E9,9E9,9E9,9E9,9E9]], vel60, z1, marker\WObj:=WObj0;
    MoveL [[803.557, -1009.397, 192.764], [0.707107, 0, 0.707107, 0], [0,0,0,0], [0,9E9,9E9,9E9,9E9,9E9]], vel60, z1, marker\WObj:=WObj0;
    MoveL [[800.944, -1011.123, 192.764], [0.707107, 0, 0.707107, 0], [0,0,0,0], [0,9E9,9E9,9E9,9E9,9E9]], vel60, z1, marker\WObj:=WObj0;
    MoveL [[798.667, -1013.281, 192.764], [0.707107, 0, 0.707107, 0], [0,0,0,0], [0,9E9,9E9,9E9,9E9,9E9]], vel60, z1, marker\WObj:=WObj0;
    MoveL [[796.607, -1015.65, 192.764], [0.707107, 0, 0.707107, 0], [0,0,0,0], [0,9E9,9E9,9E9,9E9,9E9]], vel60, z1, marker\WObj:=WObj0;
    MoveL [[794.686, -1018.132, 192.764], [0.707107, 0, 0.707107, 0], [0,0,0,0], [0,9E9,9E9,9E9,9E9,9E9]], vel60, z1, marker\WObj:=WObj0;
    MoveL [[792.849, -1020.678, 192.764], [0.707107, 0, 0.707107, 0], [0,0,0,0], [0,9E9,9E9,9E9,9E9,9E9]], vel60, z1, marker\WObj:=WObj0;
    MoveL [[791.061, -1023.259, 192.764], [0.707107, 0, 0.707107, 0], [0,0,0,0], [0,9E9,9E9,9E9,9E9,9E9]], vel60, z1, marker\WObj:=WObj0;
    MoveL [[789.29, -1025.851, 192.764], [0.707107, 0, 0.707107, 0], [0,0,0,0], [0,9E9,9E9,9E9,9E9,9E9]], vel60, z1, marker\WObj:=WObj0;
    MoveL [[787.529, -1028.45, 192.764], [0.707107, 0, 0.707107, 0], [0,0,0,0], [0,9E9,9E9,9E9,9E9,9E9]], vel60, z1, marker\WObj:=WObj0;
    MoveL [[785.797, -1031.069, 192.764], [0.707107, 0, 0.707107, 0], [0,0,0,0], [0,9E9,9E9,9E9,9E9,9E9]], vel60, z1, marker\WObj:=WObj0;
    MoveL [[784.118, -1033.721, 192.764], [0.707107, 0, 0.707107, 0], [0,0,0,0], [0,9E9,9E9,9E9,9E9,9E9]], vel60, z1, marker\WObj:=WObj0;
    MoveL [[782.519, -1036.423, 192.764], [0.707107, 0, 0.707107, 0], [0,0,0,0], [0,9E9,9E9,9E9,9E9,9E9]], vel60, z1, marker\WObj:=WObj0;
    MoveL [[781.036, -1039.19, 192.764], [0.707107, 0, 0.707107, 0], [0,0,0,0], [0,9E9,9E9,9E9,9E9,9E9]], vel60, z1, marker\WObj:=WObj0;
    MoveL [[779.716, -1042.037, 192.764], [0.707107, 0, 0.707107, 0], [0,0,0,0], [0,9E9,9E9,9E9,9E9,9E9]], vel60, z1, marker\WObj:=WObj0;
    MoveL [[778.619, -1044.977, 192.764], [0.707107, 0, 0.707107, 0], [0,0,0,0], [0,9E9,9E9,9E9,9E9,9E9]], vel60, z1, marker\WObj:=WObj0;
    MoveL [[777.827, -1048.014, 192.764], [0.707107, 0, 0.707107, 0], [0,0,0,0], [0,9E9,9E9,9E9,9E9,9E9]], vel60, z1, marker\WObj:=WObj0;
    MoveL [[777.433, -1051.126, 192.764], [0.707107, 0, 0.707107, 0], [0,0,0,0], [0,9E9,9E9,9E9,9E9,9E9]], vel60, z1, marker\WObj:=WObj0;
    MoveL [[777.459, -1054.263, 192.764], [0.707107, 0, 0.707107, 0], [0,0,0,0], [0,9E9,9E9,9E9,9E9,9E9]], vel60, z1, marker\WObj:=WObj0;
    MoveL [[777.85, -1057.376, 192.764], [0.707107, 0, 0.707107, 0], [0,0,0,0], [0,9E9,9E9,9E9,9E9,9E9]], vel60, z1, marker\WObj:=WObj0;
    MoveL [[778.535, -1060.439, 192.764], [0.707107, 0, 0.707107, 0], [0,0,0,0], [0,9E9,9E9,9E9,9E9,9E9]], vel60, z1, marker\WObj:=WObj0;
    MoveL [[779.441, -1063.445, 192.764], [0.707107, 0, 0.707107, 0], [0,0,0,0], [0,9E9,9E9,9E9,9E9,9E9]], vel60, z1, marker\WObj:=WObj0;
    MoveL [[780.5, -1066.4, 192.764], [0.707107, 0, 0.707107, 0], [0,0,0,0], [0,9E9,9E9,9E9,9E9,9E9]], vel60, z1, marker\WObj:=WObj0;
    MoveL [[781.655, -1069.319, 192.764], [0.707107, 0, 0.707107, 0], [0,0,0,0], [0,9E9,9E9,9E9,9E9,9E9]], vel60, z1, marker\WObj:=WObj0;
    MoveL [[782.854, -1072.22, 192.764], [0.707107, 0, 0.707107, 0], [0,0,0,0], [0,9E9,9E9,9E9,9E9,9E9]], vel60, z1, marker\WObj:=WObj0;
    MoveL [[784.047, -1075.124, 192.764], [0.707107, 0, 0.707107, 0], [0,0,0,0], [0,9E9,9E9,9E9,9E9,9E9]], vel60, z1, marker\WObj:=WObj0;
    MoveL [[785.177, -1078.053, 192.764], [0.707107, 0, 0.707107, 0], [0,0,0,0], [0,9E9,9E9,9E9,9E9,9E9]], vel60, z1, marker\WObj:=WObj0;
    MoveL [[786.169, -1081.031, 192.764], [0.707107, 0, 0.707107, 0], [0,0,0,0], [0,9E9,9E9,9E9,9E9,9E9]], vel60, z1, marker\WObj:=WObj0;
    MoveL [[786.908, -1084.081, 192.764], [0.707107, 0, 0.707107, 0], [0,0,0,0], [0,9E9,9E9,9E9,9E9,9E9]], vel60, z1, marker\WObj:=WObj0;
    MoveL [[787.184, -1087.203, 192.764], [0.707107, 0, 0.707107, 0], [0,0,0,0], [0,9E9,9E9,9E9,9E9,9E9]], vel60, z1, marker\WObj:=WObj0;
    MoveL [[786.623, -1090.276, 192.764], [0.707107, 0, 0.707107, 0], [0,0,0,0], [0,9E9,9E9,9E9,9E9,9E9]], vel60, z1, marker\WObj:=WObj0;
    MoveL [[784.889, -1092.863, 192.764], [0.707107, 0, 0.707107, 0], [0,0,0,0], [0,9E9,9E9,9E9,9E9,9E9]], vel60, z1, marker\WObj:=WObj0;
    MoveL [[782.352, -1094.696, 192.764], [0.707107, 0, 0.707107, 0], [0,0,0,0], [0,9E9,9E9,9E9,9E9,9E9]], vel60, z1, marker\WObj:=WObj0;
    MoveL [[779.499, -1096, 192.764], [0.707107, 0, 0.707107, 0], [0,0,0,0], [0,9E9,9E9,9E9,9E9,9E9]], vel60, z1, marker\WObj:=WObj0;
    MoveL [[776.518, -1096.983, 192.764], [0.707107, 0, 0.707107, 0], [0,0,0,0], [0,9E9,9E9,9E9,9E9,9E9]], vel60, z1, marker\WObj:=WObj0;
    MoveL [[773.479, -1097.769, 192.764], [0.707107, 0, 0.707107, 0], [0,0,0,0], [0,9E9,9E9,9E9,9E9,9E9]], vel60, z1, marker\WObj:=WObj0;
    MoveL [[770.411, -1098.432, 192.764], [0.707107, 0, 0.707107, 0], [0,0,0,0], [0,9E9,9E9,9E9,9E9,9E9]], vel60, z1, marker\WObj:=WObj0;
    MoveL [[767.327, -1099.021, 192.764], [0.707107, 0, 0.707107, 0], [0,0,0,0], [0,9E9,9E9,9E9,9E9,9E9]], vel60, z1, marker\WObj:=WObj0;
    MoveL [[764.237, -1099.574, 192.764], [0.707107, 0, 0.707107, 0], [0,0,0,0], [0,9E9,9E9,9E9,9E9,9E9]], vel60, z1, marker\WObj:=WObj0;
    MoveL [[761.145, -1100.122, 192.764], [0.707107, 0, 0.707107, 0], [0,0,0,0], [0,9E9,9E9,9E9,9E9,9E9]], vel60, z1, marker\WObj:=WObj0;
    MoveL [[758.057, -1100.687, 192.764], [0.707107, 0, 0.707107, 0], [0,0,0,0], [0,9E9,9E9,9E9,9E9,9E9]], vel60, z1, marker\WObj:=WObj0;
    MoveL [[754.976, -1101.289, 192.764], [0.707107, 0, 0.707107, 0], [0,0,0,0], [0,9E9,9E9,9E9,9E9,9E9]], vel60, z1, marker\WObj:=WObj0;
    MoveL [[751.908, -1101.952, 192.764], [0.707107, 0, 0.707107, 0], [0,0,0,0], [0,9E9,9E9,9E9,9E9,9E9]], vel60, z1, marker\WObj:=WObj0;
    MoveL [[748.859, -1102.702, 192.764], [0.707107, 0, 0.707107, 0], [0,0,0,0], [0,9E9,9E9,9E9,9E9,9E9]], vel60, z1, marker\WObj:=WObj0;
    MoveL [[745.842, -1103.57, 192.764], [0.707107, 0, 0.707107, 0], [0,0,0,0], [0,9E9,9E9,9E9,9E9,9E9]], vel60, z1, marker\WObj:=WObj0;
    MoveL [[742.875, -1104.595, 192.764], [0.707107, 0, 0.707107, 0], [0,0,0,0], [0,9E9,9E9,9E9,9E9,9E9]], vel60, z1, marker\WObj:=WObj0;
    MoveL [[739.988, -1105.826, 192.764], [0.707107, 0, 0.707107, 0], [0,0,0,0], [0,9E9,9E9,9E9,9E9,9E9]], vel60, z1, marker\WObj:=WObj0;
    MoveL [[737.23, -1107.321, 192.764], [0.707107, 0, 0.707107, 0], [0,0,0,0], [0,9E9,9E9,9E9,9E9,9E9]], vel60, z1, marker\WObj:=WObj0;
    MoveL [[734.652, -1109.11, 192.764], [0.707107, 0, 0.707107, 0], [0,0,0,0], [0,9E9,9E9,9E9,9E9,9E9]], vel60, z1, marker\WObj:=WObj0;
    MoveL [[732.275, -1111.159, 192.764], [0.707107, 0, 0.707107, 0], [0,0,0,0], [0,9E9,9E9,9E9,9E9,9E9]], vel60, z1, marker\WObj:=WObj0;
    MoveL [[730.096, -1113.418, 192.764], [0.707107, 0, 0.707107, 0], [0,0,0,0], [0,9E9,9E9,9E9,9E9,9E9]], vel60, z1, marker\WObj:=WObj0;
    MoveL [[728.089, -1115.832, 192.764], [0.707107, 0, 0.707107, 0], [0,0,0,0], [0,9E9,9E9,9E9,9E9,9E9]], vel60, z1, marker\WObj:=WObj0;
    MoveL [[726.212, -1118.348, 192.764], [0.707107, 0, 0.707107, 0], [0,0,0,0], [0,9E9,9E9,9E9,9E9,9E9]], vel60, z1, marker\WObj:=WObj0;
    MoveL [[724.415, -1120.922, 192.764], [0.707107, 0, 0.707107, 0], [0,0,0,0], [0,9E9,9E9,9E9,9E9,9E9]], vel60, z1, marker\WObj:=WObj0;
    MoveL [[722.646, -1123.516, 192.764], [0.707107, 0, 0.707107, 0], [0,0,0,0], [0,9E9,9E9,9E9,9E9,9E9]], vel60, z1, marker\WObj:=WObj0;
    MoveL [[720.915, -1126.135, 192.764], [0.707107, 0, 0.707107, 0], [0,0,0,0], [0,9E9,9E9,9E9,9E9,9E9]], vel60, z1, marker\WObj:=WObj0;
    MoveL [[719.305, -1128.829, 192.764], [0.707107, 0, 0.707107, 0], [0,0,0,0], [0,9E9,9E9,9E9,9E9,9E9]], vel60, z1, marker\WObj:=WObj0;
    MoveL [[717.984, -1131.674, 192.764], [0.707107, 0, 0.707107, 0], [0,0,0,0], [0,9E9,9E9,9E9,9E9,9E9]], vel60, z1, marker\WObj:=WObj0;
    MoveL [[717.478, -1134.746, 192.764], [0.707107, 0, 0.707107, 0], [0,0,0,0], [0,9E9,9E9,9E9,9E9,9E9]], vel60, z1, marker\WObj:=WObj0;
    MoveL [[719.091, -1137.309, 192.764], [0.707107, 0, 0.707107, 0], [0,0,0,0], [0,9E9,9E9,9E9,9E9,9E9]], vel60, z1, marker\WObj:=WObj0;
    MoveL [[721.987, -1138.483, 192.764], [0.707107, 0, 0.707107, 0], [0,0,0,0], [0,9E9,9E9,9E9,9E9,9E9]], vel60, z1, marker\WObj:=WObj0;
    MoveL [[725.074, -1139.043, 192.764], [0.707107, 0, 0.707107, 0], [0,0,0,0], [0,9E9,9E9,9E9,9E9,9E9]], vel60, z1, marker\WObj:=WObj0;
    MoveL [[728.2, -1139.331, 192.764], [0.707107, 0, 0.707107, 0], [0,0,0,0], [0,9E9,9E9,9E9,9E9,9E9]], vel60, z1, marker\WObj:=WObj0;
    MoveL [[731.336, -1139.474, 192.764], [0.707107, 0, 0.707107, 0], [0,0,0,0], [0,9E9,9E9,9E9,9E9,9E9]], vel60, z1, marker\WObj:=WObj0;
    MoveL [[734.475, -1139.533, 192.764], [0.707107, 0, 0.707107, 0], [0,0,0,0], [0,9E9,9E9,9E9,9E9,9E9]], vel60, z1, marker\WObj:=WObj0;
    MoveL [[737.614, -1139.549, 192.764], [0.707107, 0, 0.707107, 0], [0,0,0,0], [0,9E9,9E9,9E9,9E9,9E9]], vel60, z1, marker\WObj:=WObj0;
    MoveL [[740.754, -1139.549, 192.764], [0.707107, 0, 0.707107, 0], [0,0,0,0], [0,9E9,9E9,9E9,9E9,9E9]], vel60, z1, marker\WObj:=WObj0;
    MoveL [[743.893, -1139.535, 192.764], [0.707107, 0, 0.707107, 0], [0,0,0,0], [0,9E9,9E9,9E9,9E9,9E9]], vel60, z1, marker\WObj:=WObj0;
    MoveL [[747.032, -1139.478, 192.764], [0.707107, 0, 0.707107, 0], [0,0,0,0], [0,9E9,9E9,9E9,9E9,9E9]], vel60, z1, marker\WObj:=WObj0;
    MoveL [[750.169, -1139.347, 192.764], [0.707107, 0, 0.707107, 0], [0,0,0,0], [0,9E9,9E9,9E9,9E9,9E9]], vel60, z1, marker\WObj:=WObj0;
    MoveL [[753.299, -1139.107, 192.764], [0.707107, 0, 0.707107, 0], [0,0,0,0], [0,9E9,9E9,9E9,9E9,9E9]], vel60, z1, marker\WObj:=WObj0;
    MoveL [[756.414, -1138.723, 192.764], [0.707107, 0, 0.707107, 0], [0,0,0,0], [0,9E9,9E9,9E9,9E9,9E9]], vel60, z1, marker\WObj:=WObj0;
    MoveL [[759.501, -1138.154, 192.764], [0.707107, 0, 0.707107, 0], [0,0,0,0], [0,9E9,9E9,9E9,9E9,9E9]], vel60, z1, marker\WObj:=WObj0;
    MoveL [[762.537, -1137.359, 192.764], [0.707107, 0, 0.707107, 0], [0,0,0,0], [0,9E9,9E9,9E9,9E9,9E9]], vel60, z1, marker\WObj:=WObj0;
    MoveL [[765.492, -1136.302, 192.764], [0.707107, 0, 0.707107, 0], [0,0,0,0], [0,9E9,9E9,9E9,9E9,9E9]], vel60, z1, marker\WObj:=WObj0;
    MoveL [[768.329, -1134.961, 192.764], [0.707107, 0, 0.707107, 0], [0,0,0,0], [0,9E9,9E9,9E9,9E9,9E9]], vel60, z1, marker\WObj:=WObj0;
    MoveL [[771.037, -1133.373, 192.764], [0.707107, 0, 0.707107, 0], [0,0,0,0], [0,9E9,9E9,9E9,9E9,9E9]], vel60, z1, marker\WObj:=WObj0;
    MoveL [[773.619, -1131.589, 192.764], [0.707107, 0, 0.707107, 0], [0,0,0,0], [0,9E9,9E9,9E9,9E9,9E9]], vel60, z1, marker\WObj:=WObj0;
    MoveL [[776.09, -1129.653, 192.764], [0.707107, 0, 0.707107, 0], [0,0,0,0], [0,9E9,9E9,9E9,9E9,9E9]], vel60, z1, marker\WObj:=WObj0;
    MoveL [[778.467, -1127.603, 192.764], [0.707107, 0, 0.707107, 0], [0,0,0,0], [0,9E9,9E9,9E9,9E9,9E9]], vel60, z1, marker\WObj:=WObj0;
    MoveL [[780.771, -1125.47, 192.764], [0.707107, 0, 0.707107, 0], [0,0,0,0], [0,9E9,9E9,9E9,9E9,9E9]], vel60, z1, marker\WObj:=WObj0;
    MoveL [[783.022, -1123.281, 192.764], [0.707107, 0, 0.707107, 0], [0,0,0,0], [0,9E9,9E9,9E9,9E9,9E9]], vel60, z1, marker\WObj:=WObj0;
    MoveL [[785.238, -1121.058, 192.764], [0.707107, 0, 0.707107, 0], [0,0,0,0], [0,9E9,9E9,9E9,9E9,9E9]], vel60, z1, marker\WObj:=WObj0;
    MoveL [[787.441, -1118.821, 192.764], [0.707107, 0, 0.707107, 0], [0,0,0,0], [0,9E9,9E9,9E9,9E9,9E9]], vel60, z1, marker\WObj:=WObj0;
    MoveL [[789.653, -1116.593, 192.764], [0.707107, 0, 0.707107, 0], [0,0,0,0], [0,9E9,9E9,9E9,9E9,9E9]], vel60, z1, marker\WObj:=WObj0;
    MoveL [[791.901, -1114.402, 192.764], [0.707107, 0, 0.707107, 0], [0,0,0,0], [0,9E9,9E9,9E9,9E9,9E9]], vel60, z1, marker\WObj:=WObj0;
    MoveL [[794.218, -1112.284, 192.764], [0.707107, 0, 0.707107, 0], [0,0,0,0], [0,9E9,9E9,9E9,9E9,9E9]], vel60, z1, marker\WObj:=WObj0;
    MoveL [[796.643, -1110.291, 192.764], [0.707107, 0, 0.707107, 0], [0,0,0,0], [0,9E9,9E9,9E9,9E9,9E9]], vel60, z1, marker\WObj:=WObj0;
    MoveL [[799.222, -1108.502, 192.764], [0.707107, 0, 0.707107, 0], [0,0,0,0], [0,9E9,9E9,9E9,9E9,9E9]], vel60, z1, marker\WObj:=WObj0;
    MoveL [[802.005, -1107.057, 192.764], [0.707107, 0, 0.707107, 0], [0,0,0,0], [0,9E9,9E9,9E9,9E9,9E9]], vel60, z1, marker\WObj:=WObj0;
    MoveL [[805.014, -1106.187, 192.764], [0.707107, 0, 0.707107, 0], [0,0,0,0], [0,9E9,9E9,9E9,9E9,9E9]], vel60, z1, marker\WObj:=WObj0;
    MoveL [[808.14, -1106.187, 192.764], [0.707107, 0, 0.707107, 0], [0,0,0,0], [0,9E9,9E9,9E9,9E9,9E9]], vel60, z1, marker\WObj:=WObj0;
    MoveL [[811.149, -1107.057, 192.764], [0.707107, 0, 0.707107, 0], [0,0,0,0], [0,9E9,9E9,9E9,9E9,9E9]], vel60, z1, marker\WObj:=WObj0;
    MoveL [[813.932, -1108.502, 192.764], [0.707107, 0, 0.707107, 0], [0,0,0,0], [0,9E9,9E9,9E9,9E9,9E9]], vel60, z1, marker\WObj:=WObj0;
    MoveL [[816.511, -1110.291, 192.764], [0.707107, 0, 0.707107, 0], [0,0,0,0], [0,9E9,9E9,9E9,9E9,9E9]], vel60, z1, marker\WObj:=WObj0;
    MoveL [[818.936, -1112.284, 192.764], [0.707107, 0, 0.707107, 0], [0,0,0,0], [0,9E9,9E9,9E9,9E9,9E9]], vel60, z1, marker\WObj:=WObj0;
    MoveL [[821.253, -1114.402, 192.764], [0.707107, 0, 0.707107, 0], [0,0,0,0], [0,9E9,9E9,9E9,9E9,9E9]], vel60, z1, marker\WObj:=WObj0;
    MoveL [[823.501, -1116.593, 192.764], [0.707107, 0, 0.707107, 0], [0,0,0,0], [0,9E9,9E9,9E9,9E9,9E9]], vel60, z1, marker\WObj:=WObj0;
    MoveL [[825.713, -1118.821, 192.764], [0.707107, 0, 0.707107, 0], [0,0,0,0], [0,9E9,9E9,9E9,9E9,9E9]], vel60, z1, marker\WObj:=WObj0;
    MoveL [[827.916, -1121.058, 192.764], [0.707107, 0, 0.707107, 0], [0,0,0,0], [0,9E9,9E9,9E9,9E9,9E9]], vel60, z1, marker\WObj:=WObj0;
    MoveL [[830.132, -1123.281, 192.764], [0.707107, 0, 0.707107, 0], [0,0,0,0], [0,9E9,9E9,9E9,9E9,9E9]], vel60, z1, marker\WObj:=WObj0;
    MoveL [[832.383, -1125.47, 192.764], [0.707107, 0, 0.707107, 0], [0,0,0,0], [0,9E9,9E9,9E9,9E9,9E9]], vel60, z1, marker\WObj:=WObj0;
    MoveL [[834.687, -1127.603, 192.764], [0.707107, 0, 0.707107, 0], [0,0,0,0], [0,9E9,9E9,9E9,9E9,9E9]], vel60, z1, marker\WObj:=WObj0;
    MoveL [[837.064, -1129.653, 192.764], [0.707107, 0, 0.707107, 0], [0,0,0,0], [0,9E9,9E9,9E9,9E9,9E9]], vel60, z1, marker\WObj:=WObj0;
    MoveL [[839.535, -1131.589, 192.764], [0.707107, 0, 0.707107, 0], [0,0,0,0], [0,9E9,9E9,9E9,9E9,9E9]], vel60, z1, marker\WObj:=WObj0;
    MoveL [[842.117, -1133.373, 192.764], [0.707107, 0, 0.707107, 0], [0,0,0,0], [0,9E9,9E9,9E9,9E9,9E9]], vel60, z1, marker\WObj:=WObj0;
    MoveL [[844.825, -1134.961, 192.764], [0.707107, 0, 0.707107, 0], [0,0,0,0], [0,9E9,9E9,9E9,9E9,9E9]], vel60, z1, marker\WObj:=WObj0;
    MoveL [[847.662, -1136.302, 192.764], [0.707107, 0, 0.707107, 0], [0,0,0,0], [0,9E9,9E9,9E9,9E9,9E9]], vel60, z1, marker\WObj:=WObj0;
    MoveL [[850.617, -1137.359, 192.764], [0.707107, 0, 0.707107, 0], [0,0,0,0], [0,9E9,9E9,9E9,9E9,9E9]], vel60, z1, marker\WObj:=WObj0;
    MoveL [[853.653, -1138.154, 192.764], [0.707107, 0, 0.707107, 0], [0,0,0,0], [0,9E9,9E9,9E9,9E9,9E9]], vel60, z1, marker\WObj:=WObj0;
    MoveL [[856.74, -1138.723, 192.764], [0.707107, 0, 0.707107, 0], [0,0,0,0], [0,9E9,9E9,9E9,9E9,9E9]], vel60, z1, marker\WObj:=WObj0;
    MoveL [[859.855, -1139.107, 192.764], [0.707107, 0, 0.707107, 0], [0,0,0,0], [0,9E9,9E9,9E9,9E9,9E9]], vel60, z1, marker\WObj:=WObj0;
    MoveL [[862.985, -1139.347, 192.764], [0.707107, 0, 0.707107, 0], [0,0,0,0], [0,9E9,9E9,9E9,9E9,9E9]], vel60, z1, marker\WObj:=WObj0;
    MoveL [[866.122, -1139.478, 192.764], [0.707107, 0, 0.707107, 0], [0,0,0,0], [0,9E9,9E9,9E9,9E9,9E9]], vel60, z1, marker\WObj:=WObj0;
    MoveL [[869.261, -1139.535, 192.764], [0.707107, 0, 0.707107, 0], [0,0,0,0], [0,9E9,9E9,9E9,9E9,9E9]], vel60, z1, marker\WObj:=WObj0;
    MoveL [[872.4, -1139.549, 192.764], [0.707107, 0, 0.707107, 0], [0,0,0,0], [0,9E9,9E9,9E9,9E9,9E9]], vel60, z1, marker\WObj:=WObj0;
    MoveL [[875.54, -1139.549, 192.764], [0.707107, 0, 0.707107, 0], [0,0,0,0], [0,9E9,9E9,9E9,9E9,9E9]], vel60, z1, marker\WObj:=WObj0;
    MoveL [[878.679, -1139.533, 192.764], [0.707107, 0, 0.707107, 0], [0,0,0,0], [0,9E9,9E9,9E9,9E9,9E9]], vel60, z1, marker\WObj:=WObj0;
    MoveL [[881.818, -1139.474, 192.764], [0.707107, 0, 0.707107, 0], [0,0,0,0], [0,9E9,9E9,9E9,9E9,9E9]], vel60, z1, marker\WObj:=WObj0;
    MoveL [[884.954, -1139.331, 192.764], [0.707107, 0, 0.707107, 0], [0,0,0,0], [0,9E9,9E9,9E9,9E9,9E9]], vel60, z1, marker\WObj:=WObj0;
    MoveL [[888.08, -1139.043, 192.764], [0.707107, 0, 0.707107, 0], [0,0,0,0], [0,9E9,9E9,9E9,9E9,9E9]], vel60, z1, marker\WObj:=WObj0;
    MoveL [[891.167, -1138.483, 192.764], [0.707107, 0, 0.707107, 0], [0,0,0,0], [0,9E9,9E9,9E9,9E9,9E9]], vel60, z1, marker\WObj:=WObj0;
    MoveL [[894.063, -1137.309, 192.764], [0.707107, 0, 0.707107, 0], [0,0,0,0], [0,9E9,9E9,9E9,9E9,9E9]], vel60, z1, marker\WObj:=WObj0;
    MoveL [[895.676, -1134.746, 192.764], [0.707107, 0, 0.707107, 0], [0,0,0,0], [0,9E9,9E9,9E9,9E9,9E9]], vel60, z1, marker\WObj:=WObj0;
    MoveL [[895.17, -1131.674, 192.764], [0.707107, 0, 0.707107, 0], [0,0,0,0], [0,9E9,9E9,9E9,9E9,9E9]], vel60, z1, marker\WObj:=WObj0;
    MoveL [[893.849, -1128.829, 192.764], [0.707107, 0, 0.707107, 0], [0,0,0,0], [0,9E9,9E9,9E9,9E9,9E9]], vel60, z1, marker\WObj:=WObj0;
    MoveL [[892.239, -1126.135, 192.764], [0.707107, 0, 0.707107, 0], [0,0,0,0], [0,9E9,9E9,9E9,9E9,9E9]], vel60, z1, marker\WObj:=WObj0;
    MoveL [[890.508, -1123.516, 192.764], [0.707107, 0, 0.707107, 0], [0,0,0,0], [0,9E9,9E9,9E9,9E9,9E9]], vel60, z1, marker\WObj:=WObj0;
    MoveL [[888.739, -1120.922, 192.764], [0.707107, 0, 0.707107, 0], [0,0,0,0], [0,9E9,9E9,9E9,9E9,9E9]], vel60, z1, marker\WObj:=WObj0;
    MoveL [[886.942, -1118.348, 192.764], [0.707107, 0, 0.707107, 0], [0,0,0,0], [0,9E9,9E9,9E9,9E9,9E9]], vel60, z1, marker\WObj:=WObj0;
    MoveL [[885.065, -1115.832, 192.764], [0.707107, 0, 0.707107, 0], [0,0,0,0], [0,9E9,9E9,9E9,9E9,9E9]], vel60, z1, marker\WObj:=WObj0;
    MoveL [[883.058, -1113.418, 192.764], [0.707107, 0, 0.707107, 0], [0,0,0,0], [0,9E9,9E9,9E9,9E9,9E9]], vel60, z1, marker\WObj:=WObj0;
    MoveL [[880.879, -1111.159, 192.764], [0.707107, 0, 0.707107, 0], [0,0,0,0], [0,9E9,9E9,9E9,9E9,9E9]], vel60, z1, marker\WObj:=WObj0;
    MoveL [[878.502, -1109.11, 192.764], [0.707107, 0, 0.707107, 0], [0,0,0,0], [0,9E9,9E9,9E9,9E9,9E9]], vel60, z1, marker\WObj:=WObj0;
    MoveL [[875.924, -1107.321, 192.764], [0.707107, 0, 0.707107, 0], [0,0,0,0], [0,9E9,9E9,9E9,9E9,9E9]], vel60, z1, marker\WObj:=WObj0;
    MoveL [[873.166, -1105.826, 192.764], [0.707107, 0, 0.707107, 0], [0,0,0,0], [0,9E9,9E9,9E9,9E9,9E9]], vel60, z1, marker\WObj:=WObj0;
    MoveL [[870.279, -1104.595, 192.764], [0.707107, 0, 0.707107, 0], [0,0,0,0], [0,9E9,9E9,9E9,9E9,9E9]], vel60, z1, marker\WObj:=WObj0;
    MoveL [[867.312, -1103.57, 192.764], [0.707107, 0, 0.707107, 0], [0,0,0,0], [0,9E9,9E9,9E9,9E9,9E9]], vel60, z1, marker\WObj:=WObj0;
    MoveL [[864.295, -1102.702, 192.764], [0.707107, 0, 0.707107, 0], [0,0,0,0], [0,9E9,9E9,9E9,9E9,9E9]], vel60, z1, marker\WObj:=WObj0;
    MoveL [[861.246, -1101.952, 192.764], [0.707107, 0, 0.707107, 0], [0,0,0,0], [0,9E9,9E9,9E9,9E9,9E9]], vel60, z1, marker\WObj:=WObj0;
    MoveL [[858.178, -1101.289, 192.764], [0.707107, 0, 0.707107, 0], [0,0,0,0], [0,9E9,9E9,9E9,9E9,9E9]], vel60, z1, marker\WObj:=WObj0;
    MoveL [[855.097, -1100.687, 192.764], [0.707107, 0, 0.707107, 0], [0,0,0,0], [0,9E9,9E9,9E9,9E9,9E9]], vel60, z1, marker\WObj:=WObj0;
    MoveL [[852.009, -1100.122, 192.764], [0.707107, 0, 0.707107, 0], [0,0,0,0], [0,9E9,9E9,9E9,9E9,9E9]], vel60, z1, marker\WObj:=WObj0;
    MoveL [[848.917, -1099.574, 192.764], [0.707107, 0, 0.707107, 0], [0,0,0,0], [0,9E9,9E9,9E9,9E9,9E9]], vel60, z1, marker\WObj:=WObj0;
    MoveL [[845.827, -1099.021, 192.764], [0.707107, 0, 0.707107, 0], [0,0,0,0], [0,9E9,9E9,9E9,9E9,9E9]], vel60, z1, marker\WObj:=WObj0;
    MoveL [[842.743, -1098.432, 192.764], [0.707107, 0, 0.707107, 0], [0,0,0,0], [0,9E9,9E9,9E9,9E9,9E9]], vel60, z1, marker\WObj:=WObj0;
    MoveL [[839.675, -1097.769, 192.764], [0.707107, 0, 0.707107, 0], [0,0,0,0], [0,9E9,9E9,9E9,9E9,9E9]], vel60, z1, marker\WObj:=WObj0;
    MoveL [[836.636, -1096.983, 192.764], [0.707107, 0, 0.707107, 0], [0,0,0,0], [0,9E9,9E9,9E9,9E9,9E9]], vel60, z1, marker\WObj:=WObj0;
    MoveL [[833.655, -1096, 192.764], [0.707107, 0, 0.707107, 0], [0,0,0,0], [0,9E9,9E9,9E9,9E9,9E9]], vel60, z1, marker\WObj:=WObj0;
    MoveL [[830.802, -1094.696, 192.764], [0.707107, 0, 0.707107, 0], [0,0,0,0], [0,9E9,9E9,9E9,9E9,9E9]], vel60, z1, marker\WObj:=WObj0;
    MoveL [[828.265, -1092.863, 192.764], [0.707107, 0, 0.707107, 0], [0,0,0,0], [0,9E9,9E9,9E9,9E9,9E9]], vel60, z1, marker\WObj:=WObj0;
    MoveL [[826.531, -1090.276, 192.764], [0.707107, 0, 0.707107, 0], [0,0,0,0], [0,9E9,9E9,9E9,9E9,9E9]], vel60, z1, marker\WObj:=WObj0;
    MoveL [[825.97, -1087.203, 192.764], [0.707107, 0, 0.707107, 0], [0,0,0,0], [0,9E9,9E9,9E9,9E9,9E9]], vel60, z1, marker\WObj:=WObj0;
    MoveL [[826.246, -1084.081, 192.764], [0.707107, 0, 0.707107, 0], [0,0,0,0], [0,9E9,9E9,9E9,9E9,9E9]], vel60, z1, marker\WObj:=WObj0;
    MoveL [[826.985, -1081.031, 192.764], [0.707107, 0, 0.707107, 0], [0,0,0,0], [0,9E9,9E9,9E9,9E9,9E9]], vel60, z1, marker\WObj:=WObj0;
    MoveL [[827.977, -1078.053, 192.764], [0.707107, 0, 0.707107, 0], [0,0,0,0], [0,9E9,9E9,9E9,9E9,9E9]], vel60, z1, marker\WObj:=WObj0;
    MoveL [[829.107, -1075.124, 192.764], [0.707107, 0, 0.707107, 0], [0,0,0,0], [0,9E9,9E9,9E9,9E9,9E9]], vel60, z1, marker\WObj:=WObj0;
    MoveL [[830.3, -1072.22, 192.764], [0.707107, 0, 0.707107, 0], [0,0,0,0], [0,9E9,9E9,9E9,9E9,9E9]], vel60, z1, marker\WObj:=WObj0;
    MoveL [[831.499, -1069.319, 192.764], [0.707107, 0, 0.707107, 0], [0,0,0,0], [0,9E9,9E9,9E9,9E9,9E9]], vel60, z1, marker\WObj:=WObj0;
    MoveL [[832.654, -1066.4, 192.764], [0.707107, 0, 0.707107, 0], [0,0,0,0], [0,9E9,9E9,9E9,9E9,9E9]], vel60, z1, marker\WObj:=WObj0;
    MoveL [[833.713, -1063.445, 192.764], [0.707107, 0, 0.707107, 0], [0,0,0,0], [0,9E9,9E9,9E9,9E9,9E9]], vel60, z1, marker\WObj:=WObj0;
    MoveL [[834.619, -1060.439, 192.764], [0.707107, 0, 0.707107, 0], [0,0,0,0], [0,9E9,9E9,9E9,9E9,9E9]], vel60, z1, marker\WObj:=WObj0;
    MoveL [[835.304, -1057.376, 192.764], [0.707107, 0, 0.707107, 0], [0,0,0,0], [0,9E9,9E9,9E9,9E9,9E9]], vel60, z1, marker\WObj:=WObj0;
    MoveL [[835.695, -1054.263, 192.764], [0.707107, 0, 0.707107, 0], [0,0,0,0], [0,9E9,9E9,9E9,9E9,9E9]], vel60, z1, marker\WObj:=WObj0;
    MoveL [[835.721, -1051.126, 192.764], [0.707107, 0, 0.707107, 0], [0,0,0,0], [0,9E9,9E9,9E9,9E9,9E9]], vel60, z1, marker\WObj:=WObj0;
    MoveL [[835.327, -1048.014, 192.764], [0.707107, 0, 0.707107, 0], [0,0,0,0], [0,9E9,9E9,9E9,9E9,9E9]], vel60, z1, marker\WObj:=WObj0;
    MoveL [[834.535, -1044.977, 192.764], [0.707107, 0, 0.707107, 0], [0,0,0,0], [0,9E9,9E9,9E9,9E9,9E9]], vel60, z1, marker\WObj:=WObj0;
    MoveL [[833.438, -1042.037, 192.764], [0.707107, 0, 0.707107, 0], [0,0,0,0], [0,9E9,9E9,9E9,9E9,9E9]], vel60, z1, marker\WObj:=WObj0;
    MoveL [[832.118, -1039.19, 192.764], [0.707107, 0, 0.707107, 0], [0,0,0,0], [0,9E9,9E9,9E9,9E9,9E9]], vel60, z1, marker\WObj:=WObj0;
    MoveL [[830.635, -1036.423, 192.764], [0.707107, 0, 0.707107, 0], [0,0,0,0], [0,9E9,9E9,9E9,9E9,9E9]], vel60, z1, marker\WObj:=WObj0;
    MoveL [[829.036, -1033.721, 192.764], [0.707107, 0, 0.707107, 0], [0,0,0,0], [0,9E9,9E9,9E9,9E9,9E9]], vel60, z1, marker\WObj:=WObj0;
    MoveL [[827.357, -1031.069, 192.764], [0.707107, 0, 0.707107, 0], [0,0,0,0], [0,9E9,9E9,9E9,9E9,9E9]], vel60, z1, marker\WObj:=WObj0;
    MoveL [[825.625, -1028.45, 192.764], [0.707107, 0, 0.707107, 0], [0,0,0,0], [0,9E9,9E9,9E9,9E9,9E9]], vel60, z1, marker\WObj:=WObj0;
    MoveL [[823.864, -1025.851, 192.764], [0.707107, 0, 0.707107, 0], [0,0,0,0], [0,9E9,9E9,9E9,9E9,9E9]], vel60, z1, marker\WObj:=WObj0;
    MoveL [[822.093, -1023.259, 192.764], [0.707107, 0, 0.707107, 0], [0,0,0,0], [0,9E9,9E9,9E9,9E9,9E9]], vel60, z1, marker\WObj:=WObj0;
    MoveL [[820.305, -1020.678, 192.764], [0.707107, 0, 0.707107, 0], [0,0,0,0], [0,9E9,9E9,9E9,9E9,9E9]], vel60, z1, marker\WObj:=WObj0;
    MoveL [[818.468, -1018.132, 192.764], [0.707107, 0, 0.707107, 0], [0,0,0,0], [0,9E9,9E9,9E9,9E9,9E9]], vel60, z1, marker\WObj:=WObj0;
    MoveL [[816.547, -1015.65, 192.764], [0.707107, 0, 0.707107, 0], [0,0,0,0], [0,9E9,9E9,9E9,9E9,9E9]], vel60, z1, marker\WObj:=WObj0;
    MoveL [[814.487, -1013.281, 192.764], [0.707107, 0, 0.707107, 0], [0,0,0,0], [0,9E9,9E9,9E9,9E9,9E9]], vel60, z1, marker\WObj:=WObj0;
    MoveL [[812.21, -1011.123, 192.764], [0.707107, 0, 0.707107, 0], [0,0,0,0], [0,9E9,9E9,9E9,9E9,9E9]], vel60, z1, marker\WObj:=WObj0;
    MoveL [[809.597, -1009.397, 192.764], [0.707107, 0, 0.707107, 0], [0,0,0,0], [0,9E9,9E9,9E9,9E9,9E9]], vel60, z1, marker\WObj:=WObj0;
    MoveL [[803.557, -1009.397, 192.764], [0.707107, 0, 0.707107, 0], [0,0,0,0], [0,9E9,9E9,9E9,9E9,9E9]], vel60, z1, marker\WObj:=WObj0;
    MoveL [[781.652, -998.013, 192.764], [0.707107, 0, 0.707107, 0], [0,0,0,0], [0,9E9,9E9,9E9,9E9,9E9]], vel60, z1, marker\WObj:=WObj0;
    MoveL [[788.198, -1027.459, 192.764], [0.707107, 0, 0.707107, 0], [0,0,0,0], [0,9E9,9E9,9E9,9E9,9E9]], vel60, z1, marker\WObj:=WObj0;
    MoveL [[756.727, -1034.539, 192.764], [0.707107, 0, 0.707107, 0], [0,0,0,0], [0,9E9,9E9,9E9,9E9,9E9]], vel60, z1, marker\WObj:=WObj0;
    MoveL [[777.403, -1051.873, 192.764], [0.707107, 0, 0.707107, 0], [0,0,0,0], [0,9E9,9E9,9E9,9E9,9E9]], vel60, z1, marker\WObj:=WObj0;
    MoveL [[761.556, -1071.065, 192.764], [0.707107, 0, 0.707107, 0], [0,0,0,0], [0,9E9,9E9,9E9,9E9,9E9]], vel60, z1, marker\WObj:=WObj0;
    MoveL [[785.022, -1077.632, 192.764], [0.707107, 0, 0.707107, 0], [0,0,0,0], [0,9E9,9E9,9E9,9E9,9E9]], vel60, z1, marker\WObj:=WObj0;
    MoveL [[739.253, -1082.642, 192.764], [0.707107, 0, 0.707107, 0], [0,0,0,0], [0,9E9,9E9,9E9,9E9,9E9]], vel60, z1, marker\WObj:=WObj0;
    MoveL [[775.076, -1097.377, 192.764], [0.707107, 0, 0.707107, 0], [0,0,0,0], [0,9E9,9E9,9E9,9E9,9E9]], vel60, z1, marker\WObj:=WObj0;
    MoveL [[707.63, -1106.487, 192.764], [0.707107, 0, 0.707107, 0], [0,0,0,0], [0,9E9,9E9,9E9,9E9,9E9]], vel60, z1, marker\WObj:=WObj0;
    MoveL [[748.57, -1102.779, 192.764], [0.707107, 0, 0.707107, 0], [0,0,0,0], [0,9E9,9E9,9E9,9E9,9E9]], vel60, z1, marker\WObj:=WObj0;
    MoveL [[682.705, -1143.013, 192.764], [0.707107, 0, 0.707107, 0], [0,0,0,0], [0,9E9,9E9,9E9,9E9,9E9]], vel60, z1, marker\WObj:=WObj0;
    MoveL [[726.738, -1117.621, 192.764], [0.707107, 0, 0.707107, 0], [0,0,0,0], [0,9E9,9E9,9E9,9E9,9E9]], vel60, z1, marker\WObj:=WObj0;
    MoveL [[691.834, -1161.55, 192.764], [0.707107, 0, 0.707107, 0], [0,0,0,0], [0,9E9,9E9,9E9,9E9,9E9]], vel60, z1, marker\WObj:=WObj0;
    MoveL [[723.008, -1138.713, 192.764], [0.707107, 0, 0.707107, 0], [0,0,0,0], [0,9E9,9E9,9E9,9E9,9E9]], vel60, z1, marker\WObj:=WObj0;
    MoveL [[736.054, -1161.55, 192.764], [0.707107, 0, 0.707107, 0], [0,0,0,0], [0,9E9,9E9,9E9,9E9,9E9]], vel60, z1, marker\WObj:=WObj0;
    MoveL [[750.019, -1139.355, 192.764], [0.707107, 0, 0.707107, 0], [0,0,0,0], [0,9E9,9E9,9E9,9E9,9E9]], vel60, z1, marker\WObj:=WObj0;
    MoveL [[779.575, -1160.227, 192.764], [0.707107, 0, 0.707107, 0], [0,0,0,0], [0,9E9,9E9,9E9,9E9,9E9]], vel60, z1, marker\WObj:=WObj0;
    MoveL [[775.043, -1130.498, 192.764], [0.707107, 0, 0.707107, 0], [0,0,0,0], [0,9E9,9E9,9E9,9E9,9E9]], vel60, z1, marker\WObj:=WObj0;
    MoveL [[804.5, -1123.701, 192.764], [0.707107, 0, 0.707107, 0], [0,0,0,0], [0,9E9,9E9,9E9,9E9,9E9]], vel60, z1, marker\WObj:=WObj0;
    MoveL [[794.67, -1111.893, 192.764], [0.707107, 0, 0.707107, 0], [0,0,0,0], [0,9E9,9E9,9E9,9E9,9E9]], vel60, z1, marker\WObj:=WObj0;
    MoveL [[829.425, -1154.139, 192.764], [0.707107, 0, 0.707107, 0], [0,0,0,0], [0,9E9,9E9,9E9,9E9,9E9]], vel60, z1, marker\WObj:=WObj0;
    MoveL [[818.484, -1111.893, 192.764], [0.707107, 0, 0.707107, 0], [0,0,0,0], [0,9E9,9E9,9E9,9E9,9E9]], vel60, z1, marker\WObj:=WObj0;
    MoveL [[869.73, -1161.55, 192.764], [0.707107, 0, 0.707107, 0], [0,0,0,0], [0,9E9,9E9,9E9,9E9,9E9]], vel60, z1, marker\WObj:=WObj0;
    MoveL [[838.111, -1130.498, 192.764], [0.707107, 0, 0.707107, 0], [0,0,0,0], [0,9E9,9E9,9E9,9E9,9E9]], vel60, z1, marker\WObj:=WObj0;
    MoveL [[913.95, -1161.55, 192.764], [0.707107, 0, 0.707107, 0], [0,0,0,0], [0,9E9,9E9,9E9,9E9,9E9]], vel60, z1, marker\WObj:=WObj0;
    MoveL [[863.135, -1139.355, 192.764], [0.707107, 0, 0.707107, 0], [0,0,0,0], [0,9E9,9E9,9E9,9E9,9E9]], vel60, z1, marker\WObj:=WObj0;
    MoveL [[934.603, -1149.101, 192.764], [0.707107, 0, 0.707107, 0], [0,0,0,0], [0,9E9,9E9,9E9,9E9,9E9]], vel60, z1, marker\WObj:=WObj0;
    MoveL [[890.146, -1138.713, 192.764], [0.707107, 0, 0.707107, 0], [0,0,0,0], [0,9E9,9E9,9E9,9E9,9E9]], vel60, z1, marker\WObj:=WObj0;
    MoveL [[909.678, -1112.575, 192.764], [0.707107, 0, 0.707107, 0], [0,0,0,0], [0,9E9,9E9,9E9,9E9,9E9]], vel60, z1, marker\WObj:=WObj0;
    MoveL [[886.416, -1117.621, 192.764], [0.707107, 0, 0.707107, 0], [0,0,0,0], [0,9E9,9E9,9E9,9E9,9E9]], vel60, z1, marker\WObj:=WObj0;
    MoveL [[881.271, -1082.642, 192.764], [0.707107, 0, 0.707107, 0], [0,0,0,0], [0,9E9,9E9,9E9,9E9,9E9]], vel60, z1, marker\WObj:=WObj0;
    MoveL [[864.584, -1102.779, 192.764], [0.707107, 0, 0.707107, 0], [0,0,0,0], [0,9E9,9E9,9E9,9E9,9E9]], vel60, z1, marker\WObj:=WObj0;
    MoveL [[847.444, -1077.152, 192.764], [0.707107, 0, 0.707107, 0], [0,0,0,0], [0,9E9,9E9,9E9,9E9,9E9]], vel60, z1, marker\WObj:=WObj0;
    MoveL [[838.078, -1097.377, 192.764], [0.707107, 0, 0.707107, 0], [0,0,0,0], [0,9E9,9E9,9E9,9E9,9E9]], vel60, z1, marker\WObj:=WObj0;
    MoveL [[860.581, -1040.626, 192.764], [0.707107, 0, 0.707107, 0], [0,0,0,0], [0,9E9,9E9,9E9,9E9,9E9]], vel60, z1, marker\WObj:=WObj0;
    MoveL [[828.132, -1077.632, 192.764], [0.707107, 0, 0.707107, 0], [0,0,0,0], [0,9E9,9E9,9E9,9E9,9E9]], vel60, z1, marker\WObj:=WObj0;
    MoveL [[835.656, -1004.101, 192.764], [0.707107, 0, 0.707107, 0], [0,0,0,0], [0,9E9,9E9,9E9,9E9,9E9]], vel60, z1, marker\WObj:=WObj0;
    MoveL [[835.751, -1051.873, 192.764], [0.707107, 0, 0.707107, 0], [0,0,0,0], [0,9E9,9E9,9E9,9E9,9E9]], vel60, z1, marker\WObj:=WObj0;
    MoveL [[810.731, -967.575, 192.764], [0.707107, 0, 0.707107, 0], [0,0,0,0], [0,9E9,9E9,9E9,9E9,9E9]], vel60, z1, marker\WObj:=WObj0;
    MoveL [[824.956, -1027.459, 192.764], [0.707107, 0, 0.707107, 0], [0,0,0,0], [0,9E9,9E9,9E9,9E9,9E9]], vel60, z1, marker\WObj:=WObj0;
    MoveL [[806.577, -961.487, 192.764], [0.707107, 0, 0.707107, 0], [0,0,0,0], [0,9E9,9E9,9E9,9E9,9E9]], vel60, z1, marker\WObj:=WObj0;
    MoveL [[746.679, -1049.264, 192.764], [0.707107, 0, 0.707107, 0], [0,0,0,0], [0,9E9,9E9,9E9,9E9,9E9]], vel60, z1, marker\WObj:=WObj0;
    MoveL [[769.456, -1082.642, 192.764], [0.707107, 0, 0.707107, 0], [0,0,0,0], [0,9E9,9E9,9E9,9E9,9E9]], vel60, z1, marker\WObj:=WObj0;
    MoveL [[723.902, -1082.642, 192.764], [0.707107, 0, 0.707107, 0], [0,0,0,0], [0,9E9,9E9,9E9,9E9,9E9]], vel60, z1, marker\WObj:=WObj0;
    MoveL [[670.056, -1161.55, 192.764], [0.707107, 0, 0.707107, 0], [0,0,0,0], [0,9E9,9E9,9E9,9E9,9E9]], vel60, z1, marker\WObj:=WObj0;
    MoveL [[778.672, -1161.55, 192.764], [0.707107, 0, 0.707107, 0], [0,0,0,0], [0,9E9,9E9,9E9,9E9,9E9]], vel60, z1, marker\WObj:=WObj0;
    MoveL [[806.577, -1120.657, 192.764], [0.707107, 0, 0.707107, 0], [0,0,0,0], [0,9E9,9E9,9E9,9E9,9E9]], vel60, z1, marker\WObj:=WObj0;
    MoveL [[834.482, -1161.55, 192.764], [0.707107, 0, 0.707107, 0], [0,0,0,0], [0,9E9,9E9,9E9,9E9,9E9]], vel60, z1, marker\WObj:=WObj0;
    MoveL [[943.098, -1161.55, 192.764], [0.707107, 0, 0.707107, 0], [0,0,0,0], [0,9E9,9E9,9E9,9E9,9E9]], vel60, z1, marker\WObj:=WObj0;
    MoveL [[889.252, -1082.642, 192.764], [0.707107, 0, 0.707107, 0], [0,0,0,0], [0,9E9,9E9,9E9,9E9,9E9]], vel60, z1, marker\WObj:=WObj0;
    MoveL [[843.698, -1082.642, 192.764], [0.707107, 0, 0.707107, 0], [0,0,0,0], [0,9E9,9E9,9E9,9E9,9E9]], vel60, z1, marker\WObj:=WObj0;
    MoveL [[866.475, -1049.264, 192.764], [0.707107, 0, 0.707107, 0], [0,0,0,0], [0,9E9,9E9,9E9,9E9,9E9]], vel60, z1, marker\WObj:=WObj0;
    MoveL [[806.577, -961.487, 192.764], [0.707107, 0, 0.707107, 0], [0,0,0,0], [0,9E9,9E9,9E9,9E9,9E9]], vel60, z1, marker\WObj:=WObj0;
    MoveL [[803.432, -1007.217, 196.764], [0.707107, 0, 0.707107, 0], [0,0,0,0], [0,9E9,9E9,9E9,9E9,9E9]], vel60, z1, marker\WObj:=WObj0;
    MoveL [[800.703, -1008.996, 196.764], [0.707107, 0, 0.707107, 0], [0,0,0,0], [0,9E9,9E9,9E9,9E9,9E9]], vel60, z1, marker\WObj:=WObj0;
    MoveL [[798.32, -1011.226, 196.764], [0.707107, 0, 0.707107, 0], [0,0,0,0], [0,9E9,9E9,9E9,9E9,9E9]], vel60, z1, marker\WObj:=WObj0;
    MoveL [[796.162, -1013.677, 196.764], [0.707107, 0, 0.707107, 0], [0,0,0,0], [0,9E9,9E9,9E9,9E9,9E9]], vel60, z1, marker\WObj:=WObj0;
    MoveL [[794.145, -1016.246, 196.764], [0.707107, 0, 0.707107, 0], [0,0,0,0], [0,9E9,9E9,9E9,9E9,9E9]], vel60, z1, marker\WObj:=WObj0;
    MoveL [[792.217, -1018.882, 196.764], [0.707107, 0, 0.707107, 0], [0,0,0,0], [0,9E9,9E9,9E9,9E9,9E9]], vel60, z1, marker\WObj:=WObj0;
    MoveL [[790.336, -1021.552, 196.764], [0.707107, 0, 0.707107, 0], [0,0,0,0], [0,9E9,9E9,9E9,9E9,9E9]], vel60, z1, marker\WObj:=WObj0;
    MoveL [[788.473, -1024.234, 196.764], [0.707107, 0, 0.707107, 0], [0,0,0,0], [0,9E9,9E9,9E9,9E9,9E9]], vel60, z1, marker\WObj:=WObj0;
    MoveL [[786.622, -1026.925, 196.764], [0.707107, 0, 0.707107, 0], [0,0,0,0], [0,9E9,9E9,9E9,9E9,9E9]], vel60, z1, marker\WObj:=WObj0;
    MoveL [[784.806, -1029.64, 196.764], [0.707107, 0, 0.707107, 0], [0,0,0,0], [0,9E9,9E9,9E9,9E9,9E9]], vel60, z1, marker\WObj:=WObj0;
    MoveL [[783.053, -1032.396, 196.764], [0.707107, 0, 0.707107, 0], [0,0,0,0], [0,9E9,9E9,9E9,9E9,9E9]], vel60, z1, marker\WObj:=WObj0;
    MoveL [[781.397, -1035.21, 196.764], [0.707107, 0, 0.707107, 0], [0,0,0,0], [0,9E9,9E9,9E9,9E9,9E9]], vel60, z1, marker\WObj:=WObj0;
    MoveL [[779.879, -1038.102, 196.764], [0.707107, 0, 0.707107, 0], [0,0,0,0], [0,9E9,9E9,9E9,9E9,9E9]], vel60, z1, marker\WObj:=WObj0;
    MoveL [[778.556, -1041.087, 196.764], [0.707107, 0, 0.707107, 0], [0,0,0,0], [0,9E9,9E9,9E9,9E9,9E9]], vel60, z1, marker\WObj:=WObj0;
    MoveL [[777.503, -1044.177, 196.764], [0.707107, 0, 0.707107, 0], [0,0,0,0], [0,9E9,9E9,9E9,9E9,9E9]], vel60, z1, marker\WObj:=WObj0;
    MoveL [[776.815, -1047.367, 196.764], [0.707107, 0, 0.707107, 0], [0,0,0,0], [0,9E9,9E9,9E9,9E9,9E9]], vel60, z1, marker\WObj:=WObj0;
    MoveL [[776.586, -1050.623, 196.764], [0.707107, 0, 0.707107, 0], [0,0,0,0], [0,9E9,9E9,9E9,9E9,9E9]], vel60, z1, marker\WObj:=WObj0;
    MoveL [[776.802, -1053.879, 196.764], [0.707107, 0, 0.707107, 0], [0,0,0,0], [0,9E9,9E9,9E9,9E9,9E9]], vel60, z1, marker\WObj:=WObj0;
    MoveL [[777.389, -1057.091, 196.764], [0.707107, 0, 0.707107, 0], [0,0,0,0], [0,9E9,9E9,9E9,9E9,9E9]], vel60, z1, marker\WObj:=WObj0;
    MoveL [[778.263, -1060.237, 196.764], [0.707107, 0, 0.707107, 0], [0,0,0,0], [0,9E9,9E9,9E9,9E9,9E9]], vel60, z1, marker\WObj:=WObj0;
    MoveL [[779.345, -1063.318, 196.764], [0.707107, 0, 0.707107, 0], [0,0,0,0], [0,9E9,9E9,9E9,9E9,9E9]], vel60, z1, marker\WObj:=WObj0;
    MoveL [[780.57, -1066.346, 196.764], [0.707107, 0, 0.707107, 0], [0,0,0,0], [0,9E9,9E9,9E9,9E9,9E9]], vel60, z1, marker\WObj:=WObj0;
    MoveL [[781.88, -1069.337, 196.764], [0.707107, 0, 0.707107, 0], [0,0,0,0], [0,9E9,9E9,9E9,9E9,9E9]], vel60, z1, marker\WObj:=WObj0;
    MoveL [[783.226, -1072.313, 196.764], [0.707107, 0, 0.707107, 0], [0,0,0,0], [0,9E9,9E9,9E9,9E9,9E9]], vel60, z1, marker\WObj:=WObj0;
    MoveL [[784.559, -1075.295, 196.764], [0.707107, 0, 0.707107, 0], [0,0,0,0], [0,9E9,9E9,9E9,9E9,9E9]], vel60, z1, marker\WObj:=WObj0;
    MoveL [[785.824, -1078.306, 196.764], [0.707107, 0, 0.707107, 0], [0,0,0,0], [0,9E9,9E9,9E9,9E9,9E9]], vel60, z1, marker\WObj:=WObj0;
    MoveL [[786.944, -1081.373, 196.764], [0.707107, 0, 0.707107, 0], [0,0,0,0], [0,9E9,9E9,9E9,9E9,9E9]], vel60, z1, marker\WObj:=WObj0;
    MoveL [[787.798, -1084.524, 196.764], [0.707107, 0, 0.707107, 0], [0,0,0,0], [0,9E9,9E9,9E9,9E9,9E9]], vel60, z1, marker\WObj:=WObj0;
    MoveL [[788.157, -1087.764, 196.764], [0.707107, 0, 0.707107, 0], [0,0,0,0], [0,9E9,9E9,9E9,9E9,9E9]], vel60, z1, marker\WObj:=WObj0;
    MoveL [[787.588, -1090.961, 196.764], [0.707107, 0, 0.707107, 0], [0,0,0,0], [0,9E9,9E9,9E9,9E9,9E9]], vel60, z1, marker\WObj:=WObj0;
    MoveL [[785.709, -1093.596, 196.764], [0.707107, 0, 0.707107, 0], [0,0,0,0], [0,9E9,9E9,9E9,9E9,9E9]], vel60, z1, marker\WObj:=WObj0;
    MoveL [[782.996, -1095.398, 196.764], [0.707107, 0, 0.707107, 0], [0,0,0,0], [0,9E9,9E9,9E9,9E9,9E9]], vel60, z1, marker\WObj:=WObj0;
    MoveL [[779.981, -1096.646, 196.764], [0.707107, 0, 0.707107, 0], [0,0,0,0], [0,9E9,9E9,9E9,9E9,9E9]], vel60, z1, marker\WObj:=WObj0;
    MoveL [[776.849, -1097.567, 196.764], [0.707107, 0, 0.707107, 0], [0,0,0,0], [0,9E9,9E9,9E9,9E9,9E9]], vel60, z1, marker\WObj:=WObj0;
    MoveL [[773.664, -1098.29, 196.764], [0.707107, 0, 0.707107, 0], [0,0,0,0], [0,9E9,9E9,9E9,9E9,9E9]], vel60, z1, marker\WObj:=WObj0;
    MoveL [[770.453, -1098.889, 196.764], [0.707107, 0, 0.707107, 0], [0,0,0,0], [0,9E9,9E9,9E9,9E9,9E9]], vel60, z1, marker\WObj:=WObj0;
    MoveL [[767.23, -1099.415, 196.764], [0.707107, 0, 0.707107, 0], [0,0,0,0], [0,9E9,9E9,9E9,9E9,9E9]], vel60, z1, marker\WObj:=WObj0;
    MoveL [[764.001, -1099.904, 196.764], [0.707107, 0, 0.707107, 0], [0,0,0,0], [0,9E9,9E9,9E9,9E9,9E9]], vel60, z1, marker\WObj:=WObj0;
    MoveL [[760.771, -1100.388, 196.764], [0.707107, 0, 0.707107, 0], [0,0,0,0], [0,9E9,9E9,9E9,9E9,9E9]], vel60, z1, marker\WObj:=WObj0;
    MoveL [[757.543, -1100.89, 196.764], [0.707107, 0, 0.707107, 0], [0,0,0,0], [0,9E9,9E9,9E9,9E9,9E9]], vel60, z1, marker\WObj:=WObj0;
    MoveL [[754.322, -1101.43, 196.764], [0.707107, 0, 0.707107, 0], [0,0,0,0], [0,9E9,9E9,9E9,9E9,9E9]], vel60, z1, marker\WObj:=WObj0;
    MoveL [[751.112, -1102.032, 196.764], [0.707107, 0, 0.707107, 0], [0,0,0,0], [0,9E9,9E9,9E9,9E9,9E9]], vel60, z1, marker\WObj:=WObj0;
    MoveL [[747.92, -1102.722, 196.764], [0.707107, 0, 0.707107, 0], [0,0,0,0], [0,9E9,9E9,9E9,9E9,9E9]], vel60, z1, marker\WObj:=WObj0;
    MoveL [[744.757, -1103.534, 196.764], [0.707107, 0, 0.707107, 0], [0,0,0,0], [0,9E9,9E9,9E9,9E9,9E9]], vel60, z1, marker\WObj:=WObj0;
    MoveL [[741.64, -1104.509, 196.764], [0.707107, 0, 0.707107, 0], [0,0,0,0], [0,9E9,9E9,9E9,9E9,9E9]], vel60, z1, marker\WObj:=WObj0;
    MoveL [[738.6, -1105.699, 196.764], [0.707107, 0, 0.707107, 0], [0,0,0,0], [0,9E9,9E9,9E9,9E9,9E9]], vel60, z1, marker\WObj:=WObj0;
    MoveL [[735.686, -1107.171, 196.764], [0.707107, 0, 0.707107, 0], [0,0,0,0], [0,9E9,9E9,9E9,9E9,9E9]], vel60, z1, marker\WObj:=WObj0;
    MoveL [[732.959, -1108.966, 196.764], [0.707107, 0, 0.707107, 0], [0,0,0,0], [0,9E9,9E9,9E9,9E9,9E9]], vel60, z1, marker\WObj:=WObj0;
    MoveL [[730.452, -1111.056, 196.764], [0.707107, 0, 0.707107, 0], [0,0,0,0], [0,9E9,9E9,9E9,9E9,9E9]], vel60, z1, marker\WObj:=WObj0;
    MoveL [[728.165, -1113.386, 196.764], [0.707107, 0, 0.707107, 0], [0,0,0,0], [0,9E9,9E9,9E9,9E9,9E9]], vel60, z1, marker\WObj:=WObj0;
    MoveL [[726.074, -1115.894, 196.764], [0.707107, 0, 0.707107, 0], [0,0,0,0], [0,9E9,9E9,9E9,9E9,9E9]], vel60, z1, marker\WObj:=WObj0;
    MoveL [[724.133, -1118.52, 196.764], [0.707107, 0, 0.707107, 0], [0,0,0,0], [0,9E9,9E9,9E9,9E9,9E9]], vel60, z1, marker\WObj:=WObj0;
    MoveL [[722.287, -1121.215, 196.764], [0.707107, 0, 0.707107, 0], [0,0,0,0], [0,9E9,9E9,9E9,9E9,9E9]], vel60, z1, marker\WObj:=WObj0;
    MoveL [[720.476, -1123.933, 196.764], [0.707107, 0, 0.707107, 0], [0,0,0,0], [0,9E9,9E9,9E9,9E9,9E9]], vel60, z1, marker\WObj:=WObj0;
    MoveL [[718.702, -1126.675, 196.764], [0.707107, 0, 0.707107, 0], [0,0,0,0], [0,9E9,9E9,9E9,9E9,9E9]], vel60, z1, marker\WObj:=WObj0;
    MoveL [[717.045, -1129.489, 196.764], [0.707107, 0, 0.707107, 0], [0,0,0,0], [0,9E9,9E9,9E9,9E9,9E9]], vel60, z1, marker\WObj:=WObj0;
    MoveL [[715.674, -1132.45, 196.764], [0.707107, 0, 0.707107, 0], [0,0,0,0], [0,9E9,9E9,9E9,9E9,9E9]], vel60, z1, marker\WObj:=WObj0;
    MoveL [[715.075, -1135.638, 196.764], [0.707107, 0, 0.707107, 0], [0,0,0,0], [0,9E9,9E9,9E9,9E9,9E9]], vel60, z1, marker\WObj:=WObj0;
    MoveL [[716.546, -1138.43, 196.764], [0.707107, 0, 0.707107, 0], [0,0,0,0], [0,9E9,9E9,9E9,9E9,9E9]], vel60, z1, marker\WObj:=WObj0;
    MoveL [[719.501, -1139.779, 196.764], [0.707107, 0, 0.707107, 0], [0,0,0,0], [0,9E9,9E9,9E9,9E9,9E9]], vel60, z1, marker\WObj:=WObj0;
    MoveL [[722.698, -1140.432, 196.764], [0.707107, 0, 0.707107, 0], [0,0,0,0], [0,9E9,9E9,9E9,9E9,9E9]], vel60, z1, marker\WObj:=WObj0;
    MoveL [[725.945, -1140.78, 196.764], [0.707107, 0, 0.707107, 0], [0,0,0,0], [0,9E9,9E9,9E9,9E9,9E9]], vel60, z1, marker\WObj:=WObj0;
    MoveL [[729.206, -1140.965, 196.764], [0.707107, 0, 0.707107, 0], [0,0,0,0], [0,9E9,9E9,9E9,9E9,9E9]], vel60, z1, marker\WObj:=WObj0;
    MoveL [[732.47, -1141.06, 196.764], [0.707107, 0, 0.707107, 0], [0,0,0,0], [0,9E9,9E9,9E9,9E9,9E9]], vel60, z1, marker\WObj:=WObj0;
    MoveL [[735.736, -1141.106, 196.764], [0.707107, 0, 0.707107, 0], [0,0,0,0], [0,9E9,9E9,9E9,9E9,9E9]], vel60, z1, marker\WObj:=WObj0;
    MoveL [[739.002, -1141.136, 196.764], [0.707107, 0, 0.707107, 0], [0,0,0,0], [0,9E9,9E9,9E9,9E9,9E9]], vel60, z1, marker\WObj:=WObj0;
    MoveL [[742.268, -1141.149, 196.764], [0.707107, 0, 0.707107, 0], [0,0,0,0], [0,9E9,9E9,9E9,9E9,9E9]], vel60, z1, marker\WObj:=WObj0;
    MoveL [[745.534, -1141.113, 196.764], [0.707107, 0, 0.707107, 0], [0,0,0,0], [0,9E9,9E9,9E9,9E9,9E9]], vel60, z1, marker\WObj:=WObj0;
    MoveL [[748.797, -1140.994, 196.764], [0.707107, 0, 0.707107, 0], [0,0,0,0], [0,9E9,9E9,9E9,9E9,9E9]], vel60, z1, marker\WObj:=WObj0;
    MoveL [[752.054, -1140.752, 196.764], [0.707107, 0, 0.707107, 0], [0,0,0,0], [0,9E9,9E9,9E9,9E9,9E9]], vel60, z1, marker\WObj:=WObj0;
    MoveL [[755.295, -1140.345, 196.764], [0.707107, 0, 0.707107, 0], [0,0,0,0], [0,9E9,9E9,9E9,9E9,9E9]], vel60, z1, marker\WObj:=WObj0;
    MoveL [[758.501, -1139.73, 196.764], [0.707107, 0, 0.707107, 0], [0,0,0,0], [0,9E9,9E9,9E9,9E9,9E9]], vel60, z1, marker\WObj:=WObj0;
    MoveL [[761.648, -1138.859, 196.764], [0.707107, 0, 0.707107, 0], [0,0,0,0], [0,9E9,9E9,9E9,9E9,9E9]], vel60, z1, marker\WObj:=WObj0;
    MoveL [[764.698, -1137.695, 196.764], [0.707107, 0, 0.707107, 0], [0,0,0,0], [0,9E9,9E9,9E9,9E9,9E9]], vel60, z1, marker\WObj:=WObj0;
    MoveL [[767.612, -1136.222, 196.764], [0.707107, 0, 0.707107, 0], [0,0,0,0], [0,9E9,9E9,9E9,9E9,9E9]], vel60, z1, marker\WObj:=WObj0;
    MoveL [[770.379, -1134.489, 196.764], [0.707107, 0, 0.707107, 0], [0,0,0,0], [0,9E9,9E9,9E9,9E9,9E9]], vel60, z1, marker\WObj:=WObj0;
    MoveL [[773.009, -1132.554, 196.764], [0.707107, 0, 0.707107, 0], [0,0,0,0], [0,9E9,9E9,9E9,9E9,9E9]], vel60, z1, marker\WObj:=WObj0;
    MoveL [[775.519, -1130.464, 196.764], [0.707107, 0, 0.707107, 0], [0,0,0,0], [0,9E9,9E9,9E9,9E9,9E9]], vel60, z1, marker\WObj:=WObj0;
    MoveL [[777.929, -1128.261, 196.764], [0.707107, 0, 0.707107, 0], [0,0,0,0], [0,9E9,9E9,9E9,9E9,9E9]], vel60, z1, marker\WObj:=WObj0;
    MoveL [[780.263, -1125.976, 196.764], [0.707107, 0, 0.707107, 0], [0,0,0,0], [0,9E9,9E9,9E9,9E9,9E9]], vel60, z1, marker\WObj:=WObj0;
    MoveL [[782.54, -1123.635, 196.764], [0.707107, 0, 0.707107, 0], [0,0,0,0], [0,9E9,9E9,9E9,9E9,9E9]], vel60, z1, marker\WObj:=WObj0;
    MoveL [[784.783, -1121.261, 196.764], [0.707107, 0, 0.707107, 0], [0,0,0,0], [0,9E9,9E9,9E9,9E9,9E9]], vel60, z1, marker\WObj:=WObj0;
    MoveL [[787.013, -1118.874, 196.764], [0.707107, 0, 0.707107, 0], [0,0,0,0], [0,9E9,9E9,9E9,9E9,9E9]], vel60, z1, marker\WObj:=WObj0;
    MoveL [[789.252, -1116.496, 196.764], [0.707107, 0, 0.707107, 0], [0,0,0,0], [0,9E9,9E9,9E9,9E9,9E9]], vel60, z1, marker\WObj:=WObj0;
    MoveL [[791.53, -1114.157, 196.764], [0.707107, 0, 0.707107, 0], [0,0,0,0], [0,9E9,9E9,9E9,9E9,9E9]], vel60, z1, marker\WObj:=WObj0;
    MoveL [[793.882, -1111.891, 196.764], [0.707107, 0, 0.707107, 0], [0,0,0,0], [0,9E9,9E9,9E9,9E9,9E9]], vel60, z1, marker\WObj:=WObj0;
    MoveL [[796.348, -1109.75, 196.764], [0.707107, 0, 0.707107, 0], [0,0,0,0], [0,9E9,9E9,9E9,9E9,9E9]], vel60, z1, marker\WObj:=WObj0;
    MoveL [[798.981, -1107.819, 196.764], [0.707107, 0, 0.707107, 0], [0,0,0,0], [0,9E9,9E9,9E9,9E9,9E9]], vel60, z1, marker\WObj:=WObj0;
    MoveL [[801.838, -1106.245, 196.764], [0.707107, 0, 0.707107, 0], [0,0,0,0], [0,9E9,9E9,9E9,9E9,9E9]], vel60, z1, marker\WObj:=WObj0;
    MoveL [[804.951, -1105.286, 196.764], [0.707107, 0, 0.707107, 0], [0,0,0,0], [0,9E9,9E9,9E9,9E9,9E9]], vel60, z1, marker\WObj:=WObj0;
    MoveL [[808.203, -1105.286, 196.764], [0.707107, 0, 0.707107, 0], [0,0,0,0], [0,9E9,9E9,9E9,9E9,9E9]], vel60, z1, marker\WObj:=WObj0;
    MoveL [[811.316, -1106.245, 196.764], [0.707107, 0, 0.707107, 0], [0,0,0,0], [0,9E9,9E9,9E9,9E9,9E9]], vel60, z1, marker\WObj:=WObj0;
    MoveL [[814.173, -1107.819, 196.764], [0.707107, 0, 0.707107, 0], [0,0,0,0], [0,9E9,9E9,9E9,9E9,9E9]], vel60, z1, marker\WObj:=WObj0;
    MoveL [[816.806, -1109.75, 196.764], [0.707107, 0, 0.707107, 0], [0,0,0,0], [0,9E9,9E9,9E9,9E9,9E9]], vel60, z1, marker\WObj:=WObj0;
    MoveL [[819.272, -1111.891, 196.764], [0.707107, 0, 0.707107, 0], [0,0,0,0], [0,9E9,9E9,9E9,9E9,9E9]], vel60, z1, marker\WObj:=WObj0;
    MoveL [[821.624, -1114.157, 196.764], [0.707107, 0, 0.707107, 0], [0,0,0,0], [0,9E9,9E9,9E9,9E9,9E9]], vel60, z1, marker\WObj:=WObj0;
    MoveL [[823.902, -1116.496, 196.764], [0.707107, 0, 0.707107, 0], [0,0,0,0], [0,9E9,9E9,9E9,9E9,9E9]], vel60, z1, marker\WObj:=WObj0;
    MoveL [[826.141, -1118.874, 196.764], [0.707107, 0, 0.707107, 0], [0,0,0,0], [0,9E9,9E9,9E9,9E9,9E9]], vel60, z1, marker\WObj:=WObj0;
    MoveL [[828.371, -1121.261, 196.764], [0.707107, 0, 0.707107, 0], [0,0,0,0], [0,9E9,9E9,9E9,9E9,9E9]], vel60, z1, marker\WObj:=WObj0;
    MoveL [[830.614, -1123.635, 196.764], [0.707107, 0, 0.707107, 0], [0,0,0,0], [0,9E9,9E9,9E9,9E9,9E9]], vel60, z1, marker\WObj:=WObj0;
    MoveL [[832.891, -1125.976, 196.764], [0.707107, 0, 0.707107, 0], [0,0,0,0], [0,9E9,9E9,9E9,9E9,9E9]], vel60, z1, marker\WObj:=WObj0;
    MoveL [[835.225, -1128.261, 196.764], [0.707107, 0, 0.707107, 0], [0,0,0,0], [0,9E9,9E9,9E9,9E9,9E9]], vel60, z1, marker\WObj:=WObj0;
    MoveL [[837.635, -1130.464, 196.764], [0.707107, 0, 0.707107, 0], [0,0,0,0], [0,9E9,9E9,9E9,9E9,9E9]], vel60, z1, marker\WObj:=WObj0;
    MoveL [[840.145, -1132.554, 196.764], [0.707107, 0, 0.707107, 0], [0,0,0,0], [0,9E9,9E9,9E9,9E9,9E9]], vel60, z1, marker\WObj:=WObj0;
    MoveL [[842.775, -1134.489, 196.764], [0.707107, 0, 0.707107, 0], [0,0,0,0], [0,9E9,9E9,9E9,9E9,9E9]], vel60, z1, marker\WObj:=WObj0;
    MoveL [[845.542, -1136.222, 196.764], [0.707107, 0, 0.707107, 0], [0,0,0,0], [0,9E9,9E9,9E9,9E9,9E9]], vel60, z1, marker\WObj:=WObj0;
    MoveL [[848.456, -1137.695, 196.764], [0.707107, 0, 0.707107, 0], [0,0,0,0], [0,9E9,9E9,9E9,9E9,9E9]], vel60, z1, marker\WObj:=WObj0;
    MoveL [[851.506, -1138.859, 196.764], [0.707107, 0, 0.707107, 0], [0,0,0,0], [0,9E9,9E9,9E9,9E9,9E9]], vel60, z1, marker\WObj:=WObj0;
    MoveL [[854.653, -1139.73, 196.764], [0.707107, 0, 0.707107, 0], [0,0,0,0], [0,9E9,9E9,9E9,9E9,9E9]], vel60, z1, marker\WObj:=WObj0;
    MoveL [[857.859, -1140.345, 196.764], [0.707107, 0, 0.707107, 0], [0,0,0,0], [0,9E9,9E9,9E9,9E9,9E9]], vel60, z1, marker\WObj:=WObj0;
    MoveL [[861.1, -1140.752, 196.764], [0.707107, 0, 0.707107, 0], [0,0,0,0], [0,9E9,9E9,9E9,9E9,9E9]], vel60, z1, marker\WObj:=WObj0;
    MoveL [[864.357, -1140.994, 196.764], [0.707107, 0, 0.707107, 0], [0,0,0,0], [0,9E9,9E9,9E9,9E9,9E9]], vel60, z1, marker\WObj:=WObj0;
    MoveL [[867.62, -1141.113, 196.764], [0.707107, 0, 0.707107, 0], [0,0,0,0], [0,9E9,9E9,9E9,9E9,9E9]], vel60, z1, marker\WObj:=WObj0;
    MoveL [[870.886, -1141.149, 196.764], [0.707107, 0, 0.707107, 0], [0,0,0,0], [0,9E9,9E9,9E9,9E9,9E9]], vel60, z1, marker\WObj:=WObj0;
    MoveL [[874.152, -1141.136, 196.764], [0.707107, 0, 0.707107, 0], [0,0,0,0], [0,9E9,9E9,9E9,9E9,9E9]], vel60, z1, marker\WObj:=WObj0;
    MoveL [[877.418, -1141.106, 196.764], [0.707107, 0, 0.707107, 0], [0,0,0,0], [0,9E9,9E9,9E9,9E9,9E9]], vel60, z1, marker\WObj:=WObj0;
    MoveL [[880.684, -1141.06, 196.764], [0.707107, 0, 0.707107, 0], [0,0,0,0], [0,9E9,9E9,9E9,9E9,9E9]], vel60, z1, marker\WObj:=WObj0;
    MoveL [[883.948, -1140.965, 196.764], [0.707107, 0, 0.707107, 0], [0,0,0,0], [0,9E9,9E9,9E9,9E9,9E9]], vel60, z1, marker\WObj:=WObj0;
    MoveL [[887.209, -1140.78, 196.764], [0.707107, 0, 0.707107, 0], [0,0,0,0], [0,9E9,9E9,9E9,9E9,9E9]], vel60, z1, marker\WObj:=WObj0;
    MoveL [[890.456, -1140.432, 196.764], [0.707107, 0, 0.707107, 0], [0,0,0,0], [0,9E9,9E9,9E9,9E9,9E9]], vel60, z1, marker\WObj:=WObj0;
    MoveL [[893.653, -1139.779, 196.764], [0.707107, 0, 0.707107, 0], [0,0,0,0], [0,9E9,9E9,9E9,9E9,9E9]], vel60, z1, marker\WObj:=WObj0;
    MoveL [[896.608, -1138.43, 196.764], [0.707107, 0, 0.707107, 0], [0,0,0,0], [0,9E9,9E9,9E9,9E9,9E9]], vel60, z1, marker\WObj:=WObj0;
    MoveL [[898.079, -1135.638, 196.764], [0.707107, 0, 0.707107, 0], [0,0,0,0], [0,9E9,9E9,9E9,9E9,9E9]], vel60, z1, marker\WObj:=WObj0;
    MoveL [[897.48, -1132.45, 196.764], [0.707107, 0, 0.707107, 0], [0,0,0,0], [0,9E9,9E9,9E9,9E9,9E9]], vel60, z1, marker\WObj:=WObj0;
    MoveL [[896.109, -1129.489, 196.764], [0.707107, 0, 0.707107, 0], [0,0,0,0], [0,9E9,9E9,9E9,9E9,9E9]], vel60, z1, marker\WObj:=WObj0;
    MoveL [[894.452, -1126.675, 196.764], [0.707107, 0, 0.707107, 0], [0,0,0,0], [0,9E9,9E9,9E9,9E9,9E9]], vel60, z1, marker\WObj:=WObj0;
    MoveL [[892.678, -1123.933, 196.764], [0.707107, 0, 0.707107, 0], [0,0,0,0], [0,9E9,9E9,9E9,9E9,9E9]], vel60, z1, marker\WObj:=WObj0;
    MoveL [[890.867, -1121.215, 196.764], [0.707107, 0, 0.707107, 0], [0,0,0,0], [0,9E9,9E9,9E9,9E9,9E9]], vel60, z1, marker\WObj:=WObj0;
    MoveL [[889.021, -1118.52, 196.764], [0.707107, 0, 0.707107, 0], [0,0,0,0], [0,9E9,9E9,9E9,9E9,9E9]], vel60, z1, marker\WObj:=WObj0;
    MoveL [[887.08, -1115.894, 196.764], [0.707107, 0, 0.707107, 0], [0,0,0,0], [0,9E9,9E9,9E9,9E9,9E9]], vel60, z1, marker\WObj:=WObj0;
    MoveL [[884.989, -1113.386, 196.764], [0.707107, 0, 0.707107, 0], [0,0,0,0], [0,9E9,9E9,9E9,9E9,9E9]], vel60, z1, marker\WObj:=WObj0;
    MoveL [[882.702, -1111.056, 196.764], [0.707107, 0, 0.707107, 0], [0,0,0,0], [0,9E9,9E9,9E9,9E9,9E9]], vel60, z1, marker\WObj:=WObj0;
    MoveL [[880.195, -1108.966, 196.764], [0.707107, 0, 0.707107, 0], [0,0,0,0], [0,9E9,9E9,9E9,9E9,9E9]], vel60, z1, marker\WObj:=WObj0;
    MoveL [[877.468, -1107.171, 196.764], [0.707107, 0, 0.707107, 0], [0,0,0,0], [0,9E9,9E9,9E9,9E9,9E9]], vel60, z1, marker\WObj:=WObj0;
    MoveL [[874.554, -1105.699, 196.764], [0.707107, 0, 0.707107, 0], [0,0,0,0], [0,9E9,9E9,9E9,9E9,9E9]], vel60, z1, marker\WObj:=WObj0;
    MoveL [[871.514, -1104.509, 196.764], [0.707107, 0, 0.707107, 0], [0,0,0,0], [0,9E9,9E9,9E9,9E9,9E9]], vel60, z1, marker\WObj:=WObj0;
    MoveL [[868.397, -1103.534, 196.764], [0.707107, 0, 0.707107, 0], [0,0,0,0], [0,9E9,9E9,9E9,9E9,9E9]], vel60, z1, marker\WObj:=WObj0;
    MoveL [[865.234, -1102.722, 196.764], [0.707107, 0, 0.707107, 0], [0,0,0,0], [0,9E9,9E9,9E9,9E9,9E9]], vel60, z1, marker\WObj:=WObj0;
    MoveL [[862.042, -1102.032, 196.764], [0.707107, 0, 0.707107, 0], [0,0,0,0], [0,9E9,9E9,9E9,9E9,9E9]], vel60, z1, marker\WObj:=WObj0;
    MoveL [[858.832, -1101.43, 196.764], [0.707107, 0, 0.707107, 0], [0,0,0,0], [0,9E9,9E9,9E9,9E9,9E9]], vel60, z1, marker\WObj:=WObj0;
    MoveL [[855.61, -1100.89, 196.764], [0.707107, 0, 0.707107, 0], [0,0,0,0], [0,9E9,9E9,9E9,9E9,9E9]], vel60, z1, marker\WObj:=WObj0;
    MoveL [[852.383, -1100.388, 196.764], [0.707107, 0, 0.707107, 0], [0,0,0,0], [0,9E9,9E9,9E9,9E9,9E9]], vel60, z1, marker\WObj:=WObj0;
    MoveL [[849.153, -1099.904, 196.764], [0.707107, 0, 0.707107, 0], [0,0,0,0], [0,9E9,9E9,9E9,9E9,9E9]], vel60, z1, marker\WObj:=WObj0;
    MoveL [[845.924, -1099.415, 196.764], [0.707107, 0, 0.707107, 0], [0,0,0,0], [0,9E9,9E9,9E9,9E9,9E9]], vel60, z1, marker\WObj:=WObj0;
    MoveL [[842.701, -1098.889, 196.764], [0.707107, 0, 0.707107, 0], [0,0,0,0], [0,9E9,9E9,9E9,9E9,9E9]], vel60, z1, marker\WObj:=WObj0;
    MoveL [[839.49, -1098.29, 196.764], [0.707107, 0, 0.707107, 0], [0,0,0,0], [0,9E9,9E9,9E9,9E9,9E9]], vel60, z1, marker\WObj:=WObj0;
    MoveL [[836.305, -1097.567, 196.764], [0.707107, 0, 0.707107, 0], [0,0,0,0], [0,9E9,9E9,9E9,9E9,9E9]], vel60, z1, marker\WObj:=WObj0;
    MoveL [[833.173, -1096.646, 196.764], [0.707107, 0, 0.707107, 0], [0,0,0,0], [0,9E9,9E9,9E9,9E9,9E9]], vel60, z1, marker\WObj:=WObj0;
    MoveL [[830.158, -1095.398, 196.764], [0.707107, 0, 0.707107, 0], [0,0,0,0], [0,9E9,9E9,9E9,9E9,9E9]], vel60, z1, marker\WObj:=WObj0;
    MoveL [[827.445, -1093.596, 196.764], [0.707107, 0, 0.707107, 0], [0,0,0,0], [0,9E9,9E9,9E9,9E9,9E9]], vel60, z1, marker\WObj:=WObj0;
    MoveL [[825.566, -1090.961, 196.764], [0.707107, 0, 0.707107, 0], [0,0,0,0], [0,9E9,9E9,9E9,9E9,9E9]], vel60, z1, marker\WObj:=WObj0;
    MoveL [[824.997, -1087.764, 196.764], [0.707107, 0, 0.707107, 0], [0,0,0,0], [0,9E9,9E9,9E9,9E9,9E9]], vel60, z1, marker\WObj:=WObj0;
    MoveL [[825.356, -1084.524, 196.764], [0.707107, 0, 0.707107, 0], [0,0,0,0], [0,9E9,9E9,9E9,9E9,9E9]], vel60, z1, marker\WObj:=WObj0;
    MoveL [[826.21, -1081.373, 196.764], [0.707107, 0, 0.707107, 0], [0,0,0,0], [0,9E9,9E9,9E9,9E9,9E9]], vel60, z1, marker\WObj:=WObj0;
    MoveL [[827.33, -1078.306, 196.764], [0.707107, 0, 0.707107, 0], [0,0,0,0], [0,9E9,9E9,9E9,9E9,9E9]], vel60, z1, marker\WObj:=WObj0;
    MoveL [[828.595, -1075.295, 196.764], [0.707107, 0, 0.707107, 0], [0,0,0,0], [0,9E9,9E9,9E9,9E9,9E9]], vel60, z1, marker\WObj:=WObj0;
    MoveL [[829.928, -1072.313, 196.764], [0.707107, 0, 0.707107, 0], [0,0,0,0], [0,9E9,9E9,9E9,9E9,9E9]], vel60, z1, marker\WObj:=WObj0;
    MoveL [[831.274, -1069.337, 196.764], [0.707107, 0, 0.707107, 0], [0,0,0,0], [0,9E9,9E9,9E9,9E9,9E9]], vel60, z1, marker\WObj:=WObj0;
    MoveL [[832.584, -1066.346, 196.764], [0.707107, 0, 0.707107, 0], [0,0,0,0], [0,9E9,9E9,9E9,9E9,9E9]], vel60, z1, marker\WObj:=WObj0;
    MoveL [[833.809, -1063.318, 196.764], [0.707107, 0, 0.707107, 0], [0,0,0,0], [0,9E9,9E9,9E9,9E9,9E9]], vel60, z1, marker\WObj:=WObj0;
    MoveL [[834.891, -1060.237, 196.764], [0.707107, 0, 0.707107, 0], [0,0,0,0], [0,9E9,9E9,9E9,9E9,9E9]], vel60, z1, marker\WObj:=WObj0;
    MoveL [[835.765, -1057.091, 196.764], [0.707107, 0, 0.707107, 0], [0,0,0,0], [0,9E9,9E9,9E9,9E9,9E9]], vel60, z1, marker\WObj:=WObj0;
    MoveL [[836.352, -1053.879, 196.764], [0.707107, 0, 0.707107, 0], [0,0,0,0], [0,9E9,9E9,9E9,9E9,9E9]], vel60, z1, marker\WObj:=WObj0;
    MoveL [[836.568, -1050.623, 196.764], [0.707107, 0, 0.707107, 0], [0,0,0,0], [0,9E9,9E9,9E9,9E9,9E9]], vel60, z1, marker\WObj:=WObj0;
    MoveL [[836.339, -1047.367, 196.764], [0.707107, 0, 0.707107, 0], [0,0,0,0], [0,9E9,9E9,9E9,9E9,9E9]], vel60, z1, marker\WObj:=WObj0;
    MoveL [[835.651, -1044.177, 196.764], [0.707107, 0, 0.707107, 0], [0,0,0,0], [0,9E9,9E9,9E9,9E9,9E9]], vel60, z1, marker\WObj:=WObj0;
    MoveL [[834.598, -1041.087, 196.764], [0.707107, 0, 0.707107, 0], [0,0,0,0], [0,9E9,9E9,9E9,9E9,9E9]], vel60, z1, marker\WObj:=WObj0;
    MoveL [[833.275, -1038.102, 196.764], [0.707107, 0, 0.707107, 0], [0,0,0,0], [0,9E9,9E9,9E9,9E9,9E9]], vel60, z1, marker\WObj:=WObj0;
    MoveL [[831.757, -1035.21, 196.764], [0.707107, 0, 0.707107, 0], [0,0,0,0], [0,9E9,9E9,9E9,9E9,9E9]], vel60, z1, marker\WObj:=WObj0;
    MoveL [[830.101, -1032.396, 196.764], [0.707107, 0, 0.707107, 0], [0,0,0,0], [0,9E9,9E9,9E9,9E9,9E9]], vel60, z1, marker\WObj:=WObj0;
    MoveL [[828.348, -1029.64, 196.764], [0.707107, 0, 0.707107, 0], [0,0,0,0], [0,9E9,9E9,9E9,9E9,9E9]], vel60, z1, marker\WObj:=WObj0;
    MoveL [[826.532, -1026.925, 196.764], [0.707107, 0, 0.707107, 0], [0,0,0,0], [0,9E9,9E9,9E9,9E9,9E9]], vel60, z1, marker\WObj:=WObj0;
    MoveL [[824.681, -1024.234, 196.764], [0.707107, 0, 0.707107, 0], [0,0,0,0], [0,9E9,9E9,9E9,9E9,9E9]], vel60, z1, marker\WObj:=WObj0;
    MoveL [[822.818, -1021.552, 196.764], [0.707107, 0, 0.707107, 0], [0,0,0,0], [0,9E9,9E9,9E9,9E9,9E9]], vel60, z1, marker\WObj:=WObj0;
    MoveL [[820.937, -1018.882, 196.764], [0.707107, 0, 0.707107, 0], [0,0,0,0], [0,9E9,9E9,9E9,9E9,9E9]], vel60, z1, marker\WObj:=WObj0;
    MoveL [[819.009, -1016.246, 196.764], [0.707107, 0, 0.707107, 0], [0,0,0,0], [0,9E9,9E9,9E9,9E9,9E9]], vel60, z1, marker\WObj:=WObj0;
    MoveL [[816.992, -1013.677, 196.764], [0.707107, 0, 0.707107, 0], [0,0,0,0], [0,9E9,9E9,9E9,9E9,9E9]], vel60, z1, marker\WObj:=WObj0;
    MoveL [[814.834, -1011.226, 196.764], [0.707107, 0, 0.707107, 0], [0,0,0,0], [0,9E9,9E9,9E9,9E9,9E9]], vel60, z1, marker\WObj:=WObj0;
    MoveL [[812.451, -1008.996, 196.764], [0.707107, 0, 0.707107, 0], [0,0,0,0], [0,9E9,9E9,9E9,9E9,9E9]], vel60, z1, marker\WObj:=WObj0;
    MoveL [[809.722, -1007.217, 196.764], [0.707107, 0, 0.707107, 0], [0,0,0,0], [0,9E9,9E9,9E9,9E9,9E9]], vel60, z1, marker\WObj:=WObj0;
    MoveL [[803.432, -1007.217, 196.764], [0.707107, 0, 0.707107, 0], [0,0,0,0], [0,9E9,9E9,9E9,9E9,9E9]], vel60, z1, marker\WObj:=WObj0;
    MoveL [[781.168, -997.26, 196.764], [0.707107, 0, 0.707107, 0], [0,0,0,0], [0,9E9,9E9,9E9,9E9,9E9]], vel60, z1, marker\WObj:=WObj0;
    MoveL [[787.324, -1025.898, 196.764], [0.707107, 0, 0.707107, 0], [0,0,0,0], [0,9E9,9E9,9E9,9E9,9E9]], vel60, z1, marker\WObj:=WObj0;
    MoveL [[755.76, -1034.495, 196.764], [0.707107, 0, 0.707107, 0], [0,0,0,0], [0,9E9,9E9,9E9,9E9,9E9]], vel60, z1, marker\WObj:=WObj0;
    MoveL [[776.6, -1051.4, 196.764], [0.707107, 0, 0.707107, 0], [0,0,0,0], [0,9E9,9E9,9E9,9E9,9E9]], vel60, z1, marker\WObj:=WObj0;
    MoveL [[763.007, -1071.73, 196.764], [0.707107, 0, 0.707107, 0], [0,0,0,0], [0,9E9,9E9,9E9,9E9,9E9]], vel60, z1, marker\WObj:=WObj0;
    MoveL [[785.65, -1077.873, 196.764], [0.707107, 0, 0.707107, 0], [0,0,0,0], [0,9E9,9E9,9E9,9E9,9E9]], vel60, z1, marker\WObj:=WObj0;
    MoveL [[740.147, -1083.466, 196.764], [0.707107, 0, 0.707107, 0], [0,0,0,0], [0,9E9,9E9,9E9,9E9,9E9]], vel60, z1, marker\WObj:=WObj0;
    MoveL [[775.336, -1097.931, 196.764], [0.707107, 0, 0.707107, 0], [0,0,0,0], [0,9E9,9E9,9E9,9E9,9E9]], vel60, z1, marker\WObj:=WObj0;
    MoveL [[706.969, -1105.993, 196.764], [0.707107, 0, 0.707107, 0], [0,0,0,0], [0,9E9,9E9,9E9,9E9,9E9]], vel60, z1, marker\WObj:=WObj0;
    MoveL [[747.618, -1102.794, 196.764], [0.707107, 0, 0.707107, 0], [0,0,0,0], [0,9E9,9E9,9E9,9E9,9E9]], vel60, z1, marker\WObj:=WObj0;
    MoveL [[681.561, -1143.228, 196.764], [0.707107, 0, 0.707107, 0], [0,0,0,0], [0,9E9,9E9,9E9,9E9,9E9]], vel60, z1, marker\WObj:=WObj0;
    MoveL [[724.675, -1117.761, 196.764], [0.707107, 0, 0.707107, 0], [0,0,0,0], [0,9E9,9E9,9E9,9E9,9E9]], vel60, z1, marker\WObj:=WObj0;
    MoveL [[690.395, -1162.374, 196.764], [0.707107, 0, 0.707107, 0], [0,0,0,0], [0,9E9,9E9,9E9,9E9,9E9]], vel60, z1, marker\WObj:=WObj0;
    MoveL [[720.556, -1140.046, 196.764], [0.707107, 0, 0.707107, 0], [0,0,0,0], [0,9E9,9E9,9E9,9E9,9E9]], vel60, z1, marker\WObj:=WObj0;
    MoveL [[735.474, -1162.374, 196.764], [0.707107, 0, 0.707107, 0], [0,0,0,0], [0,9E9,9E9,9E9,9E9,9E9]], vel60, z1, marker\WObj:=WObj0;
    MoveL [[748.642, -1141.002, 196.764], [0.707107, 0, 0.707107, 0], [0,0,0,0], [0,9E9,9E9,9E9,9E9,9E9]], vel60, z1, marker\WObj:=WObj0;
    MoveL [[779.051, -1159.533, 196.764], [0.707107, 0, 0.707107, 0], [0,0,0,0], [0,9E9,9E9,9E9,9E9,9E9]], vel60, z1, marker\WObj:=WObj0;
    MoveL [[774.457, -1131.376, 196.764], [0.707107, 0, 0.707107, 0], [0,0,0,0], [0,9E9,9E9,9E9,9E9,9E9]], vel60, z1, marker\WObj:=WObj0;
    MoveL [[804.46, -1122.298, 196.764], [0.707107, 0, 0.707107, 0], [0,0,0,0], [0,9E9,9E9,9E9,9E9,9E9]], vel60, z1, marker\WObj:=WObj0;
    MoveL [[794.342, -1111.471, 196.764], [0.707107, 0, 0.707107, 0], [0,0,0,0], [0,9E9,9E9,9E9,9E9,9E9]], vel60, z1, marker\WObj:=WObj0;
    MoveL [[829.868, -1153.327, 196.764], [0.707107, 0, 0.707107, 0], [0,0,0,0], [0,9E9,9E9,9E9,9E9,9E9]], vel60, z1, marker\WObj:=WObj0;
    MoveL [[818.812, -1111.471, 196.764], [0.707107, 0, 0.707107, 0], [0,0,0,0], [0,9E9,9E9,9E9,9E9,9E9]], vel60, z1, marker\WObj:=WObj0;
    MoveL [[870.167, -1162.374, 196.764], [0.707107, 0, 0.707107, 0], [0,0,0,0], [0,9E9,9E9,9E9,9E9,9E9]], vel60, z1, marker\WObj:=WObj0;
    MoveL [[838.697, -1131.376, 196.764], [0.707107, 0, 0.707107, 0], [0,0,0,0], [0,9E9,9E9,9E9,9E9,9E9]], vel60, z1, marker\WObj:=WObj0;
    MoveL [[915.245, -1162.374, 196.764], [0.707107, 0, 0.707107, 0], [0,0,0,0], [0,9E9,9E9,9E9,9E9,9E9]], vel60, z1, marker\WObj:=WObj0;
    MoveL [[864.512, -1141.002, 196.764], [0.707107, 0, 0.707107, 0], [0,0,0,0], [0,9E9,9E9,9E9,9E9,9E9]], vel60, z1, marker\WObj:=WObj0;
    MoveL [[935.828, -1149.434, 196.764], [0.707107, 0, 0.707107, 0], [0,0,0,0], [0,9E9,9E9,9E9,9E9,9E9]], vel60, z1, marker\WObj:=WObj0;
    MoveL [[892.598, -1140.046, 196.764], [0.707107, 0, 0.707107, 0], [0,0,0,0], [0,9E9,9E9,9E9,9E9,9E9]], vel60, z1, marker\WObj:=WObj0;
    MoveL [[910.419, -1112.199, 196.764], [0.707107, 0, 0.707107, 0], [0,0,0,0], [0,9E9,9E9,9E9,9E9,9E9]], vel60, z1, marker\WObj:=WObj0;
    MoveL [[888.479, -1117.761, 196.764], [0.707107, 0, 0.707107, 0], [0,0,0,0], [0,9E9,9E9,9E9,9E9,9E9]], vel60, z1, marker\WObj:=WObj0;
    MoveL [[880.52, -1083.466, 196.764], [0.707107, 0, 0.707107, 0], [0,0,0,0], [0,9E9,9E9,9E9,9E9,9E9]], vel60, z1, marker\WObj:=WObj0;
    MoveL [[865.536, -1102.794, 196.764], [0.707107, 0, 0.707107, 0], [0,0,0,0], [0,9E9,9E9,9E9,9E9,9E9]], vel60, z1, marker\WObj:=WObj0;
    MoveL [[845.912, -1077.935, 196.764], [0.707107, 0, 0.707107, 0], [0,0,0,0], [0,9E9,9E9,9E9,9E9,9E9]], vel60, z1, marker\WObj:=WObj0;
    MoveL [[837.818, -1097.931, 196.764], [0.707107, 0, 0.707107, 0], [0,0,0,0], [0,9E9,9E9,9E9,9E9,9E9]], vel60, z1, marker\WObj:=WObj0;
    MoveL [[861.629, -1040.701, 196.764], [0.707107, 0, 0.707107, 0], [0,0,0,0], [0,9E9,9E9,9E9,9E9,9E9]], vel60, z1, marker\WObj:=WObj0;
    MoveL [[827.504, -1077.873, 196.764], [0.707107, 0, 0.707107, 0], [0,0,0,0], [0,9E9,9E9,9E9,9E9,9E9]], vel60, z1, marker\WObj:=WObj0;
    MoveL [[836.22, -1003.466, 196.764], [0.707107, 0, 0.707107, 0], [0,0,0,0], [0,9E9,9E9,9E9,9E9,9E9]], vel60, z1, marker\WObj:=WObj0;
    MoveL [[836.554, -1051.4, 196.764], [0.707107, 0, 0.707107, 0], [0,0,0,0], [0,9E9,9E9,9E9,9E9,9E9]], vel60, z1, marker\WObj:=WObj0;
    MoveL [[810.812, -966.231, 196.764], [0.707107, 0, 0.707107, 0], [0,0,0,0], [0,9E9,9E9,9E9,9E9,9E9]], vel60, z1, marker\WObj:=WObj0;
    MoveL [[825.83, -1025.898, 196.764], [0.707107, 0, 0.707107, 0], [0,0,0,0], [0,9E9,9E9,9E9,9E9,9E9]], vel60, z1, marker\WObj:=WObj0;
    MoveL [[806.577, -960.025, 196.764], [0.707107, 0, 0.707107, 0], [0,0,0,0], [0,9E9,9E9,9E9,9E9,9E9]], vel60, z1, marker\WObj:=WObj0;
    MoveL [[746.679, -1047.802, 196.764], [0.707107, 0, 0.707107, 0], [0,0,0,0], [0,9E9,9E9,9E9,9E9,9E9]], vel60, z1, marker\WObj:=WObj0;
    MoveL [[771.016, -1083.466, 196.764], [0.707107, 0, 0.707107, 0], [0,0,0,0], [0,9E9,9E9,9E9,9E9,9E9]], vel60, z1, marker\WObj:=WObj0;
    MoveL [[722.342, -1083.466, 196.764], [0.707107, 0, 0.707107, 0], [0,0,0,0], [0,9E9,9E9,9E9,9E9,9E9]], vel60, z1, marker\WObj:=WObj0;
    MoveL [[668.496, -1162.374, 196.764], [0.707107, 0, 0.707107, 0], [0,0,0,0], [0,9E9,9E9,9E9,9E9,9E9]], vel60, z1, marker\WObj:=WObj0;
    MoveL [[777.112, -1162.374, 196.764], [0.707107, 0, 0.707107, 0], [0,0,0,0], [0,9E9,9E9,9E9,9E9,9E9]], vel60, z1, marker\WObj:=WObj0;
    MoveL [[806.577, -1119.195, 196.764], [0.707107, 0, 0.707107, 0], [0,0,0,0], [0,9E9,9E9,9E9,9E9,9E9]], vel60, z1, marker\WObj:=WObj0;
    MoveL [[836.042, -1162.374, 196.764], [0.707107, 0, 0.707107, 0], [0,0,0,0], [0,9E9,9E9,9E9,9E9,9E9]], vel60, z1, marker\WObj:=WObj0;
    MoveL [[944.658, -1162.374, 196.764], [0.707107, 0, 0.707107, 0], [0,0,0,0], [0,9E9,9E9,9E9,9E9,9E9]], vel60, z1, marker\WObj:=WObj0;
    MoveL [[890.812, -1083.466, 196.764], [0.707107, 0, 0.707107, 0], [0,0,0,0], [0,9E9,9E9,9E9,9E9,9E9]], vel60, z1, marker\WObj:=WObj0;
    MoveL [[842.138, -1083.466, 196.764], [0.707107, 0, 0.707107, 0], [0,0,0,0], [0,9E9,9E9,9E9,9E9,9E9]], vel60, z1, marker\WObj:=WObj0;
    MoveL [[866.475, -1047.802, 196.764], [0.707107, 0, 0.707107, 0], [0,0,0,0], [0,9E9,9E9,9E9,9E9,9E9]], vel60, z1, marker\WObj:=WObj0;
    MoveL [[806.577, -960.025, 196.764], [0.707107, 0, 0.707107, 0], [0,0,0,0], [0,9E9,9E9,9E9,9E9,9E9]], vel60, z1, marker\WObj:=WObj0;
    MoveL [[803.307, -1005.037, 200.764], [0.707107, 0, 0.707107, 0], [0,0,0,0], [0,9E9,9E9,9E9,9E9,9E9]], vel60, z1, marker\WObj:=WObj0;
    MoveL [[800.46, -1006.87, 200.764], [0.707107, 0, 0.707107, 0], [0,0,0,0], [0,9E9,9E9,9E9,9E9,9E9]], vel60, z1, marker\WObj:=WObj0;
    MoveL [[797.97, -1009.173, 200.764], [0.707107, 0, 0.707107, 0], [0,0,0,0], [0,9E9,9E9,9E9,9E9,9E9]], vel60, z1, marker\WObj:=WObj0;
    MoveL [[795.712, -1011.706, 200.764], [0.707107, 0, 0.707107, 0], [0,0,0,0], [0,9E9,9E9,9E9,9E9,9E9]], vel60, z1, marker\WObj:=WObj0;
    MoveL [[793.6, -1014.362, 200.764], [0.707107, 0, 0.707107, 0], [0,0,0,0], [0,9E9,9E9,9E9,9E9,9E9]], vel60, z1, marker\WObj:=WObj0;
    MoveL [[791.578, -1017.088, 200.764], [0.707107, 0, 0.707107, 0], [0,0,0,0], [0,9E9,9E9,9E9,9E9,9E9]], vel60, z1, marker\WObj:=WObj0;
    MoveL [[789.605, -1019.849, 200.764], [0.707107, 0, 0.707107, 0], [0,0,0,0], [0,9E9,9E9,9E9,9E9,9E9]], vel60, z1, marker\WObj:=WObj0;
    MoveL [[787.647, -1022.621, 200.764], [0.707107, 0, 0.707107, 0], [0,0,0,0], [0,9E9,9E9,9E9,9E9,9E9]], vel60, z1, marker\WObj:=WObj0;
    MoveL [[785.705, -1025.404, 200.764], [0.707107, 0, 0.707107, 0], [0,0,0,0], [0,9E9,9E9,9E9,9E9,9E9]], vel60, z1, marker\WObj:=WObj0;
    MoveL [[783.805, -1028.217, 200.764], [0.707107, 0, 0.707107, 0], [0,0,0,0], [0,9E9,9E9,9E9,9E9,9E9]], vel60, z1, marker\WObj:=WObj0;
    MoveL [[781.981, -1031.078, 200.764], [0.707107, 0, 0.707107, 0], [0,0,0,0], [0,9E9,9E9,9E9,9E9,9E9]], vel60, z1, marker\WObj:=WObj0;
    MoveL [[780.27, -1034.009, 200.764], [0.707107, 0, 0.707107, 0], [0,0,0,0], [0,9E9,9E9,9E9,9E9,9E9]], vel60, z1, marker\WObj:=WObj0;
    MoveL [[778.723, -1037.029, 200.764], [0.707107, 0, 0.707107, 0], [0,0,0,0], [0,9E9,9E9,9E9,9E9,9E9]], vel60, z1, marker\WObj:=WObj0;
    MoveL [[777.409, -1040.157, 200.764], [0.707107, 0, 0.707107, 0], [0,0,0,0], [0,9E9,9E9,9E9,9E9,9E9]], vel60, z1, marker\WObj:=WObj0;
    MoveL [[776.415, -1043.4, 200.764], [0.707107, 0, 0.707107, 0], [0,0,0,0], [0,9E9,9E9,9E9,9E9,9E9]], vel60, z1, marker\WObj:=WObj0;
    MoveL [[775.853, -1046.744, 200.764], [0.707107, 0, 0.707107, 0], [0,0,0,0], [0,9E9,9E9,9E9,9E9,9E9]], vel60, z1, marker\WObj:=WObj0;
    MoveL [[775.801, -1050.135, 200.764], [0.707107, 0, 0.707107, 0], [0,0,0,0], [0,9E9,9E9,9E9,9E9,9E9]], vel60, z1, marker\WObj:=WObj0;
    MoveL [[776.21, -1053.502, 200.764], [0.707107, 0, 0.707107, 0], [0,0,0,0], [0,9E9,9E9,9E9,9E9,9E9]], vel60, z1, marker\WObj:=WObj0;
    MoveL [[776.988, -1056.804, 200.764], [0.707107, 0, 0.707107, 0], [0,0,0,0], [0,9E9,9E9,9E9,9E9,9E9]], vel60, z1, marker\WObj:=WObj0;
    MoveL [[778.043, -1060.029, 200.764], [0.707107, 0, 0.707107, 0], [0,0,0,0], [0,9E9,9E9,9E9,9E9,9E9]], vel60, z1, marker\WObj:=WObj0;
    MoveL [[779.293, -1063.183, 200.764], [0.707107, 0, 0.707107, 0], [0,0,0,0], [0,9E9,9E9,9E9,9E9,9E9]], vel60, z1, marker\WObj:=WObj0;
    MoveL [[780.675, -1066.283, 200.764], [0.707107, 0, 0.707107, 0], [0,0,0,0], [0,9E9,9E9,9E9,9E9,9E9]], vel60, z1, marker\WObj:=WObj0;
    MoveL [[782.134, -1069.348, 200.764], [0.707107, 0, 0.707107, 0], [0,0,0,0], [0,9E9,9E9,9E9,9E9,9E9]], vel60, z1, marker\WObj:=WObj0;
    MoveL [[783.621, -1072.398, 200.764], [0.707107, 0, 0.707107, 0], [0,0,0,0], [0,9E9,9E9,9E9,9E9,9E9]], vel60, z1, marker\WObj:=WObj0;
    MoveL [[785.09, -1075.458, 200.764], [0.707107, 0, 0.707107, 0], [0,0,0,0], [0,9E9,9E9,9E9,9E9,9E9]], vel60, z1, marker\WObj:=WObj0;
    MoveL [[786.485, -1078.551, 200.764], [0.707107, 0, 0.707107, 0], [0,0,0,0], [0,9E9,9E9,9E9,9E9,9E9]], vel60, z1, marker\WObj:=WObj0;
    MoveL [[787.729, -1081.708, 200.764], [0.707107, 0, 0.707107, 0], [0,0,0,0], [0,9E9,9E9,9E9,9E9,9E9]], vel60, z1, marker\WObj:=WObj0;
    MoveL [[788.696, -1084.96, 200.764], [0.707107, 0, 0.707107, 0], [0,0,0,0], [0,9E9,9E9,9E9,9E9,9E9]], vel60, z1, marker\WObj:=WObj0;
    MoveL [[789.137, -1088.318, 200.764], [0.707107, 0, 0.707107, 0], [0,0,0,0], [0,9E9,9E9,9E9,9E9,9E9]], vel60, z1, marker\WObj:=WObj0;
    MoveL [[788.556, -1091.638, 200.764], [0.707107, 0, 0.707107, 0], [0,0,0,0], [0,9E9,9E9,9E9,9E9,9E9]], vel60, z1, marker\WObj:=WObj0;
    MoveL [[786.526, -1094.316, 200.764], [0.707107, 0, 0.707107, 0], [0,0,0,0], [0,9E9,9E9,9E9,9E9,9E9]], vel60, z1, marker\WObj:=WObj0;
    MoveL [[783.64, -1096.083, 200.764], [0.707107, 0, 0.707107, 0], [0,0,0,0], [0,9E9,9E9,9E9,9E9,9E9]], vel60, z1, marker\WObj:=WObj0;
    MoveL [[780.466, -1097.277, 200.764], [0.707107, 0, 0.707107, 0], [0,0,0,0], [0,9E9,9E9,9E9,9E9,9E9]], vel60, z1, marker\WObj:=WObj0;
    MoveL [[777.184, -1098.139, 200.764], [0.707107, 0, 0.707107, 0], [0,0,0,0], [0,9E9,9E9,9E9,9E9,9E9]], vel60, z1, marker\WObj:=WObj0;
    MoveL [[773.856, -1098.801, 200.764], [0.707107, 0, 0.707107, 0], [0,0,0,0], [0,9E9,9E9,9E9,9E9,9E9]], vel60, z1, marker\WObj:=WObj0;
    MoveL [[770.505, -1099.34, 200.764], [0.707107, 0, 0.707107, 0], [0,0,0,0], [0,9E9,9E9,9E9,9E9,9E9]], vel60, z1, marker\WObj:=WObj0;
    MoveL [[767.143, -1099.804, 200.764], [0.707107, 0, 0.707107, 0], [0,0,0,0], [0,9E9,9E9,9E9,9E9,9E9]], vel60, z1, marker\WObj:=WObj0;
    MoveL [[763.777, -1100.233, 200.764], [0.707107, 0, 0.707107, 0], [0,0,0,0], [0,9E9,9E9,9E9,9E9,9E9]], vel60, z1, marker\WObj:=WObj0;
    MoveL [[760.409, -1100.657, 200.764], [0.707107, 0, 0.707107, 0], [0,0,0,0], [0,9E9,9E9,9E9,9E9,9E9]], vel60, z1, marker\WObj:=WObj0;
    MoveL [[757.044, -1101.098, 200.764], [0.707107, 0, 0.707107, 0], [0,0,0,0], [0,9E9,9E9,9E9,9E9,9E9]], vel60, z1, marker\WObj:=WObj0;
    MoveL [[753.684, -1101.578, 200.764], [0.707107, 0, 0.707107, 0], [0,0,0,0], [0,9E9,9E9,9E9,9E9,9E9]], vel60, z1, marker\WObj:=WObj0;
    MoveL [[750.334, -1102.12, 200.764], [0.707107, 0, 0.707107, 0], [0,0,0,0], [0,9E9,9E9,9E9,9E9,9E9]], vel60, z1, marker\WObj:=WObj0;
    MoveL [[747, -1102.753, 200.764], [0.707107, 0, 0.707107, 0], [0,0,0,0], [0,9E9,9E9,9E9,9E9,9E9]], vel60, z1, marker\WObj:=WObj0;
    MoveL [[743.692, -1103.51, 200.764], [0.707107, 0, 0.707107, 0], [0,0,0,0], [0,9E9,9E9,9E9,9E9,9E9]], vel60, z1, marker\WObj:=WObj0;
    MoveL [[740.427, -1104.434, 200.764], [0.707107, 0, 0.707107, 0], [0,0,0,0], [0,9E9,9E9,9E9,9E9,9E9]], vel60, z1, marker\WObj:=WObj0;
    MoveL [[737.234, -1105.582, 200.764], [0.707107, 0, 0.707107, 0], [0,0,0,0], [0,9E9,9E9,9E9,9E9,9E9]], vel60, z1, marker\WObj:=WObj0;
    MoveL [[734.164, -1107.025, 200.764], [0.707107, 0, 0.707107, 0], [0,0,0,0], [0,9E9,9E9,9E9,9E9,9E9]], vel60, z1, marker\WObj:=WObj0;
    MoveL [[731.287, -1108.82, 200.764], [0.707107, 0, 0.707107, 0], [0,0,0,0], [0,9E9,9E9,9E9,9E9,9E9]], vel60, z1, marker\WObj:=WObj0;
    MoveL [[728.643, -1110.946, 200.764], [0.707107, 0, 0.707107, 0], [0,0,0,0], [0,9E9,9E9,9E9,9E9,9E9]], vel60, z1, marker\WObj:=WObj0;
    MoveL [[726.244, -1113.344, 200.764], [0.707107, 0, 0.707107, 0], [0,0,0,0], [0,9E9,9E9,9E9,9E9,9E9]], vel60, z1, marker\WObj:=WObj0;
    MoveL [[724.064, -1115.944, 200.764], [0.707107, 0, 0.707107, 0], [0,0,0,0], [0,9E9,9E9,9E9,9E9,9E9]], vel60, z1, marker\WObj:=WObj0;
    MoveL [[722.057, -1118.68, 200.764], [0.707107, 0, 0.707107, 0], [0,0,0,0], [0,9E9,9E9,9E9,9E9,9E9]], vel60, z1, marker\WObj:=WObj0;
    MoveL [[720.16, -1121.495, 200.764], [0.707107, 0, 0.707107, 0], [0,0,0,0], [0,9E9,9E9,9E9,9E9,9E9]], vel60, z1, marker\WObj:=WObj0;
    MoveL [[718.307, -1124.338, 200.764], [0.707107, 0, 0.707107, 0], [0,0,0,0], [0,9E9,9E9,9E9,9E9,9E9]], vel60, z1, marker\WObj:=WObj0;
    MoveL [[716.489, -1127.204, 200.764], [0.707107, 0, 0.707107, 0], [0,0,0,0], [0,9E9,9E9,9E9,9E9,9E9]], vel60, z1, marker\WObj:=WObj0;
    MoveL [[714.786, -1130.139, 200.764], [0.707107, 0, 0.707107, 0], [0,0,0,0], [0,9E9,9E9,9E9,9E9,9E9]], vel60, z1, marker\WObj:=WObj0;
    MoveL [[713.365, -1133.218, 200.764], [0.707107, 0, 0.707107, 0], [0,0,0,0], [0,9E9,9E9,9E9,9E9,9E9]], vel60, z1, marker\WObj:=WObj0;
    MoveL [[712.682, -1136.524, 200.764], [0.707107, 0, 0.707107, 0], [0,0,0,0], [0,9E9,9E9,9E9,9E9,9E9]], vel60, z1, marker\WObj:=WObj0;
    MoveL [[714.01, -1139.53, 200.764], [0.707107, 0, 0.707107, 0], [0,0,0,0], [0,9E9,9E9,9E9,9E9,9E9]], vel60, z1, marker\WObj:=WObj0;
    MoveL [[717.012, -1141.063, 200.764], [0.707107, 0, 0.707107, 0], [0,0,0,0], [0,9E9,9E9,9E9,9E9,9E9]], vel60, z1, marker\WObj:=WObj0;
    MoveL [[720.318, -1141.814, 200.764], [0.707107, 0, 0.707107, 0], [0,0,0,0], [0,9E9,9E9,9E9,9E9,9E9]], vel60, z1, marker\WObj:=WObj0;
    MoveL [[723.687, -1142.223, 200.764], [0.707107, 0, 0.707107, 0], [0,0,0,0], [0,9E9,9E9,9E9,9E9,9E9]], vel60, z1, marker\WObj:=WObj0;
    MoveL [[727.073, -1142.454, 200.764], [0.707107, 0, 0.707107, 0], [0,0,0,0], [0,9E9,9E9,9E9,9E9,9E9]], vel60, z1, marker\WObj:=WObj0;
    MoveL [[730.464, -1142.585, 200.764], [0.707107, 0, 0.707107, 0], [0,0,0,0], [0,9E9,9E9,9E9,9E9,9E9]], vel60, z1, marker\WObj:=WObj0;
    MoveL [[733.857, -1142.663, 200.764], [0.707107, 0, 0.707107, 0], [0,0,0,0], [0,9E9,9E9,9E9,9E9,9E9]], vel60, z1, marker\WObj:=WObj0;
    MoveL [[737.25, -1142.722, 200.764], [0.707107, 0, 0.707107, 0], [0,0,0,0], [0,9E9,9E9,9E9,9E9,9E9]], vel60, z1, marker\WObj:=WObj0;
    MoveL [[740.644, -1142.762, 200.764], [0.707107, 0, 0.707107, 0], [0,0,0,0], [0,9E9,9E9,9E9,9E9,9E9]], vel60, z1, marker\WObj:=WObj0;
    MoveL [[744.038, -1142.749, 200.764], [0.707107, 0, 0.707107, 0], [0,0,0,0], [0,9E9,9E9,9E9,9E9,9E9]], vel60, z1, marker\WObj:=WObj0;
    MoveL [[747.43, -1142.642, 200.764], [0.707107, 0, 0.707107, 0], [0,0,0,0], [0,9E9,9E9,9E9,9E9,9E9]], vel60, z1, marker\WObj:=WObj0;
    MoveL [[750.814, -1142.397, 200.764], [0.707107, 0, 0.707107, 0], [0,0,0,0], [0,9E9,9E9,9E9,9E9,9E9]], vel60, z1, marker\WObj:=WObj0;
    MoveL [[754.18, -1141.966, 200.764], [0.707107, 0, 0.707107, 0], [0,0,0,0], [0,9E9,9E9,9E9,9E9,9E9]], vel60, z1, marker\WObj:=WObj0;
    MoveL [[757.507, -1141.3, 200.764], [0.707107, 0, 0.707107, 0], [0,0,0,0], [0,9E9,9E9,9E9,9E9,9E9]], vel60, z1, marker\WObj:=WObj0;
    MoveL [[760.764, -1140.35, 200.764], [0.707107, 0, 0.707107, 0], [0,0,0,0], [0,9E9,9E9,9E9,9E9,9E9]], vel60, z1, marker\WObj:=WObj0;
    MoveL [[763.907, -1139.073, 200.764], [0.707107, 0, 0.707107, 0], [0,0,0,0], [0,9E9,9E9,9E9,9E9,9E9]], vel60, z1, marker\WObj:=WObj0;
    MoveL [[766.894, -1137.466, 200.764], [0.707107, 0, 0.707107, 0], [0,0,0,0], [0,9E9,9E9,9E9,9E9,9E9]], vel60, z1, marker\WObj:=WObj0;
    MoveL [[769.719, -1135.587, 200.764], [0.707107, 0, 0.707107, 0], [0,0,0,0], [0,9E9,9E9,9E9,9E9,9E9]], vel60, z1, marker\WObj:=WObj0;
    MoveL [[772.396, -1133.501, 200.764], [0.707107, 0, 0.707107, 0], [0,0,0,0], [0,9E9,9E9,9E9,9E9,9E9]], vel60, z1, marker\WObj:=WObj0;
    MoveL [[774.944, -1131.26, 200.764], [0.707107, 0, 0.707107, 0], [0,0,0,0], [0,9E9,9E9,9E9,9E9,9E9]], vel60, z1, marker\WObj:=WObj0;
    MoveL [[777.387, -1128.905, 200.764], [0.707107, 0, 0.707107, 0], [0,0,0,0], [0,9E9,9E9,9E9,9E9,9E9]], vel60, z1, marker\WObj:=WObj0;
    MoveL [[779.75, -1126.469, 200.764], [0.707107, 0, 0.707107, 0], [0,0,0,0], [0,9E9,9E9,9E9,9E9,9E9]], vel60, z1, marker\WObj:=WObj0;
    MoveL [[782.056, -1123.978, 200.764], [0.707107, 0, 0.707107, 0], [0,0,0,0], [0,9E9,9E9,9E9,9E9,9E9]], vel60, z1, marker\WObj:=WObj0;
    MoveL [[784.326, -1121.456, 200.764], [0.707107, 0, 0.707107, 0], [0,0,0,0], [0,9E9,9E9,9E9,9E9,9E9]], vel60, z1, marker\WObj:=WObj0;
    MoveL [[786.583, -1118.921, 200.764], [0.707107, 0, 0.707107, 0], [0,0,0,0], [0,9E9,9E9,9E9,9E9,9E9]], vel60, z1, marker\WObj:=WObj0;
    MoveL [[788.851, -1116.396, 200.764], [0.707107, 0, 0.707107, 0], [0,0,0,0], [0,9E9,9E9,9E9,9E9,9E9]], vel60, z1, marker\WObj:=WObj0;
    MoveL [[791.16, -1113.91, 200.764], [0.707107, 0, 0.707107, 0], [0,0,0,0], [0,9E9,9E9,9E9,9E9,9E9]], vel60, z1, marker\WObj:=WObj0;
    MoveL [[793.547, -1111.497, 200.764], [0.707107, 0, 0.707107, 0], [0,0,0,0], [0,9E9,9E9,9E9,9E9,9E9]], vel60, z1, marker\WObj:=WObj0;
    MoveL [[796.055, -1109.212, 200.764], [0.707107, 0, 0.707107, 0], [0,0,0,0], [0,9E9,9E9,9E9,9E9,9E9]], vel60, z1, marker\WObj:=WObj0;
    MoveL [[798.741, -1107.139, 200.764], [0.707107, 0, 0.707107, 0], [0,0,0,0], [0,9E9,9E9,9E9,9E9,9E9]], vel60, z1, marker\WObj:=WObj0;
    MoveL [[801.671, -1105.435, 200.764], [0.707107, 0, 0.707107, 0], [0,0,0,0], [0,9E9,9E9,9E9,9E9,9E9]], vel60, z1, marker\WObj:=WObj0;
    MoveL [[804.889, -1104.386, 200.764], [0.707107, 0, 0.707107, 0], [0,0,0,0], [0,9E9,9E9,9E9,9E9,9E9]], vel60, z1, marker\WObj:=WObj0;
    MoveL [[808.265, -1104.386, 200.764], [0.707107, 0, 0.707107, 0], [0,0,0,0], [0,9E9,9E9,9E9,9E9,9E9]], vel60, z1, marker\WObj:=WObj0;
    MoveL [[811.483, -1105.435, 200.764], [0.707107, 0, 0.707107, 0], [0,0,0,0], [0,9E9,9E9,9E9,9E9,9E9]], vel60, z1, marker\WObj:=WObj0;
    MoveL [[814.413, -1107.139, 200.764], [0.707107, 0, 0.707107, 0], [0,0,0,0], [0,9E9,9E9,9E9,9E9,9E9]], vel60, z1, marker\WObj:=WObj0;
    MoveL [[817.099, -1109.212, 200.764], [0.707107, 0, 0.707107, 0], [0,0,0,0], [0,9E9,9E9,9E9,9E9,9E9]], vel60, z1, marker\WObj:=WObj0;
    MoveL [[819.607, -1111.497, 200.764], [0.707107, 0, 0.707107, 0], [0,0,0,0], [0,9E9,9E9,9E9,9E9,9E9]], vel60, z1, marker\WObj:=WObj0;
    MoveL [[821.994, -1113.91, 200.764], [0.707107, 0, 0.707107, 0], [0,0,0,0], [0,9E9,9E9,9E9,9E9,9E9]], vel60, z1, marker\WObj:=WObj0;
    MoveL [[824.303, -1116.396, 200.764], [0.707107, 0, 0.707107, 0], [0,0,0,0], [0,9E9,9E9,9E9,9E9,9E9]], vel60, z1, marker\WObj:=WObj0;
    MoveL [[826.571, -1118.921, 200.764], [0.707107, 0, 0.707107, 0], [0,0,0,0], [0,9E9,9E9,9E9,9E9,9E9]], vel60, z1, marker\WObj:=WObj0;
    MoveL [[828.828, -1121.456, 200.764], [0.707107, 0, 0.707107, 0], [0,0,0,0], [0,9E9,9E9,9E9,9E9,9E9]], vel60, z1, marker\WObj:=WObj0;
    MoveL [[831.098, -1123.978, 200.764], [0.707107, 0, 0.707107, 0], [0,0,0,0], [0,9E9,9E9,9E9,9E9,9E9]], vel60, z1, marker\WObj:=WObj0;
    MoveL [[833.404, -1126.469, 200.764], [0.707107, 0, 0.707107, 0], [0,0,0,0], [0,9E9,9E9,9E9,9E9,9E9]], vel60, z1, marker\WObj:=WObj0;
    MoveL [[835.767, -1128.905, 200.764], [0.707107, 0, 0.707107, 0], [0,0,0,0], [0,9E9,9E9,9E9,9E9,9E9]], vel60, z1, marker\WObj:=WObj0;
    MoveL [[838.21, -1131.26, 200.764], [0.707107, 0, 0.707107, 0], [0,0,0,0], [0,9E9,9E9,9E9,9E9,9E9]], vel60, z1, marker\WObj:=WObj0;
    MoveL [[840.758, -1133.501, 200.764], [0.707107, 0, 0.707107, 0], [0,0,0,0], [0,9E9,9E9,9E9,9E9,9E9]], vel60, z1, marker\WObj:=WObj0;
    MoveL [[843.435, -1135.587, 200.764], [0.707107, 0, 0.707107, 0], [0,0,0,0], [0,9E9,9E9,9E9,9E9,9E9]], vel60, z1, marker\WObj:=WObj0;
    MoveL [[846.26, -1137.466, 200.764], [0.707107, 0, 0.707107, 0], [0,0,0,0], [0,9E9,9E9,9E9,9E9,9E9]], vel60, z1, marker\WObj:=WObj0;
    MoveL [[849.247, -1139.073, 200.764], [0.707107, 0, 0.707107, 0], [0,0,0,0], [0,9E9,9E9,9E9,9E9,9E9]], vel60, z1, marker\WObj:=WObj0;
    MoveL [[852.39, -1140.35, 200.764], [0.707107, 0, 0.707107, 0], [0,0,0,0], [0,9E9,9E9,9E9,9E9,9E9]], vel60, z1, marker\WObj:=WObj0;
    MoveL [[855.647, -1141.3, 200.764], [0.707107, 0, 0.707107, 0], [0,0,0,0], [0,9E9,9E9,9E9,9E9,9E9]], vel60, z1, marker\WObj:=WObj0;
    MoveL [[858.974, -1141.966, 200.764], [0.707107, 0, 0.707107, 0], [0,0,0,0], [0,9E9,9E9,9E9,9E9,9E9]], vel60, z1, marker\WObj:=WObj0;
    MoveL [[862.34, -1142.397, 200.764], [0.707107, 0, 0.707107, 0], [0,0,0,0], [0,9E9,9E9,9E9,9E9,9E9]], vel60, z1, marker\WObj:=WObj0;
    MoveL [[865.724, -1142.642, 200.764], [0.707107, 0, 0.707107, 0], [0,0,0,0], [0,9E9,9E9,9E9,9E9,9E9]], vel60, z1, marker\WObj:=WObj0;
    MoveL [[869.116, -1142.749, 200.764], [0.707107, 0, 0.707107, 0], [0,0,0,0], [0,9E9,9E9,9E9,9E9,9E9]], vel60, z1, marker\WObj:=WObj0;
    MoveL [[872.51, -1142.762, 200.764], [0.707107, 0, 0.707107, 0], [0,0,0,0], [0,9E9,9E9,9E9,9E9,9E9]], vel60, z1, marker\WObj:=WObj0;
    MoveL [[875.904, -1142.722, 200.764], [0.707107, 0, 0.707107, 0], [0,0,0,0], [0,9E9,9E9,9E9,9E9,9E9]], vel60, z1, marker\WObj:=WObj0;
    MoveL [[879.297, -1142.663, 200.764], [0.707107, 0, 0.707107, 0], [0,0,0,0], [0,9E9,9E9,9E9,9E9,9E9]], vel60, z1, marker\WObj:=WObj0;
    MoveL [[882.69, -1142.585, 200.764], [0.707107, 0, 0.707107, 0], [0,0,0,0], [0,9E9,9E9,9E9,9E9,9E9]], vel60, z1, marker\WObj:=WObj0;
    MoveL [[886.081, -1142.454, 200.764], [0.707107, 0, 0.707107, 0], [0,0,0,0], [0,9E9,9E9,9E9,9E9,9E9]], vel60, z1, marker\WObj:=WObj0;
    MoveL [[889.467, -1142.223, 200.764], [0.707107, 0, 0.707107, 0], [0,0,0,0], [0,9E9,9E9,9E9,9E9,9E9]], vel60, z1, marker\WObj:=WObj0;
    MoveL [[892.836, -1141.814, 200.764], [0.707107, 0, 0.707107, 0], [0,0,0,0], [0,9E9,9E9,9E9,9E9,9E9]], vel60, z1, marker\WObj:=WObj0;
    MoveL [[896.142, -1141.063, 200.764], [0.707107, 0, 0.707107, 0], [0,0,0,0], [0,9E9,9E9,9E9,9E9,9E9]], vel60, z1, marker\WObj:=WObj0;
    MoveL [[899.144, -1139.53, 200.764], [0.707107, 0, 0.707107, 0], [0,0,0,0], [0,9E9,9E9,9E9,9E9,9E9]], vel60, z1, marker\WObj:=WObj0;
    MoveL [[900.472, -1136.524, 200.764], [0.707107, 0, 0.707107, 0], [0,0,0,0], [0,9E9,9E9,9E9,9E9,9E9]], vel60, z1, marker\WObj:=WObj0;
    MoveL [[899.789, -1133.218, 200.764], [0.707107, 0, 0.707107, 0], [0,0,0,0], [0,9E9,9E9,9E9,9E9,9E9]], vel60, z1, marker\WObj:=WObj0;
    MoveL [[898.367, -1130.139, 200.764], [0.707107, 0, 0.707107, 0], [0,0,0,0], [0,9E9,9E9,9E9,9E9,9E9]], vel60, z1, marker\WObj:=WObj0;
    MoveL [[896.665, -1127.204, 200.764], [0.707107, 0, 0.707107, 0], [0,0,0,0], [0,9E9,9E9,9E9,9E9,9E9]], vel60, z1, marker\WObj:=WObj0;
    MoveL [[894.847, -1124.338, 200.764], [0.707107, 0, 0.707107, 0], [0,0,0,0], [0,9E9,9E9,9E9,9E9,9E9]], vel60, z1, marker\WObj:=WObj0;
    MoveL [[892.994, -1121.495, 200.764], [0.707107, 0, 0.707107, 0], [0,0,0,0], [0,9E9,9E9,9E9,9E9,9E9]], vel60, z1, marker\WObj:=WObj0;
    MoveL [[891.097, -1118.68, 200.764], [0.707107, 0, 0.707107, 0], [0,0,0,0], [0,9E9,9E9,9E9,9E9,9E9]], vel60, z1, marker\WObj:=WObj0;
    MoveL [[889.09, -1115.944, 200.764], [0.707107, 0, 0.707107, 0], [0,0,0,0], [0,9E9,9E9,9E9,9E9,9E9]], vel60, z1, marker\WObj:=WObj0;
    MoveL [[886.91, -1113.344, 200.764], [0.707107, 0, 0.707107, 0], [0,0,0,0], [0,9E9,9E9,9E9,9E9,9E9]], vel60, z1, marker\WObj:=WObj0;
    MoveL [[884.511, -1110.946, 200.764], [0.707107, 0, 0.707107, 0], [0,0,0,0], [0,9E9,9E9,9E9,9E9,9E9]], vel60, z1, marker\WObj:=WObj0;
    MoveL [[881.867, -1108.82, 200.764], [0.707107, 0, 0.707107, 0], [0,0,0,0], [0,9E9,9E9,9E9,9E9,9E9]], vel60, z1, marker\WObj:=WObj0;
    MoveL [[878.99, -1107.025, 200.764], [0.707107, 0, 0.707107, 0], [0,0,0,0], [0,9E9,9E9,9E9,9E9,9E9]], vel60, z1, marker\WObj:=WObj0;
    MoveL [[875.92, -1105.582, 200.764], [0.707107, 0, 0.707107, 0], [0,0,0,0], [0,9E9,9E9,9E9,9E9,9E9]], vel60, z1, marker\WObj:=WObj0;
    MoveL [[872.727, -1104.434, 200.764], [0.707107, 0, 0.707107, 0], [0,0,0,0], [0,9E9,9E9,9E9,9E9,9E9]], vel60, z1, marker\WObj:=WObj0;
    MoveL [[869.462, -1103.51, 200.764], [0.707107, 0, 0.707107, 0], [0,0,0,0], [0,9E9,9E9,9E9,9E9,9E9]], vel60, z1, marker\WObj:=WObj0;
    MoveL [[866.154, -1102.753, 200.764], [0.707107, 0, 0.707107, 0], [0,0,0,0], [0,9E9,9E9,9E9,9E9,9E9]], vel60, z1, marker\WObj:=WObj0;
    MoveL [[862.82, -1102.12, 200.764], [0.707107, 0, 0.707107, 0], [0,0,0,0], [0,9E9,9E9,9E9,9E9,9E9]], vel60, z1, marker\WObj:=WObj0;
    MoveL [[859.47, -1101.578, 200.764], [0.707107, 0, 0.707107, 0], [0,0,0,0], [0,9E9,9E9,9E9,9E9,9E9]], vel60, z1, marker\WObj:=WObj0;
    MoveL [[856.11, -1101.098, 200.764], [0.707107, 0, 0.707107, 0], [0,0,0,0], [0,9E9,9E9,9E9,9E9,9E9]], vel60, z1, marker\WObj:=WObj0;
    MoveL [[852.745, -1100.657, 200.764], [0.707107, 0, 0.707107, 0], [0,0,0,0], [0,9E9,9E9,9E9,9E9,9E9]], vel60, z1, marker\WObj:=WObj0;
    MoveL [[849.377, -1100.233, 200.764], [0.707107, 0, 0.707107, 0], [0,0,0,0], [0,9E9,9E9,9E9,9E9,9E9]], vel60, z1, marker\WObj:=WObj0;
    MoveL [[846.011, -1099.804, 200.764], [0.707107, 0, 0.707107, 0], [0,0,0,0], [0,9E9,9E9,9E9,9E9,9E9]], vel60, z1, marker\WObj:=WObj0;
    MoveL [[842.649, -1099.34, 200.764], [0.707107, 0, 0.707107, 0], [0,0,0,0], [0,9E9,9E9,9E9,9E9,9E9]], vel60, z1, marker\WObj:=WObj0;
    MoveL [[839.298, -1098.801, 200.764], [0.707107, 0, 0.707107, 0], [0,0,0,0], [0,9E9,9E9,9E9,9E9,9E9]], vel60, z1, marker\WObj:=WObj0;
    MoveL [[835.97, -1098.139, 200.764], [0.707107, 0, 0.707107, 0], [0,0,0,0], [0,9E9,9E9,9E9,9E9,9E9]], vel60, z1, marker\WObj:=WObj0;
    MoveL [[832.688, -1097.277, 200.764], [0.707107, 0, 0.707107, 0], [0,0,0,0], [0,9E9,9E9,9E9,9E9,9E9]], vel60, z1, marker\WObj:=WObj0;
    MoveL [[829.514, -1096.083, 200.764], [0.707107, 0, 0.707107, 0], [0,0,0,0], [0,9E9,9E9,9E9,9E9,9E9]], vel60, z1, marker\WObj:=WObj0;
    MoveL [[826.628, -1094.316, 200.764], [0.707107, 0, 0.707107, 0], [0,0,0,0], [0,9E9,9E9,9E9,9E9,9E9]], vel60, z1, marker\WObj:=WObj0;
    MoveL [[824.598, -1091.638, 200.764], [0.707107, 0, 0.707107, 0], [0,0,0,0], [0,9E9,9E9,9E9,9E9,9E9]], vel60, z1, marker\WObj:=WObj0;
    MoveL [[824.017, -1088.318, 200.764], [0.707107, 0, 0.707107, 0], [0,0,0,0], [0,9E9,9E9,9E9,9E9,9E9]], vel60, z1, marker\WObj:=WObj0;
    MoveL [[824.458, -1084.96, 200.764], [0.707107, 0, 0.707107, 0], [0,0,0,0], [0,9E9,9E9,9E9,9E9,9E9]], vel60, z1, marker\WObj:=WObj0;
    MoveL [[825.425, -1081.708, 200.764], [0.707107, 0, 0.707107, 0], [0,0,0,0], [0,9E9,9E9,9E9,9E9,9E9]], vel60, z1, marker\WObj:=WObj0;
    MoveL [[826.669, -1078.551, 200.764], [0.707107, 0, 0.707107, 0], [0,0,0,0], [0,9E9,9E9,9E9,9E9,9E9]], vel60, z1, marker\WObj:=WObj0;
    MoveL [[828.064, -1075.458, 200.764], [0.707107, 0, 0.707107, 0], [0,0,0,0], [0,9E9,9E9,9E9,9E9,9E9]], vel60, z1, marker\WObj:=WObj0;
    MoveL [[829.533, -1072.398, 200.764], [0.707107, 0, 0.707107, 0], [0,0,0,0], [0,9E9,9E9,9E9,9E9,9E9]], vel60, z1, marker\WObj:=WObj0;
    MoveL [[831.02, -1069.348, 200.764], [0.707107, 0, 0.707107, 0], [0,0,0,0], [0,9E9,9E9,9E9,9E9,9E9]], vel60, z1, marker\WObj:=WObj0;
    MoveL [[832.479, -1066.283, 200.764], [0.707107, 0, 0.707107, 0], [0,0,0,0], [0,9E9,9E9,9E9,9E9,9E9]], vel60, z1, marker\WObj:=WObj0;
    MoveL [[833.861, -1063.183, 200.764], [0.707107, 0, 0.707107, 0], [0,0,0,0], [0,9E9,9E9,9E9,9E9,9E9]], vel60, z1, marker\WObj:=WObj0;
    MoveL [[835.111, -1060.029, 200.764], [0.707107, 0, 0.707107, 0], [0,0,0,0], [0,9E9,9E9,9E9,9E9,9E9]], vel60, z1, marker\WObj:=WObj0;
    MoveL [[836.166, -1056.804, 200.764], [0.707107, 0, 0.707107, 0], [0,0,0,0], [0,9E9,9E9,9E9,9E9,9E9]], vel60, z1, marker\WObj:=WObj0;
    MoveL [[836.944, -1053.502, 200.764], [0.707107, 0, 0.707107, 0], [0,0,0,0], [0,9E9,9E9,9E9,9E9,9E9]], vel60, z1, marker\WObj:=WObj0;
    MoveL [[837.353, -1050.135, 200.764], [0.707107, 0, 0.707107, 0], [0,0,0,0], [0,9E9,9E9,9E9,9E9,9E9]], vel60, z1, marker\WObj:=WObj0;
    MoveL [[837.301, -1046.744, 200.764], [0.707107, 0, 0.707107, 0], [0,0,0,0], [0,9E9,9E9,9E9,9E9,9E9]], vel60, z1, marker\WObj:=WObj0;
    MoveL [[836.739, -1043.4, 200.764], [0.707107, 0, 0.707107, 0], [0,0,0,0], [0,9E9,9E9,9E9,9E9,9E9]], vel60, z1, marker\WObj:=WObj0;
    MoveL [[835.745, -1040.157, 200.764], [0.707107, 0, 0.707107, 0], [0,0,0,0], [0,9E9,9E9,9E9,9E9,9E9]], vel60, z1, marker\WObj:=WObj0;
    MoveL [[834.431, -1037.029, 200.764], [0.707107, 0, 0.707107, 0], [0,0,0,0], [0,9E9,9E9,9E9,9E9,9E9]], vel60, z1, marker\WObj:=WObj0;
    MoveL [[832.884, -1034.009, 200.764], [0.707107, 0, 0.707107, 0], [0,0,0,0], [0,9E9,9E9,9E9,9E9,9E9]], vel60, z1, marker\WObj:=WObj0;
    MoveL [[831.173, -1031.078, 200.764], [0.707107, 0, 0.707107, 0], [0,0,0,0], [0,9E9,9E9,9E9,9E9,9E9]], vel60, z1, marker\WObj:=WObj0;
    MoveL [[829.349, -1028.217, 200.764], [0.707107, 0, 0.707107, 0], [0,0,0,0], [0,9E9,9E9,9E9,9E9,9E9]], vel60, z1, marker\WObj:=WObj0;
    MoveL [[827.449, -1025.404, 200.764], [0.707107, 0, 0.707107, 0], [0,0,0,0], [0,9E9,9E9,9E9,9E9,9E9]], vel60, z1, marker\WObj:=WObj0;
    MoveL [[825.507, -1022.621, 200.764], [0.707107, 0, 0.707107, 0], [0,0,0,0], [0,9E9,9E9,9E9,9E9,9E9]], vel60, z1, marker\WObj:=WObj0;
    MoveL [[823.549, -1019.849, 200.764], [0.707107, 0, 0.707107, 0], [0,0,0,0], [0,9E9,9E9,9E9,9E9,9E9]], vel60, z1, marker\WObj:=WObj0;
    MoveL [[821.576, -1017.088, 200.764], [0.707107, 0, 0.707107, 0], [0,0,0,0], [0,9E9,9E9,9E9,9E9,9E9]], vel60, z1, marker\WObj:=WObj0;
    MoveL [[819.554, -1014.362, 200.764], [0.707107, 0, 0.707107, 0], [0,0,0,0], [0,9E9,9E9,9E9,9E9,9E9]], vel60, z1, marker\WObj:=WObj0;
    MoveL [[817.442, -1011.706, 200.764], [0.707107, 0, 0.707107, 0], [0,0,0,0], [0,9E9,9E9,9E9,9E9,9E9]], vel60, z1, marker\WObj:=WObj0;
    MoveL [[815.184, -1009.173, 200.764], [0.707107, 0, 0.707107, 0], [0,0,0,0], [0,9E9,9E9,9E9,9E9,9E9]], vel60, z1, marker\WObj:=WObj0;
    MoveL [[812.694, -1006.87, 200.764], [0.707107, 0, 0.707107, 0], [0,0,0,0], [0,9E9,9E9,9E9,9E9,9E9]], vel60, z1, marker\WObj:=WObj0;
    MoveL [[809.847, -1005.037, 200.764], [0.707107, 0, 0.707107, 0], [0,0,0,0], [0,9E9,9E9,9E9,9E9,9E9]], vel60, z1, marker\WObj:=WObj0;
    MoveL [[803.307, -1005.037, 200.764], [0.707107, 0, 0.707107, 0], [0,0,0,0], [0,9E9,9E9,9E9,9E9,9E9]], vel60, z1, marker\WObj:=WObj0;
    MoveL [[780.684, -996.507, 200.764], [0.707107, 0, 0.707107, 0], [0,0,0,0], [0,9E9,9E9,9E9,9E9,9E9]], vel60, z1, marker\WObj:=WObj0;
    MoveL [[786.441, -1024.342, 200.764], [0.707107, 0, 0.707107, 0], [0,0,0,0], [0,9E9,9E9,9E9,9E9,9E9]], vel60, z1, marker\WObj:=WObj0;
    MoveL [[754.792, -1034.451, 200.764], [0.707107, 0, 0.707107, 0], [0,0,0,0], [0,9E9,9E9,9E9,9E9,9E9]], vel60, z1, marker\WObj:=WObj0;
    MoveL [[775.86, -1050.941, 200.764], [0.707107, 0, 0.707107, 0], [0,0,0,0], [0,9E9,9E9,9E9,9E9,9E9]], vel60, z1, marker\WObj:=WObj0;
    MoveL [[764.459, -1072.395, 200.764], [0.707107, 0, 0.707107, 0], [0,0,0,0], [0,9E9,9E9,9E9,9E9,9E9]], vel60, z1, marker\WObj:=WObj0;
    MoveL [[786.292, -1078.106, 200.764], [0.707107, 0, 0.707107, 0], [0,0,0,0], [0,9E9,9E9,9E9,9E9,9E9]], vel60, z1, marker\WObj:=WObj0;
    MoveL [[741.042, -1084.29, 200.764], [0.707107, 0, 0.707107, 0], [0,0,0,0], [0,9E9,9E9,9E9,9E9,9E9]], vel60, z1, marker\WObj:=WObj0;
    MoveL [[775.603, -1098.474, 200.764], [0.707107, 0, 0.707107, 0], [0,0,0,0], [0,9E9,9E9,9E9,9E9,9E9]], vel60, z1, marker\WObj:=WObj0;
    MoveL [[706.309, -1105.499, 200.764], [0.707107, 0, 0.707107, 0], [0,0,0,0], [0,9E9,9E9,9E9,9E9,9E9]], vel60, z1, marker\WObj:=WObj0;
    MoveL [[746.684, -1102.819, 200.764], [0.707107, 0, 0.707107, 0], [0,0,0,0], [0,9E9,9E9,9E9,9E9,9E9]], vel60, z1, marker\WObj:=WObj0;
    MoveL [[680.416, -1143.443, 200.764], [0.707107, 0, 0.707107, 0], [0,0,0,0], [0,9E9,9E9,9E9,9E9,9E9]], vel60, z1, marker\WObj:=WObj0;
    MoveL [[722.616, -1117.888, 200.764], [0.707107, 0, 0.707107, 0], [0,0,0,0], [0,9E9,9E9,9E9,9E9,9E9]], vel60, z1, marker\WObj:=WObj0;
    MoveL [[688.957, -1163.198, 200.764], [0.707107, 0, 0.707107, 0], [0,0,0,0], [0,9E9,9E9,9E9,9E9,9E9]], vel60, z1, marker\WObj:=WObj0;
    MoveL [[718.101, -1141.368, 200.764], [0.707107, 0, 0.707107, 0], [0,0,0,0], [0,9E9,9E9,9E9,9E9,9E9]], vel60, z1, marker\WObj:=WObj0;
    MoveL [[734.893, -1163.198, 200.764], [0.707107, 0, 0.707107, 0], [0,0,0,0], [0,9E9,9E9,9E9,9E9,9E9]], vel60, z1, marker\WObj:=WObj0;
    MoveL [[747.268, -1142.65, 200.764], [0.707107, 0, 0.707107, 0], [0,0,0,0], [0,9E9,9E9,9E9,9E9,9E9]], vel60, z1, marker\WObj:=WObj0;
    MoveL [[778.527, -1158.839, 200.764], [0.707107, 0, 0.707107, 0], [0,0,0,0], [0,9E9,9E9,9E9,9E9,9E9]], vel60, z1, marker\WObj:=WObj0;
    MoveL [[773.866, -1132.237, 200.764], [0.707107, 0, 0.707107, 0], [0,0,0,0], [0,9E9,9E9,9E9,9E9,9E9]], vel60, z1, marker\WObj:=WObj0;
    MoveL [[804.419, -1120.895, 200.764], [0.707107, 0, 0.707107, 0], [0,0,0,0], [0,9E9,9E9,9E9,9E9,9E9]], vel60, z1, marker\WObj:=WObj0;
    MoveL [[794.014, -1111.05, 200.764], [0.707107, 0, 0.707107, 0], [0,0,0,0], [0,9E9,9E9,9E9,9E9,9E9]], vel60, z1, marker\WObj:=WObj0;
    MoveL [[830.312, -1152.515, 200.764], [0.707107, 0, 0.707107, 0], [0,0,0,0], [0,9E9,9E9,9E9,9E9,9E9]], vel60, z1, marker\WObj:=WObj0;
    MoveL [[819.14, -1111.05, 200.764], [0.707107, 0, 0.707107, 0], [0,0,0,0], [0,9E9,9E9,9E9,9E9,9E9]], vel60, z1, marker\WObj:=WObj0;
    MoveL [[870.605, -1163.198, 200.764], [0.707107, 0, 0.707107, 0], [0,0,0,0], [0,9E9,9E9,9E9,9E9,9E9]], vel60, z1, marker\WObj:=WObj0;
    MoveL [[839.288, -1132.237, 200.764], [0.707107, 0, 0.707107, 0], [0,0,0,0], [0,9E9,9E9,9E9,9E9,9E9]], vel60, z1, marker\WObj:=WObj0;
    MoveL [[916.541, -1163.198, 200.764], [0.707107, 0, 0.707107, 0], [0,0,0,0], [0,9E9,9E9,9E9,9E9,9E9]], vel60, z1, marker\WObj:=WObj0;
    MoveL [[865.886, -1142.65, 200.764], [0.707107, 0, 0.707107, 0], [0,0,0,0], [0,9E9,9E9,9E9,9E9,9E9]], vel60, z1, marker\WObj:=WObj0;
    MoveL [[937.053, -1149.767, 200.764], [0.707107, 0, 0.707107, 0], [0,0,0,0], [0,9E9,9E9,9E9,9E9,9E9]], vel60, z1, marker\WObj:=WObj0;
    MoveL [[895.053, -1141.368, 200.764], [0.707107, 0, 0.707107, 0], [0,0,0,0], [0,9E9,9E9,9E9,9E9,9E9]], vel60, z1, marker\WObj:=WObj0;
    MoveL [[911.161, -1111.823, 200.764], [0.707107, 0, 0.707107, 0], [0,0,0,0], [0,9E9,9E9,9E9,9E9,9E9]], vel60, z1, marker\WObj:=WObj0;
    MoveL [[890.538, -1117.888, 200.764], [0.707107, 0, 0.707107, 0], [0,0,0,0], [0,9E9,9E9,9E9,9E9,9E9]], vel60, z1, marker\WObj:=WObj0;
    MoveL [[879.769, -1084.29, 200.764], [0.707107, 0, 0.707107, 0], [0,0,0,0], [0,9E9,9E9,9E9,9E9,9E9]], vel60, z1, marker\WObj:=WObj0;
    MoveL [[866.47, -1102.819, 200.764], [0.707107, 0, 0.707107, 0], [0,0,0,0], [0,9E9,9E9,9E9,9E9,9E9]], vel60, z1, marker\WObj:=WObj0;
    MoveL [[844.38, -1078.719, 200.764], [0.707107, 0, 0.707107, 0], [0,0,0,0], [0,9E9,9E9,9E9,9E9,9E9]], vel60, z1, marker\WObj:=WObj0;
    MoveL [[837.551, -1098.474, 200.764], [0.707107, 0, 0.707107, 0], [0,0,0,0], [0,9E9,9E9,9E9,9E9,9E9]], vel60, z1, marker\WObj:=WObj0;
    MoveL [[862.677, -1040.775, 200.764], [0.707107, 0, 0.707107, 0], [0,0,0,0], [0,9E9,9E9,9E9,9E9,9E9]], vel60, z1, marker\WObj:=WObj0;
    MoveL [[826.862, -1078.106, 200.764], [0.707107, 0, 0.707107, 0], [0,0,0,0], [0,9E9,9E9,9E9,9E9,9E9]], vel60, z1, marker\WObj:=WObj0;
    MoveL [[836.785, -1002.831, 200.764], [0.707107, 0, 0.707107, 0], [0,0,0,0], [0,9E9,9E9,9E9,9E9,9E9]], vel60, z1, marker\WObj:=WObj0;
    MoveL [[837.294, -1050.941, 200.764], [0.707107, 0, 0.707107, 0], [0,0,0,0], [0,9E9,9E9,9E9,9E9,9E9]], vel60, z1, marker\WObj:=WObj0;
    MoveL [[810.892, -964.887, 200.764], [0.707107, 0, 0.707107, 0], [0,0,0,0], [0,9E9,9E9,9E9,9E9,9E9]], vel60, z1, marker\WObj:=WObj0;
    MoveL [[826.713, -1024.342, 200.764], [0.707107, 0, 0.707107, 0], [0,0,0,0], [0,9E9,9E9,9E9,9E9,9E9]], vel60, z1, marker\WObj:=WObj0;
    MoveL [[806.577, -958.563, 200.764], [0.707107, 0, 0.707107, 0], [0,0,0,0], [0,9E9,9E9,9E9,9E9,9E9]], vel60, z1, marker\WObj:=WObj0;
    MoveL [[746.679, -1046.34, 200.764], [0.707107, 0, 0.707107, 0], [0,0,0,0], [0,9E9,9E9,9E9,9E9,9E9]], vel60, z1, marker\WObj:=WObj0;
    MoveL [[772.576, -1084.29, 200.764], [0.707107, 0, 0.707107, 0], [0,0,0,0], [0,9E9,9E9,9E9,9E9,9E9]], vel60, z1, marker\WObj:=WObj0;
    MoveL [[720.782, -1084.29, 200.764], [0.707107, 0, 0.707107, 0], [0,0,0,0], [0,9E9,9E9,9E9,9E9,9E9]], vel60, z1, marker\WObj:=WObj0;
    MoveL [[666.936, -1163.198, 200.764], [0.707107, 0, 0.707107, 0], [0,0,0,0], [0,9E9,9E9,9E9,9E9,9E9]], vel60, z1, marker\WObj:=WObj0;
    MoveL [[775.552, -1163.198, 200.764], [0.707107, 0, 0.707107, 0], [0,0,0,0], [0,9E9,9E9,9E9,9E9,9E9]], vel60, z1, marker\WObj:=WObj0;
    MoveL [[806.577, -1117.733, 200.764], [0.707107, 0, 0.707107, 0], [0,0,0,0], [0,9E9,9E9,9E9,9E9,9E9]], vel60, z1, marker\WObj:=WObj0;
